TharitSinsunthorn/moonbot_self_recognition/moonbot_gazebo/src/RL.csv
time,R0_1,R0_2,R0_3,Q0_1,Q0_2,Q0_3,v0_1,v0_2,v0_3,w0_1,w0_2,w0_3,vd0_1,vd0_2,vd0_3,wd0_1,wd0_2,wd0_3,q_1,q_2,q_3,q_4,q_5,q_6,q_7,q_8,q_9,q_10,q_11,q_12,qd_1,qd_2,qd_3,qd_4,qd_5,qd_6,qd_7,qd_8,qd_9,qd_10,qd_11,qd_12,qdd_1,qdd_2,qdd_3,qdd_4,qdd_5,qdd_6,qdd_7,qdd_8,qdd_9,qdd_10,qdd_11,qdd_12,tau_1,tau_2,tau_3,tau_4,tau_5,tau_6,tau_7,tau_8,tau_9,tau_10,tau_11,tau_12,tau_max,tau_rms,pos_e1_1,pos_e1_2,pos_e1_3,pos_e2_1,pos_e2_2,pos_e2_3,pos_e3_1,pos_e3_2,pos_e3_3,pos_e4_1,pos_e4_2,pos_e4_3,Fe1_1,Fe1_2,Fe1_3,Fe_res1,Fe2_1,Fe2_2,Fe2_3,Fe_res2,Fe3_1,Fe3_2,Fe3_3,Fe_res3,Fe4_1,Fe4_2,Fe4_3,Fe_res4,Te1_1,Te1_2,Te1_3,Te_res1,Te2_1,Te2_2,Te2_3,Te_res2,Te3_1,Te3_2,Te3_3,Te_res3,Te4_1,Te4_2,Te4_3,Te_res4,tsm,manipulability1,manipulability2,manipulability3,manipulability4,des_q_1,des_q_2,des_q_3,des_q_4,des_q_5,des_q_6,des_q_7,des_q_8,des_q_9,des_q_10,des_q_11,des_q_12
0,0.21,0,0.23,-0,0,-0,0,0,0,0,0,0,0,0,0,0,0,0,0.0693331336882089,-0.819383064102993,-1.11079684142035,0.0609002082779879,-0.780471435409627,-1.07328700891889,-0.0609002082779884,-0.780471435409626,-1.07328700891889,-0.0693331336882093,-0.819383064102993,-1.11079684142034,0,0,0,-4.44089209850063e-14,-1.11022302462516e-14,0,-4.44089209850063e-14,0,0,0,-1.11022302462516e-14,0,0,0,0,0,0,0,0,0,0,0,0,0,0,0,0,0,0,0,0,0,0,0,0,0,0,0,0.4,0.2,8.32667268468867e-17,1.07552855510562e-16,0.2,5.55111512312578e-17,5.20417042793042e-17,-0.2,5.55111512312578e-17,0.4,-0.2,-2.77555756156289e-17,0,0,0,0,0,0,0,0,0,0,0,0,0,0,0,0,0,0,0,0,0,0,0,0,0,0,0,0,0,0,0,0,0.194182475759851,0.00171073781155727,0.00190971953901106,0.00190971953901106,0.00171073781155727,0.0693331336882089,-0.819383064102993,-1.11079684142035,0.0609002082779879,-0.780471435409627,-1.07328700891889,-0.0609002082779884,-0.780471435409626,-1.07328700891889,-0.0693331336882093,-0.819383064102993,-1.11079684142034
0.05,0.21312,-0.00416000000000001,0.23,-0,0,-0,0.106175999999999,-0.141568,0,0,0,0,0,0,0,0,0,0,0.0120131520477836,-0.774398343147373,-1.21036662905679,0.0522643638697766,-0.768482166962752,-1.0565462062995,-0.105643515812733,-0.781224015690148,-1.07423284117941,-0.0654418194352662,-0.835682391330789,-1.12143547588565,-1.99135433262315,1.34636760693434,-3.04829352891964,-0.285615887563262,0.395408772331962,0.589634579970166,-1.52518182407175,-0.0192076013344589,-0.0240339664841827,0.137016542414514,-0.566252668965039,-0.343440932016748,0,0,0,0,0,0,0,0,0,0,0,0,0,0,0,0,0,0,0,0,0,0,0,0,0,0,0.4052,0.1896,0.00704000000000002,3.12250225675825e-17,0.2,2.77555756156289e-17,8.32667268468867e-17,-0.2,5.55111512312578e-17,0.4,-0.2,-8.32667268468867e-17,0,0,0,0,0,0,0,0,0,0,0,0,0,0,0,0,0,0,0,0,0,0,0,0,0,0,0,0,0,0,0,0,0,0.0017308648303434,0.00197511456112882,0.00190568769064189,0.00163229094714566,0.0120131520477836,-0.774398343147373,-1.21036662905679,0.0522643638697766,-0.768482166962752,-1.0565462062995,-0.105643515812733,-0.781224015690148,-1.07423284117941,-0.0654418194352662,-0.835682391330789,-1.12143547588565
0.1,0.22056,-0.01408,0.23,-0,0,-0,0.169536000000001,-0.226048000000001,0,0,0,0,0,0,0,0,0,0,-0.138878521296825,-0.717276642884362,-1.35302547654501,0.0343376431325115,-0.744618284859533,-1.0092150364727,-0.212590796623745,-0.780695562662166,-1.07356985675911,-0.0542363015131491,-0.87858717603677,-1.14020598699646,-3.605742919869,0.772722657910629,-2.2280456921326,-0.37907251508269,0.482530389013558,1.17388564771517,-2.4315968397052,0.0408396394161015,0.0512845319297739,0.283236120558605,-1.02615538543099,-0.346949540832142,0,0,0,0,0,0,0,0,0,0,0,0,0,0,0,0,0,0,0,0,0,0,0,0,0,0,0.4176,0.1648,0.01792,2.04697370165263e-16,0.2,5.55111512312578e-17,1.17961196366423e-16,-0.2,5.55111512312578e-17,0.4,-0.2,0,0,0,0,0,0,0,0,0,0,0,0,0,0,0,0,0,0,0,0,0,0,0,0,0,0,0,0,0,0,0,0,0,0,0.00169410361414334,0.00211307772043995,0.00190851794806713,0.00143671438140545,-0.138878521296825,-0.717276642884362,-1.35302547654501,0.0343376431325115,-0.744618284859533,-1.0092150364727,-0.212590796623745,-0.780695562662166,-1.07356985675911,-0.0542363015131491,-0.87858717603677,-1.14020598699646
0.15,0.22944,-0.0259200000000001,0.23,-0,0,-0,0.175296,-0.233728,0,0,0,0,0,0,0,0,0,0,-0.340532429617584,-0.733477785684025,-1.35889524170182,0.0168115608340673,-0.725812767740446,-0.937709950240878,-0.337963711581834,-0.775914925250351,-1.06731243639222,-0.0356701841905567,-0.936745402795473,-1.15071850549213,-4.11691310829132,-1.09078322246353,1.41477499963205,-0.318053724752021,0.280484174038431,1.55222538347086,-2.43849334470734,0.127839764268733,0.172065811679012,0.426098237390793,-1.20488823949588,-0.1063004635391,0,0,0,0,0,0,0,0,0,0,0,0,0,0,0,0,0,0,0,0,0,0,0,0,0,0,0.4324,0.1352,0.01792,-1.73472347597681e-17,0.2,5.55111512312578e-17,9.71445146547012e-17,-0.2,8.32667268468867e-17,0.4,-0.2,2.77555756156289e-17,0,0,0,0,0,0,0,0,0,0,0,0,0,0,0,0,0,0,0,0,0,0,0,0,0,0,0,0,0,0,0,0,0,0.00161986200252919,0.00223276733426455,0.00193430919910089,0.0011919831459085,-0.340532429617584,-0.733477785684025,-1.35889524170182,0.0168115608340673,-0.725812767740446,-0.937709950240878,-0.337963711581834,-0.775914925250351,-1.06731243639222,-0.0356701841905567,-0.936745402795473,-1.15071850549213
0.2,0.23688,-0.0358400000000001,0.23,-0,0,-0,0.123456000000002,-0.164608000000002,0,0,0,0,0,0,0,0,0,0,-0.518269480744594,-0.812702786937598,-1.22794894331627,0.00458712378939685,-0.719479041180463,-0.863112751410094,-0.438574494580043,-0.768905740712595,-1.05719744199046,-0.0127945773822313,-0.990807162661009,-1.14973465252224,-2.95566186891993,-1.67870560526791,2.96973082282257,-0.189743573894896,0.0386077262142015,1.34264564486806,-1.63296462173088,0.132357203635791,0.200400910794585,0.445072995892559,-0.928780854321032,0.0777150797258486,0,0,0,0,0,0,0,0,0,0,0,0,0,0,0,0,0,0,0,0,0,0,0,0,0,0,0.4448,0.1104,0.00704000000000007,2.23128807097517e-16,0.2,8.32667268468867e-17,1.80411241501588e-16,-0.2,8.32667268468867e-17,0.4,-0.2,6.93889390390723e-17,0,0,0,0,0,0,0,0,0,0,0,0,0,0,0,0,0,0,0,0,0,0,0,0,0,0,0,0,0,0,0,0,0,0.00155099349508077,0.00227864295725779,0.00197276489341969,0.000981225534457189,-0.518269480744594,-0.812702786937598,-1.22794894331627,0.00458712378939685,-0.719479041180463,-0.863112751410094,-0.438574494580043,-0.768905740712595,-1.05719744199046,-0.0127945773822313,-0.990807162661009,-1.14973465252224
0.25,0.23985984,-0.0398131200000001,0.23,-0,0,-0,0,0,0,0,0,0,0,0,0,0,0,0,-0.594796897721172,-0.863300724268467,-1.13482421136054,0.000199937551085494,-0.719745277373081,-0.828793107363909,-0.477312718063445,-0.765488944026798,-1.05180060889028,-0.000628573313921521,-1.01372137631728,-1.14685517575646,-0.56766644116526,-0.232897006188992,0.511590860200783,0,0,0,0,0,0,1.77635683940025e-13,-2.22044604925031e-14,-1.77635683940025e-13,0,0,0,0,0,0,0,0,0,0,0,0,0,0,0,0,0,0,0,0,0,0,0,0,0,0,0.45,0.0999999999999998,5.55111512312578e-17,9.8879238130678e-17,0.2,1.11022302462516e-16,1.38777878078145e-16,-0.2,8.32667268468867e-17,0.4,-0.2,1.52655665885959e-16,0,0,0,0,0,0,0,0,0,0,0,0,0,0,0,0,0,0,0,0,0,0,0,0,0,0,0,0,0,0,0,0,0.161335411977755,0.00150474056363382,0.0022781757079255,0.00199180636708307,0.000896054258006466,-0.594796897721172,-0.863300724268467,-1.13482421136054,0.000199937551085494,-0.719745277373081,-0.828793107363909,-0.477312718063445,-0.765488944026798,-1.05180060889028,-0.000628573313921521,-1.01372137631728,-1.14685517575646
0.3,0.241633484008036,-0.0386228376249212,0.23000945152,-0,0,-0,0.0603584699350179,0.0405062248257648,0.00032164249599842,0,0,0,0,0,0,0,0,0,-0.60439222879461,-0.870400760508523,-1.13733028200348,0.0128512247619588,-0.719951563452152,-0.825525824403456,-0.47252943405832,-0.761195930652155,-1.04423743549042,0.0277260019456227,-0.949909786456998,-1.24049183253613,-0.331370819554899,-0.242838336019624,-0.0825811666452125,0.429799294631694,-0.00725717543600402,0.11361687714242,0.161001068823641,0.143993564106815,0.260786336605179,0.926677598540504,2.01593569465363,-2.8666305438156,0,0,0,0,0,0,0,0,0,0,0,0,0,0,0,0,0,0,0,0,0,0,0,0,0,0,0.45,0.0999999999999999,2.77555756156289e-17,5.24753851482984e-17,0.2,2.77555756156289e-17,2.35922392732846e-16,-0.2,1.11022302462516e-16,0.4052,-0.2,0.0070400000000001,0,0,0,0,0,0,0,0,0,0,0,0,0,0,0,0,0,0,0,0,0,0,0,0,0,0,0,0,0,0,0,0,0,0.00147317008663034,0.00227719800323366,0.00201633568039472,0.000988080388708485,-0.60439222879461,-0.870400760508523,-1.13733028200348,0.0128512247619588,-0.719951563452152,-0.825525824403456,-0.47252943405832,-0.761195930652155,-1.04423743549042,0.0277260019456227,-0.949909786456998,-1.24049183253613
0.35,0.24586294279643,-0.0357844719612714,0.23003198976,-0,0,-0,0.0963770867136032,0.0646781130581336,0.000513581055999746,0,0,0,0,0,0,0,0,0,-0.629116677519847,-0.887749867607881,-1.14234576699841,0.042743232990448,-0.720539115543471,-0.816849986064476,-0.461735378561325,-0.751729746593014,-1.02495866946666,0.0834225364653021,-0.841638665549877,-1.3736688626491,-0.587668424920706,-0.400256620707762,-0.102526181519735,0.67756484097492,-0.0147132935613192,0.208817547291495,0.238711897457566,0.205943848775769,0.45497769271865,1.14269400795539,1.97572227698538,-2.0465013876148,0,0,0,0,0,0,0,0,0,0,0,0,0,0,0,0,0,0,0,0,0,0,0,0,0,0,0.45,0.0999999999999999,8.32667268468867e-17,7.50267903359969e-17,0.2,5.55111512312578e-17,1.66533453693773e-16,-0.2,1.11022302462516e-16,0.4176,-0.2,0.0179199999999998,0,0,0,0,0,0,0,0,0,0,0,0,0,0,0,0,0,0,0,0,0,0,0,0,0,0,0,0,0,0,0,0,0,0.00139751918638126,0.00227418461222106,0.00207178693198693,0.0011707816795466,-0.629116677519847,-0.887749867607881,-1.14234576699841,0.042743232990448,-0.720539115543471,-0.816849986064476,-0.461735378561325,-0.751729746593014,-1.02495866946666,0.0834225364653021,-0.841638665549877,-1.3736688626491
0.4,0.25091100651161,-0.0323967452014314,0.23005889024,-0,0,-0,0.0996515064207448,0.0668755574429011,0.000531030015998857,0,0,0,0,0,0,0,0,0,-0.662523541507971,-0.909138119650303,-1.14660915405272,0.0778602198098941,-0.721464653146167,-0.804809496083982,-0.449877154847455,-0.74192245912911,-0.99956622874164,0.133886586503879,-0.797050862549964,-1.37139944366235,-0.696655617565867,-0.427457839111656,-0.0696460929432874,0.688087023865025,-0.0205399259085803,0.252599550919896,0.225869568516224,0.180280421932444,0.522427913694656,0.887416382432882,0.031424463091434,1.56617140519941,0,0,0,0,0,0,0,0,0,0,0,0,0,0,0,0,0,0,0,0,0,0,0,0,0,0,0.45,0.0999999999999999,8.32667268468867e-17,2.03830008427275e-16,0.2,8.32667268468867e-17,7.28583859910259e-17,-0.2,1.11022302462516e-16,0.4324,-0.2,0.0179199999999989,0,0,0,0,0,0,0,0,0,0,0,0,0,0,0,0,0,0,0,0,0,0,0,0,0,0,0,0,0,0,0,0,0,0.00130696150175595,0.00226895580530682,0.00213158115862564,0.00134859486664108,-0.662523541507971,-0.909138119650303,-1.14660915405272,0.0778602198098941,-0.721464653146167,-0.804809496083982,-0.449877154847455,-0.74192245912911,-0.99956622874164,0.133886586503879,-0.797050862549964,-1.37139944366235
0.45,0.255140465300005,-0.0295583795377818,0.23008142848,-0,0,-0,0.070181729056451,0.0470985579800465,0.000373989376001305,0,0,0,0,0,0,0,0,0,-0.694383651979641,-0.927523969118721,-1.14879345015413,0.106765533219432,-0.722483574440416,-0.79324520462386,-0.440706726295954,-0.735031056674815,-0.976189959684122,0.16686263947691,-0.837159805087663,-1.23395390568228,-0.555891743949877,-0.307556190418845,-0.0277377223454778,0.476205432563859,-0.0186894162967799,0.201498234146058,0.147682227168833,0.10566001145762,0.401636072238531,0.500260894110749,-1.13656359077994,3.08061826675026,0,0,0,0,0,0,0,0,0,0,0,0,0,0,0,0,0,0,0,0,0,0,0,0,0,0,0.45,0.0999999999999999,0,2.13370987545147e-16,0.2,0,1.2490009027033e-16,-0.2,8.32667268468867e-17,0.4448,-0.2,0.00703999999999996,0,0,0,0,0,0,0,0,0,0,0,0,0,0,0,0,0,0,0,0,0,0,0,0,0,0,0,0,0,0,0,0,0,0.00123130874289639,0.00226276425470373,0.00217542862177072,0.00144440314840128,-0.694383651979641,-0.927523969118721,-1.14879345015413,0.106765533219432,-0.722483574440416,-0.79324520462386,-0.440706726295954,-0.735031056674815,-0.976189959684122,0.16686263947691,-0.837159805087663,-1.23395390568228
0.5,0.256834431761834,-0.0284215683093987,0.23009045540864,-0,0,-0,5.55111512312578e-15,5.55111512312578e-15,0,0,0,0,0,0,0,0,0,0,-0.708283171966853,-0.934981975315706,-1.14932662134706,0.118201490091483,-0.722966908150271,-0.788220553262251,-0.437212207963136,-0.732627276213675,-0.966264357105583,0.179831639153299,-0.876279809487121,-1.13802334318988,-8.88178419700125e-14,-2.22044604925031e-14,0,4.44089209850063e-14,2.22044604925031e-14,0,8.88178419700125e-14,4.21884749357559e-13,-5.32907051820075e-13,0.156163639052664,-0.209369446061136,0.514466937914193,0,0,0,0,0,0,0,0,0,0,0,0,0,0,0,0,0,0,0,0,0,0,0,0,0,0,0.45,0.0999999999999998,5.55111512312578e-17,1.76074432811646e-16,0.2,0,2.08166817117217e-17,-0.2,4.71844785465692e-16,0.45,-0.2,0,0,0,0,0,0,0,0,0,0,0,0,0,0,0,0,0,0,0,0,0,0,0,0,0,0,0,0,0,0,0,0,0,0.168420565090622,0.00120116269167209,0.00225971586060083,0.00219118154399409,0.00144913273563059,-0.708283171966853,-0.934981975315706,-1.14932662134706,0.118201490091483,-0.722966908150271,-0.788220553262251,-0.437212207963136,-0.732627276213675,-0.966264357105583,0.179831639153299,-0.876279809487121,-1.13802334318988
0.55,0.259046912291916,-0.0303886439766667,0.230090499566142,-0,0,-0,0.0752924143468281,-0.0669410980922602,1.50271373955402e-06,0,0,0,0,0,0,0,0,0,-0.677092102412664,-0.943483349826904,-1.14984274735582,0.117184881379103,-0.725271174523389,-0.764122088260338,-0.430164470132985,-0.68299097451172,-1.1036129568717,0.184174751697213,-0.88719793956436,-1.14128553870748,1.08191965347404,-0.287586828881381,-0.0146968315432261,-0.0342045564382332,-0.0870663997550314,0.834290339363619,0.249508985037394,1.39713800420211,-4.20786957174215,0.151234035411019,-0.374890734458144,-0.105240478537105,0,0,0,0,0,0,0,0,0,0,0,0,0,0,0,0,0,0,0,0,0,0,0,0,0,0,0.45,0.0999999999999998,2.77555756156289e-17,-6.93889390390723e-17,0.2,2.77555756156289e-17,0.0104000000000003,-0.2,0.00703999999999955,0.45,-0.2,2.77555756156289e-17,0,0,0,0,0,0,0,0,0,0,0,0,0,0,0,0,0,0,0,0,0,0,0,0,0,0,0,0,0,0,0,0,0,0.00116693586845741,0.00224316378555853,0.00223811219561588,0.0014013453960376,-0.677092102412664,-0.943483349826904,-1.14984274735582,0.117184881379103,-0.725271174523389,-0.764122088260338,-0.430164470132985,-0.68299097451172,-1.1036129568717,0.184174751697213,-0.88719793956436,-1.14128553870748
0.6,0.264322827402114,-0.0350793628755366,0.230090604864799,-0,0,-0,0.120222788188529,-0.106887865489086,2.39945069369085e-06,0,0,0,0,0,0,0,0,0,-0.595008946239456,-0.96298409644472,-1.15013064209443,0.114895105026295,-0.734117848517865,-0.701096648507333,-0.409192265772154,-0.645289336861164,-1.30680988669474,0.195896454811651,-0.914410765276736,-1.1469986934805,1.97027382216675,-0.432748113509751,0.00394375557366544,-0.0505889594796027,-0.246617393088422,1.51162833004257,0.539810699095256,0.0123714124126262,-3.36515402226443,0.285847286989682,-0.634398567980554,-0.104699706816902,0,0,0,0,0,0,0,0,0,0,0,0,0,0,0,0,0,0,0,0,0,0,0,0,0,0,0.45,0.0999999999999999,-2.77555756156289e-17,4.68375338513738e-17,0.2,1.11022302462516e-16,0.0352000000000002,-0.2,0.017920000000002,0.45,-0.2,2.77555756156289e-17,0,0,0,0,0,0,0,0,0,0,0,0,0,0,0,0,0,0,0,0,0,0,0,0,0,0,0,0,0,0,0,0,0,0.00108985859383054,0.00217632326838969,0.00206035123557017,0.00128565684219167,-0.595008946239456,-0.96298409644472,-1.15013064209443,0.114895105026295,-0.734117848517865,-0.701096648507333,-0.409192265772154,-0.645289336861164,-1.30680988669474,0.195896454811651,-0.914410765276736,-1.1469986934805
0.65,0.27061988737235,-0.0406779628516071,0.230090730543841,-0,0,-0,0.124307367628662,-0.110519389797892,2.48097223320976e-06,0,0,0,0,0,0,0,0,0,-0.481557344156789,-0.984129907386497,-1.1491447763603,0.112385971699199,-0.752244077453394,-0.613007371968278,-0.37209282054774,-0.726845589527348,-1.3553581909584,0.213086407730067,-0.948964576447352,-1.15004385829565,2.37931749373845,-0.394134256272471,0.028030802979373,-0.0477442567545783,-0.43525478121591,1.8728814777738,0.878557485411857,-2.67114565445309,0.778930523671661,0.37237486460393,-0.699347357253433,-0.0277883385937372,0,0,0,0,0,0,0,0,0,0,0,0,0,0,0,0,0,0,0,0,0,0,0,0,0,0,0.45,0.0999999999999999,1.38777878078145e-17,7.28583859910259e-17,0.2,1.38777878078145e-16,0.0648000000000014,-0.2,0.0179199999999958,0.45,-0.2,-1.11022302462516e-16,0,0,0,0,0,0,0,0,0,0,0,0,0,0,0,0,0,0,0,0,0,0,0,0,0,0,0,0,0,0,0,0,0,0.00100841395956409,0.00203161705046734,0.00165247539367385,0.00114507727950901,-0.481557344156789,-0.984129907386497,-1.1491447763603,0.112385971699199,-0.752244077453394,-0.613007371968278,-0.37209282054774,-0.726845589527348,-1.3553581909584,0.213086407730067,-0.948964576447352,-1.15004385829565
0.7,0.275895802482548,-0.045368681750477,0.230090835842499,-0,0,-0,0.0875461526673282,-0.0778356710186889,1.7472783664374e-06,0,0,0,0,0,0,0,0,0,-0.372813715391533,-0.999255251088025,-1.14767970544184,0.110449718448492,-0.77619589799674,-0.523839566246943,-0.321960169933661,-0.882828256027334,-1.2408981328964,0.231155935852923,-0.979548667618134,-1.14946477780857,1.89063336577699,-0.231193716993472,0.0263007709616403,-0.0311588142352104,-0.468489564884211,1.60633131735786,1.01609528829001,-3.02875497875152,2.81055078020582,0.328266190337967,-0.517363516427605,0.0292471606108791,0,0,0,0,0,0,0,0,0,0,0,0,0,0,0,0,0,0,0,0,0,0,0,0,0,0,0.45,0.0999999999999998,1.38777878078145e-17,1.94289029309402e-16,0.2,8.32667268468867e-17,0.0895999999999981,-0.2,0.00703999999999641,0.45,-0.2,1.38777878078145e-17,0,0,0,0,0,0,0,0,0,0,0,0,0,0,0,0,0,0,0,0,0,0,0,0,0,0,0,0,0,0,0,0,0,0.00095144435235182,0.0018323076295911,0.00125218310830752,0.00102588041013123,-0.372813715391533,-0.999255251088025,-1.14767970544184,0.110449718448492,-0.77619589799674,-0.523839566246943,-0.321960169933661,-0.882828256027334,-1.2408981328964,0.231155935852923,-0.979548667618134,-1.14946477780857
0.75,0.278008891579587,-0.0472473903262304,0.230090878016309,-0,0,-0,-2.22044604925031e-14,0,0,0,0,0,0,0,0,0,0,0,-0.32581115028305,-1.00447165341371,-1.14703589389411,0.109712761405166,-0.788964020472017,-0.482430941520084,-0.289592258194967,-0.968670818127798,-1.14998972739734,0.239623682880849,-0.992192484467143,-1.14843821015687,-1.77635683940025e-13,8.88178419700125e-14,0,-1.33226762955019e-13,-1.77635683940025e-13,3.5527136788005e-13,0.35307920658445,-0.445048639397816,0.494407208590175,1.77635683940025e-13,8.88178419700125e-14,0,0,0,0,0,0,0,0,0,0,0,0,0,0,0,0,0,0,0,0,0,0,0,0,0,0,0,0.45,0.0999999999999999,-4.16333634234434e-17,6.93889390390723e-18,0.2,0,0.0999999999999998,-0.2,-4.16333634234434e-17,0.45,-0.2,-4.16333634234434e-17,0,0,0,0,0,0,0,0,0,0,0,0,0,0,0,0,0,0,0,0,0,0,0,0,0,0,0,0,0,0,0,0,0.155459930542294,0.000932036217554153,0.00172393522916141,0.00106774851688134,0.00097791834347169,-0.32581115028305,-1.00447165341371,-1.14703589389411,0.109712761405166,-0.788964020472017,-0.482430941520084,-0.289592258194967,-0.968670818127798,-1.14998972739734,0.239623682880849,-0.992192484467143,-1.14843821015687
0.8,0.27646882131184,-0.0485633025747002,0.230090878222613,-0,0,-0,-0.0524097758808351,-0.0447815060555912,7.02067570745868e-09,0,0,0,0,0,0,0,0,0,-0.317048331537607,-0.995356956534328,-1.14811423741153,0.125014646296858,-0.665139165601001,-0.758655147768419,-0.296606527654968,-0.977487050084766,-1.14958975245149,0.272814654838866,-0.989149247645187,-1.14872473930798,0.291292782687624,0.309086338416986,-0.0341721353461111,0.540321997023785,3.29312735341671,-7.76221698050001,-0.243790215352302,-0.30123981596899,0.016180348043271,1.12088807184225,0.106664816678248,-0.00976148904996421,0,0,0,0,0,0,0,0,0,0,0,0,0,0,0,0,0,0,0,0,0,0,0,0,0,0,0.45,0.0999999999999999,-4.16333634234434e-17,0.0051999999999985,0.189599999999998,0.00704000000000354,0.0999999999999999,-0.2,5.55111512312578e-17,0.45,-0.2,8.32667268468867e-17,0,0,0,0,0,0,0,0,0,0,0,0,0,0,0,0,0,0,0,0,0,0,0,0,0,0,0,0,0,0,0,0,0,0.00096602922634342,0.00241584135512435,0.00103377269714357,0.000989395010847728,-0.317048331537607,-0.995356956534328,-1.14811423741153,0.125014646296858,-0.665139165601001,-0.758655147768419,-0.296606527654968,-0.977487050084766,-1.14958975245149,0.272814654838866,-0.989149247645187,-1.14872473930798
0.85,0.272796346057983,-0.0517012471672056,0.230090878714568,-0,0,-0,-0.0836850490105068,-0.0715046471015168,1.1210227190972e-08,0,0,0,0,0,0,0,0,0,-0.29842407283063,-0.97402871413978,-1.14977330176672,0.169795847639676,-0.5528730314883,-1.106734167858,-0.315335794611507,-0.99893592586634,-1.14771628049679,0.348714734212222,-0.980830320843664,-1.14938018128455,0.398802519119568,0.480797872459171,-0.0264380513117501,1.1415242982447,1.19473694629881,-5.80413711427674,-0.454017555695962,-0.493873672915135,0.0540390547058678,1.68761528422952,0.202031344235287,-0.0141741124886963,0,0,0,0,0,0,0,0,0,0,0,0,0,0,0,0,0,0,0,0,0,0,0,0,0,0,0.45,0.0999999999999999,-2.77555756156289e-17,0.017599999999999,0.1648,0.0179200000000037,0.1,-0.2,1.2490009027033e-16,0.45,-0.2,2.77555756156289e-17,0,0,0,0,0,0,0,0,0,0,0,0,0,0,0,0,0,0,0,0,0,0,0,0,0,0,0,0,0,0,0,0,0,0.0010470558087413,0.00270841604815197,0.000952637315207472,0.00102098558580522,-0.29842407283063,-0.97402871413978,-1.14977330176672,0.169795847639676,-0.5528730314883,-1.106734167858,-0.315335794611507,-0.99893592586634,-1.14771628049679,0.348714734212222,-0.980830320843664,-1.14938018128455
0.9,0.26841306914209,-0.055446535874389,0.23009087930174,-0,0,-0,-0.0865282556586022,-0.0739340235601738,1.15910919751272e-08,0,0,0,0,0,0,0,0,0,-0.279627883634966,-0.949374593191321,-1.15005314966805,0.24602882270507,-0.599125775254452,-1.24986644095311,-0.342268666307944,-1.02526545289046,-1.14380269287575,0.432876672259149,-0.96917424820366,-1.14997293734911,0.345541640139646,0.479465600244977,0.00923408553834548,1.76919479512057,-2.26785482696974,-0.781833387003594,-0.578038727825358,-0.525640509521175,0.091573226054642,1.6042631875643,0.243453487048384,-0.00915739945277494,0,0,0,0,0,0,0,0,0,0,0,0,0,0,0,0,0,0,0,0,0,0,0,0,0,0,0.45,0.0999999999999999,-5.55111512312578e-17,0.0323999999999982,0.135199999999998,0.0179199999999967,0.0999999999999999,-0.2,2.77555756156289e-17,0.45,-0.2,6.93889390390723e-17,0,0,0,0,0,0,0,0,0,0,0,0,0,0,0,0,0,0,0,0,0,0,0,0,0,0,0,0,0,0,0,0,0,0.00114345142810902,0.00233788105006793,0.000855845889245433,0.00106579831963034,-0.279627883634966,-0.949374593191321,-1.15005314966805,0.24602882270507,-0.599125775254452,-1.24986644095311,-0.342268666307944,-1.02526545289046,-1.14380269287575,0.432876672259149,-0.96917424820366,-1.14997293734911
0.95,0.264740593888232,-0.0585844804668949,0.230090879793695,-0,0,-0,-0.0609393958252769,-0.052069635431784,8.16327838659703e-09,0,0,0,0,0,0,0,0,0,-0.266159100139221,-0.929437029453096,-1.14884768635381,0.342474325498618,-0.748444641932331,-1.19084347855156,-0.369895004782005,-1.04786683027509,-1.13914398952657,0.497811024758067,-0.958204279940719,-1.15016682492886,0.211034622607476,0.326130928261215,0.0291450393859805,1.8916577829406,-3.00784639045891,1.99491156659501,-0.49667425466362,-0.378118078914835,0.0858755348126294,1.0422458154923,0.188661077391583,-0.00073749904583309,0,0,0,0,0,0,0,0,0,0,0,0,0,0,0,0,0,0,0,0,0,0,0,0,0,0,0.45,0.0999999999999999,2.77555756156289e-17,0.0448000000000004,0.110399999999997,0.00703999999999283,0.1,-0.2,6.93889390390723e-17,0.45,-0.2,-1.11022302462516e-16,0,0,0,0,0,0,0,0,0,0,0,0,0,0,0,0,0,0,0,0,0,0,0,0,0,0,0,0,0,0,0,0,0,0.00122371014295603,0.00186380792721376,0.00077509346032857,0.00110857784968224,-0.266159100139221,-0.929437029453096,-1.14884768635381,0.342474325498618,-0.748444641932331,-1.19084347855156,-0.369895004782005,-1.04786683027509,-1.13914398952657,0.497811024758067,-0.958204279940719,-1.15016682492886
1,0.263269708315591,-0.0598412778882023,0.230090879990731,-0,0,-0,0,0,0,0,0,0,0,0,0,0,0,0,-0.261251429117959,-0.921644175030515,-1.14799372342328,0.397907603434603,-0.83442085282639,-1.11901778340463,-0.382600391112285,-1.05703934506912,-1.13693268913958,0.52239514117173,-0.953552590874931,-1.15013771223109,4.44089209850063e-13,2.40918396343659e-12,-4.79616346638068e-12,0.351708361691339,-0.416721607862214,0.419778178599373,0,0,0,0,0,0,0,0,0,0,0,0,0,0,0,0,0,0,0,0,0,0,0,0,0,0,0,0,0,0,0,0,0.449999999999999,0.0999999999999998,3.60822483003176e-15,0.0499999999999997,0.0999999999999999,0,0.0999999999999999,-0.2,-1.38777878078145e-17,0.45,-0.2,8.32667268468867e-17,0,0,0,0,0,0,0,0,0,0,0,0,0,0,0,0,0,0,0,0,0,0,0,0,0,0,0,0,0,0,0,0,0.147551701950318,0.00125567704813743,0.00164073549280183,0.000742912342607448,0.001126900258623,-0.261251429117959,-0.921644175030515,-1.14799372342328,0.397907603434603,-0.83442085282639,-1.11901778340463,-0.382600391112285,-1.05703934506912,-1.13693268913958,0.52239514117173,-0.953552590874931,-1.15013771223109
1.05,0.264498506510993,-0.0607611490926614,0.230090879991695,-0,0,-0,0.0418169478188624,-0.0313039246809144,3.28015392625502e-11,0,0,0,0,0,0,0,0,0,-0.276617111907102,-0.85447148582851,-1.23740360756119,0.39399433621998,-0.829682298079499,-1.11608029418505,-0.412404070370498,-1.05311097633637,-1.13790174137297,0.531203018185193,-0.95972488980261,-1.15016173367443,-0.50520956117146,2.12403968757736,-2.72240125528604,-0.131845730528779,0.160360089247502,0.101520148617951,-1.00228154309283,0.135666226713038,-0.0330960110058953,0.304063438028113,-0.210521969982258,0.000514297900977567,0,0,0,0,0,0,0,0,0,0,0,0,0,0,0,0,0,0,0,0,0,0,0,0,0,0,0.455199999999997,0.0999999999999998,0.00704000000000712,0.0499999999999998,0.0999999999999999,-2.77555756156289e-17,0.0999999999999998,-0.2,-5.55111512312578e-17,0.45,-0.2,2.77555756156289e-17,0,0,0,0,0,0,0,0,0,0,0,0,0,0,0,0,0,0,0,0,0,0,0,0,0,0,0,0,0,0,0,0,0,0.0013701756235274,0.00166336157960564,0.000756653639498353,0.00110261215137487,-0.276617111907102,-0.85447148582851,-1.23740360756119,0.39399433621998,-0.829682298079499,-1.11608029418505,-0.412404070370498,-1.05311097633637,-1.13790174137297,0.531203018185193,-0.95972488980261,-1.15016173367443
1.1,0.267428717592339,-0.062954688118678,0.230090879993993,-0,0,-0,0.0667710034794045,-0.0499843860638949,5.23775467442533e-11,0,0,0,0,0,0,0,0,0,-0.307659194098043,-0.740788889725789,-1.35993117695528,0.385120887900176,-0.81870954927721,-1.10851311059009,-0.479208418726997,-1.04307870386759,-1.14022615792612,0.553853594551419,-0.974603824342373,-1.1497451242391,-0.646866480067421,2.05859197461125,-1.79293689604805,-0.196751401283102,0.245926362254079,0.179449297903567,-1.46999315199783,0.236240281876698,-0.0527670502535216,0.537806344670422,-0.340901995123633,0.0153019130435084,0,0,0,0,0,0,0,0,0,0,0,0,0,0,0,0,0,0,0,0,0,0,0,0,0,0,0.467599999999997,0.0999999999999998,0.0179200000000002,0.0499999999999998,0.0999999999999999,2.77555756156289e-17,0.0999999999999998,-0.2,-6.93889390390723e-17,0.45,-0.2,-1.38777878078145e-17,0,0,0,0,0,0,0,0,0,0,0,0,0,0,0,0,0,0,0,0,0,0,0,0,0,0,0,0,0,0,0,0,0,0.00158947909027339,0.0017165841894455,0.000792026422312808,0.00104484293485507,-0.307659194098043,-0.740788889725789,-1.35993117695528,0.385120887900176,-0.81870954927721,-1.10851311059009,-0.479208418726997,-1.04307870386759,-1.14022615792612,0.553853594551419,-0.974603824342373,-1.1497451242391
1.15,0.270926066302332,-0.0655727830852137,0.230090879996737,-0,0,-0,0.0690395539938216,-0.0516826098258427,5.41594546987767e-11,0,0,0,0,0,0,0,0,0,-0.336911371874157,-0.697828574831482,-1.34290934626092,0.375303179531922,-0.806235072790665,-1.09842931384153,-0.551334157981581,-1.03007067541546,-1.14290905375597,0.584362584622355,-0.992612089744148,-1.14839674527838,-0.522919099209584,-0.0884675408321822,1.88091372495673,-0.187570841164675,0.240767801473463,0.208227604273681,-1.36052286417767,0.264522362781783,-0.0514630146003725,0.635366029409035,-0.35731477475236,0.03378920466659,0,0,0,0,0,0,0,0,0,0,0,0,0,0,0,0,0,0,0,0,0,0,0,0,0,0,0.482400000000002,0.0999999999999999,0.0179200000000001,0.0499999999999998,0.0999999999999999,2.77555756156289e-17,0.0999999999999999,-0.2,6.93889390390723e-17,0.45,-0.2,-8.32667268468867e-17,0,0,0,0,0,0,0,0,0,0,0,0,0,0,0,0,0,0,0,0,0,0,0,0,0,0,0,0,0,0,0,0,0,0.00178904815439271,0.00177860005320829,0.000838500856955997,0.000976339286335548,-0.336911371874157,-0.697828574831482,-1.34290934626092,0.375303179531922,-0.806235072790665,-1.09842931384153,-0.551334157981581,-1.03007067541546,-1.14290905375597,0.584362584622355,-0.992612089744148,-1.14839674527838
1.2,0.273856277383677,-0.0677663221112315,0.230090879999035,-0,0,-0,0.0486225993626466,-0.036398595967202,3.81417120109973e-11,0,0,0,0,0,0,0,0,0,-0.356687285661195,-0.747259684990375,-1.18987676254186,0.36765987007659,-0.796324100572467,-1.0890832018736,-0.605790556199633,-1.01848656785306,-1.14497142368322,0.613366412253341,-1.00785394365496,-1.14658200587987,-0.30362307037024,-1.33895116651542,3.37495934391949,-0.123392848953197,0.160969087692497,0.160817129476776,-0.867842805241636,0.195879482623429,-0.0326534447770754,0.505451492458597,-0.253634516102275,0.034303832194027,0,0,0,0,0,0,0,0,0,0,0,0,0,0,0,0,0,0,0,0,0,0,0,0,0,0,0.494800000000005,0.0999999999999998,0.0070399999999893,0.05,0.0999999999999998,1.11022302462516e-16,0.0999999999999999,-0.2,8.32667268468867e-17,0.45,-0.2,0,0,0,0,0,0,0,0,0,0,0,0,0,0,0,0,0,0,0,0,0,0,0,0,0,0,0,0,0,0,0,0,0,0,0.00186994855246186,0.00182912438627492,0.000880480462079805,0.000919515809603179,-0.356687285661195,-0.747259684990375,-1.18987676254186,0.36765987007659,-0.796324100572467,-1.0890832018736,-0.605790556199633,-1.01848656785306,-1.14497142368322,0.613366412253341,-1.00785394365496,-1.14658200587987
1.25,0.275029874183226,-0.0686448698708126,0.230090879999956,-0,0,-0,0,0,0,0,0,0,0,0,0,0,0,0,-0.364517021586721,-0.792641339430724,-1.0852609036983,0.364735417308658,-0.792496898083742,-1.08510678887092,-0.626174189646712,-1.01370566710014,-1.14572972403401,0.625994218467735,-1.01398442766069,-1.14568702832893,-0.0855918470587191,-0.246429706567974,0.564430521807679,0,0,0,0,0,0,1.06581410364015e-12,4.70734562441066e-12,-9.59232693276135e-12,0,0,0,0,0,0,0,0,0,0,0,0,0,0,0,0,0,0,0,0,0,0,0,0,0,0,0.5,0.0999999999999998,0,0.0499999999999998,0.0999999999999999,2.77555756156289e-17,0.1,-0.2,9.71445146547012e-17,0.449999999999999,-0.199999999999999,7.06379399417756e-15,0,0,0,0,0,0,0,0,0,0,0,0,0,0,0,0,0,0,0,0,0,0,0,0,0,0,0,0,0,0,0,0,0.142785322266218,0.00184820350657884,0.001848955323842,0.000897972080110623,0.000896949497179755,-0.364517021586721,-0.792641339430724,-1.0852609036983,0.364735417308658,-0.792496898083742,-1.08510678887092,-0.626174189646712,-1.01370566710014,-1.14572972403401,0.625994218467735,-1.01398442766069,-1.14568702832893
1.3,0.274596215406643,-0.068970929734171,0.23009087999996,-0,0,-0,-0.0147577417508593,-0.011096067965366,1.49880108324396e-13,0,0,0,0,0,0,0,0,0,-0.363444169592941,-0.791245278472894,-1.08375761697646,0.360478274167814,-0.793191118993163,-1.08584454286212,-0.631022763318016,-1.01597336188399,-1.14537692353701,0.559656259590634,-0.935098877650477,-1.24085238426779,0.0363962666887874,0.0473812776904059,0.0513655780842726,-0.145097866173494,-0.023596658003,-0.0249926644411147,-0.165996484309083,-0.0771826945877407,0.0121477535973469,-2.08791658148249,2.53741493041719,-2.89825696438246,0,0,0,0,0,0,0,0,0,0,0,0,0,0,0,0,0,0,0,0,0,0,0,0,0,0,0.5,0.0999999999999999,-5.55111512312578e-17,0.0499999999999998,0.0999999999999999,2.77555756156289e-17,0.0999999999999998,-0.2,-8.32667268468867e-17,0.455199999938017,-0.205200000061996,0.00704000000003197,0,0,0,0,0,0,0,0,0,0,0,0,0,0,0,0,0,0,0,0,0,0,0,0,0,0,0,0,0,0,0,0,0,0.00185548130479174,0.00184534435626544,0.000889663161394256,0.0010458962807178,-0.363444169592941,-0.791245278472894,-1.08375761697646,0.360478274167814,-0.793191118993163,-1.08584454286212,-0.631022763318016,-1.01597336188399,-1.14537692353701,0.559656259590634,-0.935098877650477,-1.24085238426779
1.35,0.273562106016328,-0.0697484571006406,0.230090879999971,-0,0,-0,-0.0235643507521921,-0.0177175913443128,2.38697950294409e-13,0,0,0,0,0,0,0,0,0,-0.360926200565118,-0.787962342151737,-1.08009802790273,0.350246150247103,-0.794836025861855,-1.08756318516558,-0.642950993056923,-1.0213841498701,-1.1444851561579,0.448870325566328,-0.789724645641623,-1.37015482919042,0.0568833000677893,0.0742340823588594,0.0843216390125079,-0.234157127733248,-0.0373467935334215,-0.0386625845292699,-0.276458063341822,-0.123324705156858,0.0209403822305276,-2.08236200978549,2.80944083662819,-1.86140342282481,0,0,0,0,0,0,0,0,0,0,0,0,0,0,0,0,0,0,0,0,0,0,0,0,0,0,0.5,0.0999999999999999,-2.77555756156289e-17,0.0499999999999998,0.0999999999999999,0,0.0999999999999999,-0.2,6.93889390390723e-17,0.467599999790197,-0.217600000209814,0.0179200000000179,0,0,0,0,0,0,0,0,0,0,0,0,0,0,0,0,0,0,0,0,0,0,0,0,0,0,0,0,0,0,0,0,0,0.00187269643310967,0.00183681297394091,0.000869926783437875,0.00137948708455144,-0.360926200565118,-0.787962342151737,-1.08009802790273,0.350246150247103,-0.794836025861855,-1.08756318516558,-0.642950993056923,-1.0213841498701,-1.1444851561579,0.448870325566328,-0.789724645641623,-1.37015482919042
1.4,0.272327846421438,-0.070676473634814,0.230090879999983,-0,0,-0,-0.0243649515704991,-0.0183195480150999,2.47024622979097e-13,0,0,0,0,0,0,0,0,0,-0.357993248709297,-0.784129958121259,-1.07559123105665,0.337885492297422,-0.796778170329648,-1.089540592481,-0.657899704611743,-1.02784434777426,-1.14332973419904,0.366936097688873,-0.708393442695124,-1.34793912221232,0.0572874246892008,0.074906674791464,0.0901698069849743,-0.245280499893541,-0.0381459494096958,-0.0384049493526106,-0.301475625758885,-0.127521071615067,0.0235797107627889,-1.33183849301961,0.622483288485298,2.10523642191678,0,0,0,0,0,0,0,0,0,0,0,0,0,0,0,0,0,0,0,0,0,0,0,0,0,0,0.5,0.0999999999999998,2.77555756156289e-17,0.0499999999999999,0.0999999999999998,8.32667268468867e-17,0.0999999999999999,-0.2,1.38777878078145e-17,0.482399999790189,-0.232400000209808,0.0179199999999966,0,0,0,0,0,0,0,0,0,0,0,0,0,0,0,0,0,0,0,0,0,0,0,0,0,0,0,0,0,0,0,0,0,0.00189297716805934,0.00182678379125989,0.000846525054789499,0.00173840553582599,-0.357993248709297,-0.784129958121259,-1.07559123105665,0.337885492297422,-0.796778170329648,-1.089540592481,-0.657899704611743,-1.02784434777426,-1.14332973419904,0.366936097688873,-0.708393442695124,-1.34793912221232
1.45,0.271293737031122,-0.0714540010012843,0.230090879999994,-0,0,-0,-0.0171595442058248,-0.012901937977805,1.74860126378462e-13,0,0,0,0,0,0,0,0,0,-0.355594472679001,-0.780991955112398,-1.07169796501886,0.32740559812526,-0.798385947618272,-1.09113650709316,-0.671060149852929,-1.03325464154126,-1.14228765326322,0.321011629067574,-0.733581565418253,-1.17759639005619,0.0394427359553529,0.0516069552809362,0.0653470179081239,-0.174676782062022,-0.0265492975441317,-0.0261023035212915,-0.222556892748882,-0.0897439892320273,0.0177492067290785,-0.662619602646419,-1.01955969272401,3.76225767032636,0,0,0,0,0,0,0,0,0,0,0,0,0,0,0,0,0,0,0,0,0,0,0,0,0,0,0.5,0.0999999999999999,0,0.0499999999999998,0.0999999999999999,2.77555756156289e-17,0.0999999999999998,-0.2,-4.16333634234434e-17,0.494799999938021,-0.244800000061989,0.00703999999998214,0,0,0,0,0,0,0,0,0,0,0,0,0,0,0,0,0,0,0,0,0,0,0,0,0,0,0,0,0,0,0,0,0,0.00190973671649834,0.00181851659658581,0.000827060938511271,0.00194218962967514,-0.355594472679001,-0.780991955112398,-1.07169796501886,0.32740559812526,-0.798385947618272,-1.09113650709316,-0.671060149852929,-1.03325464154126,-1.14228765326322,0.321011629067574,-0.733581565418253,-1.17759639005619
1.5,0.27087955954112,-0.0717654132523187,0.230090879999998,-0,0,-0,6.66133814775094e-14,6.66133814775094e-14,0,0,0,0,0,0,0,0,0,0,-0.354648285939706,-0.779753966812657,-1.07010845436723,0.323176721320338,-0.799024564923621,-1.09176036008166,-0.676502439232901,-1.03542004779215,-1.1418518612106,0.305493549750532,-0.773003623279593,-1.06085672380237,-2.88657986402541e-13,-2.33146835171283e-13,-1.77635683940025e-13,8.43769498715119e-13,5.55111512312578e-14,1.77635683940025e-13,7.99360577730113e-13,1.31006316905768e-12,-3.5527136788005e-13,-0.083272641840626,-0.23793075732832,0.616012164995539,0,0,0,0,0,0,0,0,0,0,0,0,0,0,0,0,0,0,0,0,0,0,0,0,0,0,0.5,0.0999999999999999,0,0.0499999999999997,0.0999999999999999,-2.77555756156289e-17,0.0999999999999979,-0.2,5.55111512312578e-17,0.5,-0.25,5.55111512312578e-17,0,0,0,0,0,0,0,0,0,0,0,0,0,0,0,0,0,0,0,0,0,0,0,0,0,0,0,0,0,0,0,0,0.154099510646835,0.00191638777929691,0.00181524158807331,0.000819304652383366,0.0019530612062579,-0.354648285939706,-0.779753966812657,-1.07010845436723,0.323176721320338,-0.799024564923621,-1.09176036008166,-0.676502439232901,-1.03542004779215,-1.1418518612106,0.305493549750532,-0.773003623279593,-1.06085672380237
1.55,0.272445739925266,-0.0729838206371456,0.230090879999998,-0,0,-0,0.0532983232266027,-0.0414633405424247,-2.77555756156289e-15,0,0,0,0,0,0,0,0,0,-0.339451346913388,-0.781964595458365,-1.07292516234513,0.319653517917046,-0.793756135801765,-1.08643951315799,-0.694876373334659,-1.0066206773975,-1.22985581289384,0.308532881917305,-0.777594083010589,-1.06725880611672,0.519804826085313,-0.0748796303978394,-0.0943103627879083,-0.11850617795317,0.177569464732585,0.183846103744578,-0.659005186025308,0.804441866505301,-2.67534423573768,0.104555762902514,-0.158061280643307,-0.214960780444962,0,0,0,0,0,0,0,0,0,0,0,0,0,0,0,0,0,0,0,0,0,0,0,0,0,0,0.5,0.0999999999999998,2.77555756156289e-17,0.0499999999999999,0.0999999999999999,8.32667268468867e-17,0.105200000000007,-0.2,0.00704000000003187,0.5,-0.25,0,0,0,0,0,0,0,0,0,0,0,0,0,0,0,0,0,0,0,0,0,0,0,0,0,0,0,0,0,0,0,0,0,0.00375389122341193,0.00190452690490813,0.00184240999481963,0.000783186050730219,0.00192804612432388,-0.339451346913388,-0.781964595458365,-1.07292516234513,0.319653517917046,-0.793756135801765,-1.08643951315799,-0.694876373334659,-1.0066206773975,-1.22985581289384,0.308532881917305,-0.777594083010589,-1.06725880611672
1.6,0.276180477764382,-0.0758892536317299,0.230090879999998,-0,0,-0,0.0851038325662579,-0.0662063828186454,0,0,0,0,0,0,0,0,0,0,-0.302269978958903,-0.787092549175529,-1.07909801610296,0.311729569101881,-0.781820572170719,-1.07274462598362,-0.754190438792421,-0.987120197028523,-1.34939914356461,0.316203740221149,-0.789193614038862,-1.08149152990041,0.858834492822069,-0.114842903935619,-0.134063745762703,-0.174925722790853,0.264072599099108,0.324673957980259,-1.59629122217333,-0.0818666035236837,-1.73061389319393,0.180294543538029,-0.272286785947429,-0.31164902182379,0,0,0,0,0,0,0,0,0,0,0,0,0,0,0,0,0,0,0,0,0,0,0,0,0,0,0.5,0.0999999999999998,2.77555756156289e-17,0.0499999999999998,0.0999999999999999,0,0.117600000000007,-0.2,0.0179200000000321,0.5,-0.25,2.77555756156289e-17,0,0,0,0,0,0,0,0,0,0,0,0,0,0,0,0,0,0,0,0,0,0,0,0,0,0,0,0,0,0,0,0,0.00496202728359057,0.00187728164321439,0.00190529748224791,0.000649604544752609,0.00186622308150943,-0.302269978958903,-0.787092549175529,-1.07909801610296,0.311729569101881,-0.781820572170719,-1.07274462598362,-0.754190438792421,-0.987120197028523,-1.34939914356461,0.316203740221149,-0.789193614038862,-1.08149152990041
1.65,0.280638068088486,-0.0793570284962382,0.230090879999998,-0,0,-0,0.0879952425066222,-0.0684557502983019,2.77555756156289e-15,0,0,0,0,0,0,0,0,0,-0.2561947686318,-0.792874304001374,-1.08550878697522,0.303065802898413,-0.768773792429507,-1.05449815481802,-0.878519849200794,-1.04481573899076,-1.32996193900549,0.326226969437531,-0.804201650828821,-1.0966159933795,0.923840371909113,-0.110746438846077,-0.118594854487419,-0.164695442994844,0.246940849179711,0.376893178094306,-3.18900993483417,-1.84755424215328,1.9141521653534,0.205961983339087,-0.306037085323829,-0.282764885638009,0,0,0,0,0,0,0,0,0,0,0,0,0,0,0,0,0,0,0,0,0,0,0,0,0,0,0.5,0.0999999999999998,2.77555756156289e-17,0.0499999999999997,0.1,-2.77555756156289e-17,0.132399999999983,-0.2,0.017919999999947,0.5,-0.25,0,0,0,0,0,0,0,0,0,0,0,0,0,0,0,0,0,0,0,0,0,0,0,0,0,0,0,0,0,0,0,0,0,0.00376268213025363,0.00184699149146069,0.00197641033146455,0.000460448542150834,0.00178887184814846,-0.2561947686318,-0.792874304001374,-1.08550878697522,0.303065802898413,-0.768773792429507,-1.05449815481802,-0.878519849200794,-1.04481573899076,-1.32996193900549,0.326226969437531,-0.804201650828821,-1.0966159933795
1.7,0.284372805927594,-0.0822624614908225,0.230090879999998,-0,0,-0,0.0619725530462745,-0.0482114429811276,5.55111512312578e-15,0,0,0,0,0,0,0,0,0,-0.216230065865027,-0.797361357958632,-1.09012370736867,0.296394598638238,-0.758891497896223,-1.03756624959088,-1.09286433302791,-1.15362139721978,-1.17704424588143,0.335455034208143,-0.817709971315384,-1.10776654448814,0.6714327989918,-0.0719190698034944,-0.0719801014122723,-0.107267639141373,0.1571786152887,0.291567146456551,-4.80305148169187,-2.13855299799426,3.34800349458426,0.158832588989632,-0.229884103826927,-0.175571520544437,0,0,0,0,0,0,0,0,0,0,0,0,0,0,0,0,0,0,0,0,0,0,0,0,0,0,0.5,0.0999999999999998,5.55111512312578e-17,0.0499999999999999,0.0999999999999999,5.55111512312578e-17,0.144799999999986,-0.2,0.00703999999998925,0.5,-0.25,0,0,0,0,0,0,0,0,0,0,0,0,0,0,0,0,0,0,0,0,0,0,0,0,0,0,0,0,0,0,0,0,0,0.00484593437446272,0.00182378137016252,0.00203218198534541,0.000300358095244268,0.00172149250133562,-0.216230065865027,-0.797361357958632,-1.09012370736867,0.296394598638238,-0.758891497896223,-1.03756624959088,-1.09286433302791,-1.15362139721978,-1.17704424588143,0.335455034208143,-0.817709971315384,-1.10776654448814
1.75,0.285868628669878,-0.0834261342669755,0.230090879999998,-0,0,-0,3.5527136788005e-13,2.66453525910038e-13,0,0,0,0,0,0,0,0,0,0,-0.199892317861006,-0.799052573840445,-1.0917875924422,0.293858903279312,-0.755211447213395,-1.030351956449,-1.24853711539107,-1.2157063048832,-1.07376396748064,0.339388203129124,-0.823350836727612,-1.11185077456239,-2.33146835171283e-13,-1.16573417585641e-12,-1.24344978758018e-12,3.06421554796543e-12,-1.16795462190566e-11,2.23820961764432e-11,-0.71514936230832,-0.362229201923037,0.57175633776172,-3.90798504668055e-12,-5.99520433297585e-13,-5.32907051820075e-13,0,0,0,0,0,0,0,0,0,0,0,0,0,0,0,0,0,0,0,0,0,0,0,0,0,0,0.5,0.0999999999999998,8.32667268468867e-17,0.0499999999999973,0.100000000000001,-1.42386102908176e-14,0.15,-0.2,-2.77555756156289e-17,0.5,-0.25,5.55111512312578e-17,0,0,0,0,0,0,0,0,0,0,0,0,0,0,0,0,0,0,0,0,0,0,0,0,0,0,0,0,0,0,0,0,0.157532069518013,0.00181509806375282,0.00205342951565601,0.000236496218336853,0.00169392683740481,-0.199892317861006,-0.799052573840445,-1.0917875924422,0.293858903279312,-0.755211447213395,-1.030351956449,-1.24853711539107,-1.2157063048832,-1.07376396748064,0.339388203129124,-0.823350836727612,-1.11185077456239
1.8,0.289933087330077,-0.0799438689224772,0.230090879999996,-0,0,-0,0.138316654713577,0.118504168339584,-7.49400541621981e-14,0,0,0,0,0,0,0,0,0,-0.206199171459645,-0.814217427112186,-1.10507736752489,0.257326740667411,-0.705461430413435,-1.14393017778854,-0.957530747664115,-1.19953917478774,-1.08213571355013,0.289909288074032,-0.829729466238091,-1.11611046945408,-0.221729820712568,-0.528699311869696,-0.432155299726844,-1.27396652363601,1.46725155842232,-3.48132170586055,8.74047081895846,0.630859438847597,-0.321892407777291,-1.7064404480597,-0.210244299650331,-0.13638167102954,0,0,0,0,0,0,0,0,0,0,0,0,0,0,0,0,0,0,0,0,0,0,0,0,0,0,0.5,0.0999999999999998,-2.77555756156289e-17,0.0604000000000155,0.105200000000011,0.00703999999996086,0.15,-0.2,1.38777878078145e-17,0.5,-0.25,5.55111512312578e-17,0,0,0,0,0,0,0,0,0,0,0,0,0,0,0,0,0,0,0,0,0,0,0,0,0,0,0,0,0,0,0,0,0,0.00173872391489703,0.00209994537437248,0.000283858626426719,0.00166313532075011,-0.206199171459645,-0.814217427112186,-1.10507736752489,0.257326740667411,-0.705461430413435,-1.14393017778854,-0.957530747664115,-1.19953917478774,-1.08213571355013,0.289909288074032,-0.829729466238091,-1.11611046945408
1.85,0.299625257981326,-0.0716400054087032,0.230090879999991,-0,0,-0,0.220856430582117,0.189220941488344,-1.19348975147204e-13,0,0,0,0,0,0,0,0,0,-0.2241934973229,-0.85476375604643,-1.12967290851604,0.158400525840812,-0.648915303918066,-1.31003644278619,-0.586740999316531,-1.14378437631531,-1.10782216805204,0.164359046894158,-0.84211373915037,-1.12340234026761,-0.452484520729501,-0.976301002183533,-0.474065424881509,-2.41025771354746,0.631226222244474,-2.68496644335663,5.75755334060464,1.37069271809793,-0.584233263250766,-2.94588747792002,-0.242572170319866,-0.133321794905328,0,0,0,0,0,0,0,0,0,0,0,0,0,0,0,0,0,0,0,0,0,0,0,0,0,0,0.5,0.0999999999999999,0,0.0852000000000004,0.117600000000003,0.0179200000000321,0.15,-0.2,0,0.5,-0.25,5.55111512312578e-17,0,0,0,0,0,0,0,0,0,0,0,0,0,0,0,0,0,0,0,0,0,0,0,0,0,0,0,0,0,0,0,0,0,0.001545861352983,0.00204039639496143,0.000454537015486584,0.00160443822684186,-0.2241934973229,-0.85476375604643,-1.12967290851604,0.158400525840812,-0.648915303918066,-1.31003644278619,-0.586740999316531,-1.14378437631531,-1.10782216805204,0.164359046894158,-0.84211373915037,-1.12340234026761
1.9,0.311193332629593,-0.0617289425051659,0.230090879999985,-0,0,-0,0.228360046570231,0.195649739045933,-1.2490009027033e-13,0,0,0,0,0,0,0,0,0,-0.25345806142404,-0.910608116470308,-1.14638651505909,0.0156668226744681,-0.683638893647665,-1.33513509429742,-0.405033441099259,-1.07030180444191,-1.1334228953978,0.00408617783930509,-0.850337192681431,-1.12760389053334,-0.665542181050949,-1.16255457004183,-0.223219157492771,-3.04481033154231,-1.58645338562153,1.0875777476679,2.53001348033308,1.44620360200085,-0.423382789525562,-3.22413057855417,-0.099017853829364,-0.0480793235265509,0,0,0,0,0,0,0,0,0,0,0,0,0,0,0,0,0,0,0,0,0,0,0,0,0,0,0.5,0.0999999999999998,8.32667268468867e-17,0.114799999999988,0.132400000000011,0.0179199999999753,0.15,-0.2,2.77555756156289e-17,0.5,-0.25,8.32667268468867e-17,0,0,0,0,0,0,0,0,0,0,0,0,0,0,0,0,0,0,0,0,0,0,0,0,0,0,0,0,0,0,0,0,0,0.00130155177026973,0.00185890828981564,0.000696970252571248,0.00156620714808117,-0.25345806142404,-0.910608116470308,-1.14638651505909,0.0156668226744681,-0.683638893647665,-1.33513509429742,-0.405033441099259,-1.07030180444191,-1.1334228953978,0.00408617783930509,-0.850337192681431,-1.12760389053334
1.95,0.320885503280842,-0.0534250789913884,0.230090879999979,-0,0,-0,0.160827502677563,0.137790561015549,-8.60422844084496e-14,0,0,0,0,0,0,0,0,0,-0.288565923065933,-0.962979807847209,-1.15012703262798,-0.126203820650194,-0.78775436502279,-1.21602007746714,-0.327914584970243,-1.01051079133623,-1.14620549829527,-0.133827892378113,-0.85086457696307,-1.12785724968459,-0.67483310145493,-0.901417650783143,0.0016015161458327,-2.49319943552835,-2.11687105074149,2.79176901711082,1.02455926731113,0.9700817108941,-0.152116153357795,-2.28763480506142,0.0327322578769773,0.0156303902420163,0,0,0,0,0,0,0,0,0,0,0,0,0,0,0,0,0,0,0,0,0,0,0,0,0,0,0.5,0.0999999999999999,0,0.139599999999987,0.144800000000011,0.00703999999993238,0.15,-0.2,1.38777878078145e-17,0.5,-0.25,-2.77555756156289e-17,0,0,0,0,0,0,0,0,0,0,0,0,0,0,0,0,0,0,0,0,0,0,0,0,0,0,0,0,0,0,0,0,0,0.00108988133620531,0.00166917303010153,0.000909715904055442,0.00156377471491755,-0.288565923065933,-0.962979807847209,-1.15012703262798,-0.126203820650194,-0.78775436502279,-1.21602007746714,-0.327914584970243,-1.01051079133623,-1.14620549829527,-0.133827892378113,-0.85086457696307,-1.12785724968459
2,0.324767373952007,-0.05009924772083,0.230090879999977,-0,0,-0,0,0,0,0,0,0,0,0,0,0,0,0,-0.306809418232052,-0.985231104396338,-1.14905697449907,-0.194099516463292,-0.849727491840717,-1.12730863405589,-0.306156902925956,-0.987524026426281,-1.14886757528856,-0.188754204663505,-0.849402490786754,-1.12715021171506,-8.37108160567368e-12,1.92512672470002e-11,-3.81916720471054e-11,-0.557488841781018,-0.309214808894764,0.482896450350978,0,0,0,0,0,0,0,0,0,0,0,0,0,0,0,0,0,0,0,0,0,0,0,0,0,0,0,0,0,0,0,0,0.5,0.0999999999999943,2.8421709430404e-14,0.15,0.15,8.32667268468867e-17,0.15,-0.2,-6.93889390390723e-17,0.5,-0.25,2.77555756156289e-17,0,0,0,0,0,0,0,0,0,0,0,0,0,0,0,0,0,0,0,0,0,0,0,0,0,0,0,0,0,0,0,0,0.172194686418213,0.00100423386745622,0.00156902211397908,0.000995541492993032,0.00157052389182962,-0.306809418232052,-0.985231104396338,-1.14905697449907,-0.194099516463292,-0.849727491840717,-1.12730863405589,-0.306156902925956,-0.987524026426281,-1.14886757528856,-0.188754204663505,-0.849402490786754,-1.12715021171506
2.05,0.323558372493331,-0.0487221205255253,0.230090879999978,-0,0,-0,-0.0411432496404629,0.0468646977852316,1.38777878078145e-14,0,0,0,0,0,0,0,0,0,-0.233310821965169,-0.890997738610234,-1.24141069351382,-0.196692275439987,-0.855950342403418,-1.1302057132603,-0.275434122687798,-0.989395759664559,-1.14870242741208,-0.186366047396545,-0.843302542474946,-1.12403970266192,2.24784424460478,3.05258513980422,-2.76623339902553,-0.0893872889570879,-0.213110400134198,-0.0963429795154624,1.05036078538392,-0.0609413770000455,0.00548050279096657,0.0802352475700374,0.20621992583344,0.108115209841131,0,0,0,0,0,0,0,0,0,0,0,0,0,0,0,0,0,0,0,0,0,0,0,0,0,0,0.505200000000009,0.110400000000041,0.00704000000015981,0.15,0.15,-2.77555756156289e-17,0.15,-0.2,2.77555756156289e-17,0.5,-0.25,-2.77555756156289e-17,0,0,0,0,0,0,0,0,0,0,0,0,0,0,0,0,0,0,0,0,0,0,0,0,0,0,0,0,0,0,0,0,0,0.0012190339979649,0.00154043444314714,0.000988463822642834,0.00159887574659648,-0.233310821965169,-0.890997738610234,-1.24141069351382,-0.196692275439987,-0.855950342403418,-1.1302057132603,-0.275434122687798,-0.989395759664559,-1.14870242741208,-0.186366047396545,-0.843302542474946,-1.12403970266192
2.1,0.320675369014959,-0.0454382018290485,0.230090879999978,-0,0,-0,-0.0656952792622789,0.0748309731354979,1.66533453693773e-14,0,0,0,0,0,0,0,0,0,-0.123165424989932,-0.71420762970443,-1.35045539686639,-0.203313308818731,-0.871266184347104,-1.13630981961367,-0.200623026084071,-0.992843897148666,-1.14837365252842,-0.181024984313595,-0.829253381196851,-1.11580501605974,1.96066540949994,3.42603237333202,-1.2254870287709,-0.156625054769854,-0.354839327425616,-0.129167700357158,1.72134850899912,-0.0656914488845417,0.00650725232578253,0.117551809313632,0.31390531175407,0.197830182678871,0,0,0,0,0,0,0,0,0,0,0,0,0,0,0,0,0,0,0,0,0,0,0,0,0,0,0.517599999999988,0.135199999999955,0.0179199999999184,0.15,0.15,0,0.15,-0.2,5.55111512312578e-17,0.5,-0.25,5.55111512312578e-17,0,0,0,0,0,0,0,0,0,0,0,0,0,0,0,0,0,0,0,0,0,0,0,0,0,0,0,0,0,0,0,0,0,0.0017109976092621,0.00147137035288333,0.000975467270231681,0.0016654200021175,-0.123165424989932,-0.71420762970443,-1.35045539686639,-0.203313308818731,-0.871266184347104,-1.13630981961367,-0.200623026084071,-0.992843897148666,-1.14837365252842,-0.181024984313595,-0.829253381196851,-1.11580501605974
2.15,0.317234364863342,-0.0415186859654888,0.230090879999979,-0,0,-0,-0.0679272819564147,0.077373361804689,1.94289029309402e-14,0,0,0,0,0,0,0,0,0,-0.0503718242972704,-0.617099439796463,-1.27625096311672,-0.212135689301482,-0.890401650800617,-1.14212517794051,-0.109365251385573,-0.995002666255372,-1.14815179438155,-0.175232097020639,-0.813426258537389,-1.10445030080157,1.1388130010391,0.667697341589035,3.40585624472283,-0.182896390440312,-0.384961852409615,-0.10220375965968,1.81221739399593,-0.0253463052467207,0.00266831255650857,0.109749106887147,0.304159247016689,0.237436979841021,0,0,0,0,0,0,0,0,0,0,0,0,0,0,0,0,0,0,0,0,0,0,0,0,0,0,0.532399999999981,0.164799999999957,0.0179199999998901,0.15,0.15,2.77555756156289e-17,0.15,-0.2,-4.16333634234434e-17,0.5,-0.25,2.77555756156289e-17,0,0,0,0,0,0,0,0,0,0,0,0,0,0,0,0,0,0,0,0,0,0,0,0,0,0,0,0,0,0,0,0,0,0.00222389524944352,0.00138748690865851,0.00096735809869743,0.00174264524971774,-0.0503718242972704,-0.617099439796463,-1.27625096311672,-0.212135689301482,-0.890401650800617,-1.14212517794051,-0.109365251385573,-0.995002666255372,-1.14815179438155,-0.175232097020639,-0.813426258537389,-1.10445030080157
2.2,0.314351361384968,-0.0382347672690067,0.23009087999998,-0,0,-0,-0.0478392577184295,0.0544918637892522,1.66533453693773e-14,0,0,0,0,0,0,0,0,0,-0.0123124991715695,-0.659408412900895,-1.02777015791659,-0.220434903851142,-0.907125900151125,-1.14577784840048,-0.0322683586421282,-0.995121407963625,-1.14813923604823,-0.170804185654855,-0.800980355816434,-1.09363628027229,0.537995505952416,-1.56529008097729,5.41528500790065,-0.144077823663569,-0.281779773950785,-0.0529592381628419,1.27909003077473,0.00876579175990155,-0.000929454104081628,0.0710077935917042,0.201274152459963,0.187747315945508,0,0,0,0,0,0,0,0,0,0,0,0,0,0,0,0,0,0,0,0,0,0,0,0,0,0,0.544800000000009,0.189600000000041,0.00703999999998928,0.15,0.15,2.77555756156289e-17,0.15,-0.2,-2.77555756156289e-17,0.5,-0.25,2.77555756156289e-17,0,0,0,0,0,0,0,0,0,0,0,0,0,0,0,0,0,0,0,0,0,0,0,0,0,0,0,0,0,0,0,0,0,0.00240403608058954,0.00131617824791915,0.000966912671432933,0.00180524234139006,-0.0123124991715695,-0.659408412900895,-1.02777015791659,-0.220434903851142,-0.907125900151125,-1.14577784840048,-0.0322683586421282,-0.995121407963625,-1.14813923604823,-0.170804185654855,-0.800980355816434,-1.09363628027229
2.25,0.313196671991822,-0.0369195048646311,0.230090879999981,-0,0,-0,-3.5527136788005e-13,-3.5527136788005e-13,0,0,0,0,0,0,0,0,0,0,0.00051016775484547,-0.720342749981528,-0.856863265708608,-0.224025104881231,-0.913995947836368,-1.14693114905246,-0.0014471957532205,-0.994734304395656,-1.14818004072735,-0.169128499277845,-0.796209503261629,-1.08896729570449,0.102740007618141,-0.366701459605023,0.923227599800036,-6.48370246381091e-12,4.44089209850063e-13,1.77635683940025e-13,0,-2.29816166097407e-12,1.77635683940025e-13,1.50102152929321e-11,-2.1627144519698e-11,4.13891143580258e-11,0,0,0,0,0,0,0,0,0,0,0,0,0,0,0,0,0,0,0,0,0,0,0,0,0,0,0.55,0.2,2.77555756156289e-17,0.15,0.15,0,0.15,-0.2,4.16333634234434e-17,0.500000000000014,-0.25,-2.83661982791727e-14,0,0,0,0,0,0,0,0,0,0,0,0,0,0,0,0,0,0,0,0,0,0,0,0,0,0,0,0,0,0,0,0,0.170879872657837,0.00227641700244385,0.00128739229110944,0.00096836502020742,0.00182971550567458,0.00051016775484547,-0.720342749981528,-0.856863265708608,-0.224025104881231,-0.913995947836368,-1.14693114905246,-0.0014471957532205,-0.994734304395656,-1.14818004072735,-0.169128499277845,-0.796209503261629,-1.08896729570449
2.3,0.314429537164159,-0.0356851954182034,0.230090879999981,-0,0,-0,0.0419553501711079,0.0420044999302149,2.4980018054066e-14,0,0,0,0,0,0,0,0,0,0.000509343797753803,-0.720562820082877,-0.868546432077794,-0.201388601762639,-0.915476739618481,-1.14715475125047,-0.00138659038687106,-0.986752514383501,-1.14893289650044,-0.146931676832716,-0.729961139115337,-1.17396452173884,-2.82417461305862e-05,-0.00983926785931288,-0.3938778071916,0.772817400478587,-0.0487044281680338,-0.00725836084463083,0.00202146329018049,0.270581905287826,-0.0236152805657142,0.740629977155027,2.0764251073078,-2.56350161763574,0,0,0,0,0,0,0,0,0,0,0,0,0,0,0,0,0,0,0,0,0,0,0,0,0,0,0.55,0.2,-2.77555756156289e-17,0.15,0.15,0,0.15,-0.2,5.55111512312578e-17,0.505200000000031,-0.25,0.00703999999987559,0,0,0,0,0,0,0,0,0,0,0,0,0,0,0,0,0,0,0,0,0,0,0,0,0,0,0,0,0,0,0,0,0,0.00227439252427316,0.00128122489703681,0.000998463547563156,0.00196175683428115,0.000509343797753803,-0.720562820082877,-0.868546432077794,-0.201388601762639,-0.915476739618481,-1.14715475125047,-0.00138659038687106,-0.986752514383501,-1.14893289650044,-0.146931676832716,-0.729961139115337,-1.17396452173884
2.35,0.317369446421303,-0.0327418421228742,0.230090879999983,-0,0,-0,0.0669919967506871,0.0670704763816588,4.16333634234434e-14,0,0,0,0,0,0,0,0,0,0.000507304185990209,-0.721910766695978,-0.89511238453799,-0.146594291733305,-0.918388283531577,-1.14756919515679,-0.00125568649369212,-0.968097463566623,-1.1500078957516,-0.0989684631222509,-0.623348730065636,-1.28398211283047,-4.74333984201714e-05,-0.0406507218508878,-0.58981095887507,1.25768490583273,-0.0585101203154248,-0.00806255153911195,0.00282768128183619,0.420364805868334,-0.0155734014793296,1.03551136282825,1.83908395132378,-1.49105559553355,0,0,0,0,0,0,0,0,0,0,0,0,0,0,0,0,0,0,0,0,0,0,0,0,0,0,0.55,0.2,-8.32667268468867e-17,0.15,0.15,5.55111512312578e-17,0.15,-0.2,1.38777878078145e-17,0.517600000000058,-0.25,0.0179200000001175,0,0,0,0,0,0,0,0,0,0,0,0,0,0,0,0,0,0,0,0,0,0,0,0,0,0,0,0,0,0,0,0,0,0.00226399193809976,0.001269136400744,0.00106997117056325,0.00218622655800426,0.000507304185990209,-0.721910766695978,-0.89511238453799,-0.146594291733305,-0.918388283531577,-1.14756919515679,-0.00125568649369212,-0.968097463566623,-1.1500078957516,-0.0989684631222509,-0.623348730065636,-1.28398211283047
2.4,0.320878370373361,-0.0292288075445875,0.230090879999985,-0,0,-0,0.0692680555303582,0.0693492015141572,4.44089209850063e-14,0,0,0,0,0,0,0,0,0,0.000504721865775659,-0.724955434112474,-0.924582820463639,-0.0800386508809336,-0.920674740759235,-1.14787157118591,-0.00112052653375416,-0.946542628402096,-1.14996373039756,-0.0496099275786435,-0.598724140759571,-1.24919137568181,-5.2320537957673e-05,-0.0720016983954297,-0.563334387866909,1.32142292706416,-0.0346477476169671,-0.00445280313741137,0.00250860974881917,0.419290121073401,0.0123108709656705,0.91377188070938,-0.54376916565898,2.26776824359689,0,0,0,0,0,0,0,0,0,0,0,0,0,0,0,0,0,0,0,0,0,0,0,0,0,0,0.55,0.2,0,0.15,0.15,5.55111512312578e-17,0.15,-0.2,0,0.532400000000024,-0.25,0.0179199999998901,0,0,0,0,0,0,0,0,0,0,0,0,0,0,0,0,0,0,0,0,0,0,0,0,0,0,0,0,0,0,0,0,0,0.0022423320910923,0.00125967809069896,0.0011547218973557,0.00234053863544755,0.000504721865775659,-0.724955434112474,-0.924582820463639,-0.0800386508809336,-0.920674740759235,-1.14787157118591,-0.00112052653375416,-0.946542628402096,-1.14996373039756,-0.0496099275786435,-0.598724140759571,-1.24919137568181
2.45,0.32381827963049,-0.0262854542492548,0.230090879999987,-0,0,-0,0.048783526512608,0.0488406753273551,2.77555756156289e-14,0,0,0,0,0,0,0,0,0,0.000502423066564117,-0.72863700531445,-0.947528705297445,-0.0236947589171832,-0.921561123928639,-1.14798339877452,-0.00102167789837937,-0.92909258889555,-1.14881466470383,-0.0137529161185377,-0.671919617650496,-1.07528170698281,-3.90475525580136e-05,-0.0679685031154231,-0.370188324188625,0.936978801721766,-0.008128207362601,-0.00101299968218171,0.00156020786796773,0.285655308846045,0.0260887162557566,0.564162248983635,-1.79015053595066,3.80001152299574,0,0,0,0,0,0,0,0,0,0,0,0,0,0,0,0,0,0,0,0,0,0,0,0,0,0,0.55,0.2,2.77555756156289e-17,0.15,0.15,1.11022302462516e-16,0.15,-0.2,5.55111512312578e-17,0.544800000000052,-0.25,0.0070399999998472,0,0,0,0,0,0,0,0,0,0,0,0,0,0,0,0,0,0,0,0,0,0,0,0,0,0,0,0,0,0,0,0,0,0.00221736258968536,0.0012560196030274,0.00122511579909435,0.00231217126447839,0.000502423066564117,-0.72863700531445,-0.947528705297445,-0.0236947589171832,-0.921561123928639,-1.14798339877452,-0.00102167789837937,-0.92909258889555,-1.14881466470383,-0.0137529161185377,-0.671919617650496,-1.07528170698281
2.5,0.324995760705868,-0.0251065937810502,0.230090879999988,-0,0,-0,3.5527136788005e-13,0,0,0,0,0,0,0,0,0,0,0,0.00050146519317984,-0.73038768774783,-0.956295210856867,-0.00106465443411619,-0.921648970045657,-1.14799431858245,-0.000985227399778577,-0.922262417544947,-1.14806975716227,0.000543572065227593,-0.730553683966851,-0.957076695459451,1.7430501486615e-12,-2.77555756156289e-13,-1.24344978758018e-12,3.41948691584548e-12,1.0325074129014e-12,0,2.1316282072803e-12,-6.88338275267597e-13,0,0.114636334161311,-0.323078023639789,0.630593481932706,0,0,0,0,0,0,0,0,0,0,0,0,0,0,0,0,0,0,0,0,0,0,0,0,0,0,0.55,0.2,2.77555756156289e-17,0.15,0.15,8.32667268468867e-17,0.150000000000006,-0.2,0,0.55,-0.25,-2.77555756156289e-17,0,0,0,0,0,0,0,0,0,0,0,0,0,0,0,0,0,0,0,0,0,0,0,0,0,0,0,0,0,0,0,0,0.180891063130295,0.00220578613147685,0.00125565727192981,0.00125312828289962,0.00220469673349406,0.00050146519317984,-0.73038768774783,-0.956295210856867,-0.00106465443411619,-0.921648970045657,-1.14799431858245,-0.000985227399778577,-0.922262417544947,-1.14806975716227,0.000543572065227593,-0.730553683966851,-0.957076695459451
2.55,0.326550814655945,-0.0266616645266957,0.230090879999988,-0,0,-0,0.0529196821162259,-0.0529202536824869,0,0,0,0,0,0,0,0,0,0,0.0157375953638923,-0.730368094285733,-0.956202449184698,-0.00103392657361789,-0.912786061271442,-1.14674195932655,0.0201364808152666,-0.886980908246157,-1.24118437815895,0.000552075442921129,-0.733116801197914,-0.968261806124104,0.518450658501191,0.00107896375839411,0.00510952369303652,0.00102548180489492,0.299797045131334,0.0458104542714111,0.743224713413193,1.01737195189678,-2.84722085908822,0.000292317940786546,-0.0901780675954922,-0.376130477794412,0,0,0,0,0,0,0,0,0,0,0,0,0,0,0,0,0,0,0,0,0,0,0,0,0,0,0.55,0.2,-2.77555756156289e-17,0.15,0.15,0,0.15520000000005,-0.2,0.00703999999996086,0.55,-0.25,0,0,0,0,0,0,0,0,0,0,0,0,0,0,0,0,0,0,0,0,0,0,0,0,0,0,0,0,0,0,0,0,0,0,0.00220591480940284,0.00129244110332925,0.00123528862421243,0.00218803863159356,0.0157375953638923,-0.730368094285733,-0.956202449184698,-0.00103392657361789,-0.912786061271442,-1.14674195932655,0.0201364808152666,-0.886980908246157,-1.24118437815895,0.000552075442921129,-0.733116801197914,-0.968261806124104
2.6,0.330259020229207,-0.030369910150938,0.230090879999988,-0,0,-0,0.0844992392572408,-0.0845001519031996,0,0,0,0,0,0,0,0,0,0,0.0520272993874307,-0.730174189719396,-0.95527842641388,-0.000967381330108097,-0.892311107016507,-1.14260601324406,0.0806122920625745,-0.854521479443275,-1.37263446638936,0.000573456566144159,-0.740268310699501,-0.993350533797811,0.826075366263224,0.00622458735090037,0.0297823401174568,0.00143948678386074,0.458291551282775,0.108526280388865,1.52230476042234,0.179470285150329,-2.00267237403668,0.000501516978612671,-0.175570513772505,-0.552526696750277,0,0,0,0,0,0,0,0,0,0,0,0,0,0,0,0,0,0,0,0,0,0,0,0,0,0,0.55,0.2,2.77555756156289e-17,0.15,0.15,2.77555756156289e-17,0.167600000000007,-0.2,0.0179199999999469,0.55,-0.25,-5.55111512312578e-17,0,0,0,0,0,0,0,0,0,0,0,0,0,0,0,0,0,0,0,0,0,0,0,0,0,0,0,0,0,0,0,0,0,0.00220718929294741,0.00137925403721852,0.0011226075800679,0.00214291813650835,0.0520272993874307,-0.730174189719396,-0.95527842641388,-0.000967381330108097,-0.892311107016507,-1.14260601324406,0.0806122920625745,-0.854521479443275,-1.37263446638936,0.000573456566144159,-0.740268310699501,-0.993350533797811
2.65,0.334684943010188,-0.0347958807347126,0.230090879999988,-0,0,-0,0.0873701080891465,-0.0873710517403481,-2.77555756156289e-15,0,0,0,0,0,0,0,0,0,0.0951541026932363,-0.729680033176186,-0.952872365610835,-0.000898420429273461,-0.869121935179882,-1.13553775396421,0.178785824150801,-0.903403230560713,-1.36795729117603,0.000601225918133608,-0.750635775858492,-1.0205131294229,0.849047349834819,0.0119335230816975,0.0587985316194306,0.00128187724595108,0.446789794085012,0.157999976694967,2.22372555947192,-1.74297343283083,1.61251804536011,0.000569090470747824,-0.219946984555452,-0.513014459629701,0,0,0,0,0,0,0,0,0,0,0,0,0,0,0,0,0,0,0,0,0,0,0,0,0,0,0.55,0.2,0,0.15,0.15,2.77555756156289e-17,0.182400000000072,-0.2,0.0179199999998333,0.55,-0.25,-2.77555756156289e-17,0,0,0,0,0,0,0,0,0,0,0,0,0,0,0,0,0,0,0,0,0,0,0,0,0,0,0,0,0,0,0,0,0,0.00221044592077533,0.00148093249663195,0.000941162045834428,0.00208025104963811,0.0951541026932363,-0.729680033176186,-0.952872365610835,-0.000898420429273461,-0.869121935179882,-1.13553775396421,0.178785824150801,-0.903403230560713,-1.36795729117603,0.000601225918133608,-0.750635775858492,-1.0205131294229
2.7,0.338393148583421,-0.0385041263589443,0.230090879999988,-0,0,-0,0.0615322886091008,-0.0615329531967745,0,0,0,0,0,0,0,0,0,0,0.131022760011729,-0.729061979550108,-0.949752079226307,-0.000847823218485644,-0.85077358595828,-1.12781367116817,0.294187455204613,-1.01053915808399,-1.22894053883444,0.00062662932465507,-0.760780226290734,-1.04105867372479,0.593097392536102,0.0114550149439618,0.058813750291975,0.000799534448203687,0.297504692018613,0.139618806849739,2.18655423467951,-2.13962127620253,3.10014905817031,0.000436154229177532,-0.177257212713899,-0.327372636581735,0,0,0,0,0,0,0,0,0,0,0,0,0,0,0,0,0,0,0,0,0,0,0,0,0,0,0.55,0.2,2.77555756156289e-17,0.15,0.15,2.77555756156289e-17,0.194800000000029,-0.2,0.00703999999990401,0.55,-0.25,8.32667268468867e-17,0,0,0,0,0,0,0,0,0,0,0,0,0,0,0,0,0,0,0,0,0,0,0,0,0,0,0,0,0,0,0,0,0,0.00221453720570648,0.00156419422516279,0.000769366119923689,0.00202138238084522,0.131022760011729,-0.729061979550108,-0.949752079226307,-0.000847823218485644,-0.85077358595828,-1.12781367116817,0.294187455204613,-1.01053915808399,-1.22894053883444,0.00062662932465507,-0.760780226290734,-1.04105867372479
2.75,0.339878344725278,-0.0399893385418579,0.230090879999988,-0,0,-0,0,0,0,0,0,0,0,0,0,0,0,0,0.145299370540467,-0.728767052805711,-0.948216180238056,-0.000829130589563576,-0.843708514098531,-1.1242549815777,0.357532677930849,-1.07261063803551,-1.13277501844783,0.000637410697969187,-0.765202086569173,-1.04874234750047,0,0,0,-4.30766533554561e-12,4.36761737887537e-11,-7.8337336617551e-11,0.521256372278955,-0.299588453103761,0.50676383865671,0,0,0,0,0,0,0,0,0,0,0,0,0,0,0,0,0,0,0,0,0,0,0,0,0,0,0,0,0,0.55,0.2,2.77555756156289e-17,0.150000000000006,0.15,5.6843418860808e-14,0.2,-0.2,6.93889390390723e-17,0.55,-0.25,5.55111512312578e-17,0,0,0,0,0,0,0,0,0,0,0,0,0,0,0,0,0,0,0,0,0,0,0,0,0,0,0,0,0,0,0,0,0.167280011299913,0.00221649690113396,0.00159697898413757,0.000689042487499468,0.00199636278074386,0.145299370540467,-0.728767052805711,-0.948216180238056,-0.000829130589563576,-0.843708514098531,-1.1242549815777,0.357532677930849,-1.07261063803551,-1.13277501844783,0.000637410697969187,-0.765202086569173,-1.04874234750047
2.8,0.3412491663533,-0.0384226410242832,0.230090879999983,-0,0,-0,0.0466501144813947,0.0533159216743684,-1.47104550762833e-13,0,0,0,0,0,0,0,0,0,0.146437839831194,-0.73098595122398,-0.959075940871136,-0.0184725718557672,-0.803021277302818,-1.22288520061451,0.343538946756179,-1.06252597488742,-1.13552486680229,-0.0162123959365221,-0.764869574590577,-1.04818693811035,0.0391100468168037,-0.078190634439057,-0.365452581306869,-0.616746938292989,1.18961857225363,-3.02445782151608,-0.461264385246363,0.342364243252646,-0.0910188995174366,-0.572931342171756,0.0121469326281431,0.0203297781641965,0,0,0,0,0,0,0,0,0,0,0,0,0,0,0,0,0,0,0,0,0,0,0,0,0,0,0.55,0.2,0,0.155199999999979,0.15,0.0070400000001882,0.2,-0.2,-1.11022302462516e-16,0.55,-0.25,8.32667268468867e-17,0,0,0,0,0,0,0,0,0,0,0,0,0,0,0,0,0,0,0,0,0,0,0,0,0,0,0,0,0,0,0,0,7.19065991354083e-05,0.00220186617453348,0.0015976905538739,0.000723822560525403,0.00199823171416086,0.146437839831194,-0.73098595122398,-0.959075940871136,-0.0184725718557672,-0.803021277302818,-1.22288520061451,0.343538946756179,-1.06252597488742,-1.13552486680229,-0.0162123959365221,-0.764869574590577,-1.04818693811035
2.85,0.344518048697019,-0.0346866700208608,0.230090879999973,-0,0,-0,0.0744883383106298,0.0851319328027955,-2.41473507855972e-13,0,0,0,0,0,0,0,0,0,0.149289976737845,-0.737220456222394,-0.98352717914503,-0.0670989825482908,-0.761134187925617,-1.36520562218022,0.314941394960118,-1.03880087951776,-1.14115033426005,-0.0561859050818931,-0.763782172812064,-1.04634605045944,0.0667657727786319,-0.153508422319315,-0.53967525765124,-1.19886287264497,0.352976999274257,-2.23423459093155,-0.599602302577473,0.536306461725955,-0.11650577928588,-0.907881276521394,0.0283669795477226,0.048390262599618,0,0,0,0,0,0,0,0,0,0,0,0,0,0,0,0,0,0,0,0,0,0,0,0,0,0,0.55,0.2,0,0.167600000000021,0.15,0.0179200000000605,0.2,-0.2,1.38777878078145e-17,0.55,-0.25,5.55111512312578e-17,0,0,0,0,0,0,0,0,0,0,0,0,0,0,0,0,0,0,0,0,0,0,0,0,0,0,0,0,0,0,0,0,0.000365596651788421,0.00216192827842937,0.00150021323359059,0.000807233401773609,0.00200435756238616,0.149289976737845,-0.737220456222394,-0.98352717914503,-0.0670989825482908,-0.761134187925617,-1.36520562218022,0.314941394960118,-1.03880087951776,-1.14115033426005,-0.0561859050818931,-0.763782172812064,-1.04634605045944
2.9,0.348419617945993,-0.030227607855501,0.23009087999996,-0,0,-0,0.0770190859327613,0.0880242974510281,-2.52575738102223e-13,0,0,0,0,0,0,0,0,0,0.152972021744786,-0.746323903638837,-1.01017237287451,-0.140791797609645,-0.806048979550459,-1.37183967928693,0.287578478086713,-1.01117231411918,-1.14610904076338,-0.103375388062958,-0.761964283428971,-1.04318139172562,0.0752537266969999,-0.193577887527407,-0.504837000245217,-1.61797483797494,-1.73602967764164,1.39750833159411,-0.492167348208294,0.53896807429914,-0.0825729073588022,-0.926186941456564,0.0401888880010359,0.0709282643869713,0,0,0,0,0,0,0,0,0,0,0,0,0,0,0,0,0,0,0,0,0,0,0,0,0,0,0.55,0.2,0,0.182400000000001,0.15,0.0179199999996057,0.2,-0.2,-5.55111512312578e-17,0.55,-0.25,2.77555756156289e-17,0,0,0,0,0,0,0,0,0,0,0,0,0,0,0,0,0,0,0,0,0,0,0,0,0,0,0,0,0,0,0,0,0,0.00210597189843465,0.00131274666482072,0.000907280626139826,0.00201464708995133,0.152972021744786,-0.746323903638837,-1.01017237287451,-0.140791797609645,-0.806048979550459,-1.37183967928693,0.287578478086713,-1.01117231411918,-1.14610904076338,-0.103375388062958,-0.761964283428971,-1.04318139172562
2.95,0.35168850028969,-0.0264916368521,0.230090879999949,-0,0,-0,0.0542423573421047,0.0619930156183557,-1.77635683940025e-13,0,0,0,0,0,0,0,0,0,0.156318459219632,-0.755273965194098,-1.03047937470289,-0.220689169877946,-0.915696361337785,-1.24175521067759,0.268844223677141,-0.988674395563425,-1.14876719175379,-0.142341489042767,-0.760036465790621,-1.03969937936335,0.0573071665439517,-0.156607128815767,-0.32461652654483,-1.46634471065195,-2.20704301731678,2.95160512107699,-0.288888071603033,0.368972928580302,-0.0345901546715766,-0.642475136404741,0.0343956271305235,0.0631147158095757,0,0,0,0,0,0,0,0,0,0,0,0,0,0,0,0,0,0,0,0,0,0,0,0,0,0,0.55,0.2,-2.77555756156289e-17,0.194799999999987,0.15,0.00703999999996092,0.2,-0.2,2.77555756156289e-17,0.55,-0.25,2.77555756156289e-17,0,0,0,0,0,0,0,0,0,0,0,0,0,0,0,0,0,0,0,0,0,0,0,0,0,0,0,0,0,0,0,0,0,0.00205306621423317,0.00112091139606559,0.0009911896401888,0.00202562685295201,0.156318459219632,-0.755273965194098,-1.03047937470289,-0.220689169877946,-0.915696361337785,-1.24175521067759,0.268844223677141,-0.988674395563425,-1.14876719175379,-0.142341489042767,-0.760036465790621,-1.03969937936335
3,0.352997740392276,-0.024995320207637,0.230090879999945,-0,0,-0,0,7.105427357601e-13,0,0,0,0,0,0,0,0,0,0,0.157732415436932,-0.759184006909529,-1.03811598190441,-0.262113488283818,-0.979878734876344,-1.14944299865744,0.262191395319305,-0.979842238696939,-1.14944535822363,-0.157776031043436,-0.759168698670468,-1.03808729421293,7.59392548843607e-12,-3.19744231092045e-12,-5.86197757002083e-12,-0.33642008332162,-0.314169588686486,0.492468303269256,5.86197757002083e-12,2.77555756156289e-12,-3.5527136788005e-13,-3.28626015289046e-12,1.18793863634892e-12,2.1316282072803e-12,0,0,0,0,0,0,0,0,0,0,0,0,0,0,0,0,0,0,0,0,0,0,0,0,0,0,0.549999999999983,0.2,2.77555756156289e-17,0.2,0.15,2.77555756156289e-17,0.2,-0.2,8.32667268468867e-17,0.55,-0.25,8.32667268468867e-17,0,0,0,0,0,0,0,0,0,0,0,0,0,0,0,0,0,0,0,0,0,0,0,0,0,0,0,0,0,0,0,0,0.159141515007216,0.00203050487198346,0.00102461980071674,0.00102475926770401,0.00203059260054121,0.157732415436932,-0.759184006909529,-1.03811598190441,-0.262113488283818,-0.979878734876344,-1.14944299865744,0.262191395319305,-0.979842238696939,-1.14944535822363,-0.157776031043436,-0.759168698670468,-1.03808729421293
3.05,0.354065733802706,-0.0262160484947884,0.230090879999953,-0,0,-0,0.0363446372908527,-0.0415423226350242,2.47024622979097e-13,0,0,0,0,0,0,0,0,0,0.137433826669772,-0.691953424991317,-1.12174484290825,-0.257000760375712,-0.972751707751553,-1.14983241816722,0.236403047766951,-0.982114896085877,-1.14929134886399,-0.158962660697677,-0.762492405794805,-1.04411231206618,-0.678541909379793,2.09854070164676,-2.50476932773633,0.170998388287158,0.241734250567638,-0.0115892887855296,-0.882464182804288,-0.0754120797429647,0.00526950187218489,-0.0407262568733913,-0.114453712230733,-0.202977250828873,0,0,0,0,0,0,0,0,0,0,0,0,0,0,0,0,0,0,0,0,0,0,0,0,0,0,0.55520000000007,0.2,0.00703999999973351,0.2,0.15,-4.16333634234434e-17,0.2,-0.2,4.16333634234434e-17,0.55,-0.25,0,0,0,0,0,0,0,0,0,0,0,0,0,0,0,0,0,0,0,0,0,0,0,0,0,0,0,0,0,0,0,0,0,0,0.0021813856205571,0.00105197516612162,0.00101608646584762,0.00201165150531371,0.137433826669772,-0.691953424991317,-1.12174484290825,-0.257000760375712,-0.972751707751553,-1.14983241816722,0.236403047766951,-0.982114896085877,-1.14929134886399,-0.158962660697677,-0.762492405794805,-1.04411231206618
3.1,0.356612487319957,-0.0291270159488164,0.23009087999997,-0,0,-0,0.0580331188579919,-0.0663324970801682,4.02455846426619e-13,0,0,0,0,0,0,0,0,0,0.093176836024818,-0.586185322045122,-1.22560347277039,-0.245813877035459,-0.956050560757563,-1.15016176768635,0.173252087439286,-0.986818517211991,-1.14892737132706,-0.161920615243858,-0.770896139762804,-1.05774719600344,-0.960216774617173,1.7847069220632,-1.32511120106837,0.24332215866969,0.376861588509303,-5.84089249855424e-05,-1.45825629219187,-0.098026107824245,0.00808423208908948,-0.0690535330663877,-0.197349089355514,-0.301715788155832,0,0,0,0,0,0,0,0,0,0,0,0,0,0,0,0,0,0,0,0,0,0,0,0,0,0,0.567600000000056,0.2,0.0179199999998901,0.2,0.15,-1.38777878078145e-17,0.2,-0.2,-2.77555756156289e-17,0.55,-0.25,8.32667268468867e-17,0,0,0,0,0,0,0,0,0,0,0,0,0,0,0,0,0,0,0,0,0,0,0,0,0,0,0,0,0,0,0,0,0,0.00242651557324134,0.0011170473873884,0.000998213458297179,0.00196465781161125,0.093176836024818,-0.586185322045122,-1.22560347277039,-0.245813877035459,-0.956050560757563,-1.15016176768635,0.173252087439286,-0.986818517211991,-1.14892737132706,-0.161920615243858,-0.770896139762804,-1.05774719600344
3.15,0.359652160872763,-0.0326013964583893,0.230090879999991,-0,0,-0,0.0600047989998131,-0.0685861493010975,4.10782519111308e-13,0,0,0,0,0,0,0,0,0,0.0470328472152038,-0.568364389710417,-1.17937304535138,-0.234055043469739,-0.936679561300574,-1.14944373457045,0.095285766026536,-0.991025374548814,-1.14855099059717,-0.165708203527559,-0.78178495706791,-1.07269991878693,-0.859037188602296,-0.735246704875836,2.54019452344671,0.219857972656623,0.377419180355232,0.023789476682623,-1.55805711853301,-0.0704169821854284,0.00663075479305775,-0.0771281952377301,-0.222209548125796,-0.28396331063032,0,0,0,0,0,0,0,0,0,0,0,0,0,0,0,0,0,0,0,0,0,0,0,0,0,0,0.582399999999865,0.2,0.0179199999998901,0.2,0.15,0,0.2,-0.2,4.16333634234434e-17,0.55,-0.25,8.32667268468867e-17,0,0,0,0,0,0,0,0,0,0,0,0,0,0,0,0,0,0,0,0,0,0,0,0,0,0,0,0,0,0,0,0,0,0.00256235357336897,0.00119430628023507,0.00098231478624359,0.00190548808222952,0.0470328472152038,-0.568364389710417,-1.17937304535138,-0.234055043469739,-0.936679561300574,-1.14944373457045,0.095285766026536,-0.991025374548814,-1.14855099059717,-0.165708203527559,-0.78178495706791,-1.07269991878693
3.2,0.362198914389985,-0.0355123639124102,0.230090880000009,-0,0,-0,0.0422596777184481,-0.048303279302786,2.91433543964104e-13,0,0,0,0,0,0,0,0,0,0.0131064175032263,-0.653432488306472,-0.988837211055158,-0.225319887494719,-0.920940561931958,-1.14790542228851,0.0283579870488464,-0.993298313901527,-1.14832797150987,-0.169120562558151,-0.79160512044283,-1.08414804431223,-0.536118020864274,-2.04243178647363,4.1633079670774,0.138638875475694,0.257995233542663,0.0314597408841877,-1.11814012203202,-0.0295900743613742,0.00298078520408751,-0.058234939805768,-0.167264806490308,-0.183249679419184,0,0,0,0,0,0,0,0,0,0,0,0,0,0,0,0,0,0,0,0,0,0,0,0,0,0,0.594799999999936,0.2,0.00703999999996088,0.2,0.15,-5.55111512312578e-17,0.2,-0.2,-6.93889390390723e-17,0.55,-0.25,5.55111512312578e-17,0,0,0,0,0,0,0,0,0,0,0,0,0,0,0,0,0,0,0,0,0,0,0,0,0,0,0,0,0,0,0,0,0,0.00245438561025715,0.00125858045314087,0.000973758548198226,0.00185360299585184,0.0131064175032263,-0.653432488306472,-0.988837211055158,-0.225319887494719,-0.920940561931958,-1.14790542228851,0.0283579870488464,-0.993298313901527,-1.14832797150987,-0.169120562558151,-0.79160512044283,-1.08414804431223
3.25,0.363218930250305,-0.0366782533288159,0.230090880000016,-0,0,-0,0,0,0,0,0,0,0,0,0,0,0,0,-0.000452021101992828,-0.720356212999973,-0.858126996273812,-0.22206971009478,-0.914766157409425,-1.14704853922055,0.00127657686720983,-0.993877425353286,-1.14826896609832,-0.170553875429529,-0.795712149554351,-1.08846204832314,-0.102758782480727,-0.369731471848755,0.700180632813918,0,0,0,0,0,0,1.46549439250521e-11,1.25011112572793e-11,1.26121335597418e-11,0,0,0,0,0,0,0,0,0,0,0,0,0,0,0,0,0,0,0,0,0,0,0,0,0,0,0.6,0.2,2.77555756156289e-17,0.2,0.15,0,0.2,-0.2,-8.32667268468867e-17,0.55000000000004,-0.250000000000029,0,0,0,0,0,0,0,0,0,0,0,0,0,0,0,0,0,0,0,0,0,0,0,0,0,0,0,0,0,0,0,0,0,0.170346036809354,0.00227627049263664,0.00128418279275538,0.000971582301713566,0.00183228286494926,-0.000452021101992828,-0.720356212999973,-0.858126996273812,-0.22206971009478,-0.914766157409425,-1.14704853922055,0.00127657686720983,-0.993877425353286,-1.14826896609832,-0.170553875429529,-0.795712149554351,-1.08846204832314
3.3,0.36336886424766,-0.0365290055689309,0.23009088000001,-0,0,-0,0.00510236926389851,0.00507901607473826,-2.02615701994091e-13,0,0,0,0,0,0,0,0,0,-0.000449595496521682,-0.720374432259937,-0.85955712671462,-0.219326711753685,-0.914949997379185,-1.14707621007387,0.00126336352811052,-0.992905766105381,-1.14836746511398,-0.161733028525293,-0.718928874042844,-1.1617358647691,8.26169080370143e-05,-0.000654971052804765,-0.0486131654769295,0.0933838120219299,-0.00623149814771295,-0.000936436993193013,-0.000448560885679683,0.0330510004120321,-0.00332250221735109,0.287672139828299,2.42834600101753,-2.14621832230382,0,0,0,0,0,0,0,0,0,0,0,0,0,0,0,0,0,0,0,0,0,0,0,0,0,0,0.6,0.2,0,0.2,0.15,5.55111512312578e-17,0.2,-0.2,-2.77555756156289e-17,0.555199999999956,-0.255200000000116,0.00703999999950611,0,0,0,0,0,0,0,0,0,0,0,0,0,0,0,0,0,0,0,0,0,0,0,0,0,0,0,0,0,0,0,0,0,0.00227608366313526,0.00128341724580246,0.000975234572091876,0.00202266003633827,-0.000449595496521682,-0.720374432259937,-0.85955712671462,-0.219326711753685,-0.914949997379185,-1.14707621007387,0.00126336352811052,-0.992905766105381,-1.14836746511398,-0.161733028525293,-0.718928874042844,-1.1617358647691
3.35,0.363726399164429,-0.0361731070645881,0.230090879999996,-0,0,-0,0.00814718274826376,0.00810989365982451,-3.19189119579733e-13,0,0,0,0,0,0,0,0,0,-0.000443785495127136,-0.720430403228789,-0.862947643162427,-0.21277237504632,-0.915379474108651,-1.14714033093607,0.00123224602625793,-0.990594242152228,-1.14859174478455,-0.144538184828581,-0.591434018147573,-1.23612013636045,0.000132714898082309,-0.00143013920227419,-0.0770156377150499,0.149517993861537,-0.00967574992564169,-0.00143821347649009,-0.000704278422691829,0.0526045560703681,-0.00497926681717331,0.351702659056929,2.23879022248482,-0.571649255462425,0,0,0,0,0,0,0,0,0,0,0,0,0,0,0,0,0,0,0,0,0,0,0,0,0,0,0.6,0.2,0,0.2,0.15,2.77555756156289e-17,0.2,-0.2,1.38777878078145e-17,0.56759999999997,-0.267600000000073,0.0179199999994353,0,0,0,0,0,0,0,0,0,0,0,0,0,0,0,0,0,0,0,0,0,0,0,0,0,0,0,0,0,0,0,0,0,0.00227555102091791,0.00128162960078008,0.000983940397896494,0.00238977206698013,-0.000443785495127136,-0.720430403228789,-0.862947643162427,-0.21277237504632,-0.915379474108651,-1.14714033093607,0.00123224602625793,-0.990594242152228,-1.14859174478455,-0.144538184828581,-0.591434018147573,-1.23612013636045
3.4,0.364153134387673,-0.0357483249787576,0.230090879999979,-0,0,-0,0.00842398397447042,0.00838542798629049,-3.30291349825984e-13,0,0,0,0,0,0,0,0,0,-0.000436802872631259,-0.720520136125127,-0.866958195786319,-0.204925402490539,-0.915875536080311,-1.14721348487021,0.00119581110988465,-0.987845510838779,-1.14883988122802,-0.12904138798233,-0.558274568955256,-1.13928595933985,0.000138258009263481,-0.00196792922334543,-0.0788605006881937,0.155107235534047,-0.00964929734385001,-0.00141536337991965,-0.000713267726570876,0.0541735052043912,-0.00472982328432181,0.272278915748014,-0.582489600813196,3.72344519393621,0,0,0,0,0,0,0,0,0,0,0,0,0,0,0,0,0,0,0,0,0,0,0,0,0,0,0.6,0.2,0,0.2,0.15,5.55111512312578e-17,0.2,-0.2,-2.77555756156289e-17,0.582399999999865,-0.282399999999882,0.0179200000000037,0,0,0,0,0,0,0,0,0,0,0,0,0,0,0,0,0,0,0,0,0,0,0,0,0,0,0,0,0,0,0,0,0,0.00227475670974537,0.00127956616584007,0.000994324701640155,0.00265190288928041,-0.000436802872631259,-0.720520136125127,-0.866958195786319,-0.204925402490539,-0.915875536080311,-1.14721348487021,0.00119581110988465,-0.987845510838779,-1.14883988122802,-0.12904138798233,-0.558274568955256,-1.13928595933985
3.45,0.364510669304447,-0.0353924264744112,0.230090879999965,-0,0,-0,0.0059327729416303,0.00590561905307041,-2.3037127760972e-13,0,0,0,0,0,0,0,0,0,-0.00043091185502897,-0.720614353405425,-0.870288385013172,-0.198331334294326,-0.91627719579576,-1.14727200622948,0.0011658593100341,-0.985551074713399,-1.14903140264785,-0.118921684175881,-0.651004391453915,-0.878890094553961,9.80114082449468e-05,-0.00168281495454004,-0.0550716090616632,0.109540174524358,-0.00657647885260459,-0.000953836648776019,-0.000493443470528376,0.0380187704567492,-0.0030747105483897,0.153587557800527,-2.39199883429921,5.66155521658516,0,0,0,0,0,0,0,0,0,0,0,0,0,0,0,0,0,0,0,0,0,0,0,0,0,0,0.6,0.2,-2.77555756156289e-17,0.2,0.15,1.11022302462516e-16,0.2,-0.2,5.55111512312578e-17,0.594799999999907,-0.294800000000009,0.00703999999950614,0,0,0,0,0,0,0,0,0,0,0,0,0,0,0,0,0,0,0,0,0,0,0,0,0,0,0,0,0,0,0,0,0,0.00227396048917678,0.00127789647801898,0.00100301941041567,0.00249965059219983,-0.00043091185502897,-0.720614353405425,-0.870288385013172,-0.198331334294326,-0.91627719579576,-1.14727200622948,0.0011658593100341,-0.985551074713399,-1.14903140264785,-0.118921684175881,-0.651004391453915,-0.878890094553961
3.5,0.364653867805316,-0.0352498833831589,0.23009087999996,-0,0,-0,1.15463194561016e-12,-3.46389583683049e-12,0,0,0,0,0,0,0,0,0,0,-0.000428541910618252,-0.720656921111017,-0.871614572120377,-0.195685418880751,-0.916434476436367,-1.14729474885634,0.00115400684391664,-0.984634308328839,-1.14910392320433,-0.115207440807473,-0.734948458940463,-0.696280972673536,2.05613304160579e-11,3.33066907387547e-13,1.06581410364015e-11,-1.28785870856518e-11,1.41553435639707e-11,2.1316282072803e-12,-1.4432899320127e-11,-7.08544334315775e-11,1.52411416820541e-10,0.0210341087242938,-0.486487503008159,1.00712087434296,0,0,0,0,0,0,0,0,0,0,0,0,0,0,0,0,0,0,0,0,0,0,0,0,0,0,0.6,0.2,-2.77555756156289e-17,0.2,0.15,-2.77555756156289e-17,0.199999999999989,-0.200000000000045,-1.13617448782577e-13,0.6,-0.3,-2.77555756156289e-17,0,0,0,0,0,0,0,0,0,0,0,0,0,0,0,0,0,0,0,0,0,0,0,0,0,0,0,0,0,0,0,0,0.175410585502941,0.0022736086011186,0.00127724292707013,0.00100650029604884,0.00216988799755934,-0.000428541910618252,-0.720656921111017,-0.871614572120377,-0.195685418880751,-0.916434476436367,-1.14729474885634,0.00115400684391664,-0.984634308328839,-1.14910392320433,-0.115207440807473,-0.734948458940463,-0.696280972673536
3.55,0.368765621759934,-0.0398756723595284,0.230090879999957,-0,0,-0,0.139926149961411,-0.157419157156369,-1.02695629777827e-13,0,0,0,0,0,0,0,0,0,0.0383681375263543,-0.720560176385967,-0.868452305859732,-0.185260539209032,-0.892382988786244,-1.14262378128973,0.0788317523182727,-0.919515301638067,-1.24165571833302,-0.117206105629154,-0.726609937443242,-0.752507966274571,1.3175797864284,0.00364588764356633,0.125577736423921,0.33657678991359,0.80445533156589,0.183957704964399,2.54304184013563,2.07544752336912,-2.83037579054,-0.0695842452812734,0.239683723702533,-1.83958447205228,0,0,0,0,0,0,0,0,0,0,0,0,0,0,0,0,0,0,0,0,0,0,0,0,0,0,0.6,0.2,2.77555756156289e-17,0.2,0.15,-2.77555756156289e-17,0.205199999999991,-0.210399999999936,0.00704000000052926,0.6,-0.3,2.77555756156289e-17,0,0,0,0,0,0,0,0,0,0,0,0,0,0,0,0,0,0,0,0,0,0,0,0,0,0,0,0,0,0,0,0,0,0.00227441489657278,0.00137894458016884,0.001106007727073,0.00223333857470689,0.0383681375263543,-0.720560176385967,-0.868452305859732,-0.185260539209032,-0.892382988786244,-1.14262378128973,0.0788317523182727,-0.919515301638067,-1.24165571833302,-0.117206105629154,-0.726609937443242,-0.752507966274571
3.6,0.37857057349774,-0.0509063999183468,0.230090879999949,-0,0,-0,0.223426384124537,-0.251358256360845,-1.60982338570648e-13,0,0,0,0,0,0,0,0,0,0.129506643629432,-0.720323193108765,-0.854337132492848,-0.165802208216017,-0.84028441665122,-1.12240102913981,0.230773254935692,-0.803761710635628,-1.37164999251647,-0.122595180156702,-0.720451779108373,-0.864015094430915,2.05463422668741,0.00360927043436821,0.404958797617461,0.389046748997313,1.11932045781055,0.574837419341634,3.08886031922508,2.18532932719839,-1.95738128194662,-0.131353524692557,-0.00731957946424888,-2.30315207780638,0,0,0,0,0,0,0,0,0,0,0,0,0,0,0,0,0,0,0,0,0,0,0,0,0,0,0.6,0.2,2.77555756156289e-17,0.2,0.15,2.77555756156289e-17,0.217599999999948,-0.23519999999985,0.0179200000002312,0.6,-0.3,0,0,0,0,0,0,0,0,0,0,0,0,0,0,0,0,0,0,0,0,0,0,0,0,0,0,0,0,0,0,0,0,0,0,0.00227665785982507,0.00161302180920029,0.00132200896286043,0.00227535706479407,0.129506643629432,-0.720323193108765,-0.854337132492848,-0.165802208216017,-0.84028441665122,-1.12240102913981,0.230773254935692,-0.803761710635628,-1.37164999251647,-0.122595180156702,-0.720451779108373,-0.864015094430915
3.65,0.390273257829989,-0.0640721070047903,0.230090879999941,-0,0,-0,0.231017314501969,-0.259898174488171,-1.66533453693773e-13,0,0,0,0,0,0,0,0,0,0.234189905093854,-0.720794685248023,-0.824597529847351,-0.14918049754257,-0.788702042692149,-1.08093826178201,0.363660625785019,-0.747685144783012,-1.36189665637358,-0.130486700996812,-0.732619759988697,-0.96621002161449,2.02236343860382,-0.0224567596732284,0.705125041949906,0.286056428459425,0.920709459304248,0.972875773911319,2.28596974410085,0.241933129165295,1.75929810757864,-0.170847365703608,-0.384349309086707,-1.79453739049524,0,0,0,0,0,0,0,0,0,0,0,0,0,0,0,0,0,0,0,0,0,0,0,0,0,0,0.6,0.2,-2.77555756156289e-17,0.2,0.15,0,0.232400000000041,-0.264800000000037,0.0179199999993216,0.6,-0.3,0,0,0,0,0,0,0,0,0,0,0,0,0,0,0,0,0,0,0,0,0,0,0,0,0,0,0,0,0,0,0,0,0,0,0.00227443045565218,0.00186880505690662,0.00155888277624701,0.00219124616201194,0.234189905093854,-0.720794685248023,-0.824597529847351,-0.14918049754257,-0.788702042692149,-1.08093826178201,0.363660625785019,-0.747685144783012,-1.36189665637358,-0.130486700996812,-0.732619759988697,-0.96621002161449
3.7,0.400078209567653,-0.0751028345636087,0.230090879999934,-0,0,-0,0.162698941099393,-0.183038911495714,-1.13797860024079e-13,0,0,0,0,0,0,0,0,0,0.317183226188885,-0.723023157360252,-0.787586392432525,-0.138763558696632,-0.755396883153003,-1.03072938098902,0.446250438837647,-0.781364276092019,-1.21271959033773,-0.138770797362294,-0.755897464745049,-1.03174056367803,1.34344942630882,-0.0548627858211415,0.697737598794745,0.155957960096487,0.485357705885658,0.936318606127706,1.22735874194557,-1.06710908421959,3.3241638671706,-0.150429202007896,-0.460319496073547,-0.974530124613082,0,0,0,0,0,0,0,0,0,0,0,0,0,0,0,0,0,0,0,0,0,0,0,0,0,0,0.6,0.2,2.77555756156289e-17,0.2,0.15,5.55111512312578e-17,0.244799999999998,-0.289600000000064,0.00703999999973351,0.6,-0.3,0,0,0,0,0,0,0,0,0,0,0,0,0,0,0,0,0,0,0,0,0,0,0,0,0,0,0,0,0,0,0,0,0,0.000254688384434951,0.00225933558012857,0.00205235216048238,0.00169971990341163,0.0020494474736137,0.317183226188885,-0.723023157360252,-0.787586392432525,-0.138763558696632,-0.755396883153003,-1.03072938098902,0.446250438837647,-0.781364276092019,-1.21271959033773,-0.138770797362294,-0.755897464745049,-1.03174056367803
3.75,0.404005250883015,-0.0795208188659426,0.230090879999931,-0,0,-0,-1.77635683940025e-13,1.77635683940025e-13,0,0,0,0,0,0,0,0,0,0,0.349024432118091,-0.724729138282482,-0.769265096835253,-0.135233644916207,-0.744848750119276,-1.00635066710982,0.477446479367429,-0.819443164202518,-1.10905466103454,-0.14265012754824,-0.768149914518678,-1.05351954788225,-1.37667655053519e-12,4.44089209850063e-14,-7.105427357601e-13,1.67421632113474e-11,-2.07478478841949e-10,3.25073301610246e-10,0.357370323418138,-0.180438860902599,0.581056693663307,2.66453525910038e-13,5.77315972805081e-13,8.88178419700125e-13,0,0,0,0,0,0,0,0,0,0,0,0,0,0,0,0,0,0,0,0,0,0,0,0,0,0,0.6,0.2,-2.77555756156289e-17,0.199999999999989,0.149999999999977,-2.27373675443232e-13,0.25,-0.3,0,0.6,-0.3,2.77555756156289e-17,0,0,0,0,0,0,0,0,0,0,0,0,0,0,0,0,0,0,0,0,0,0,0,0,0,0,0,0,0,0,0,0,0.180509638659471,0.00224712240021757,0.00211487882588606,0.00171298838931204,0.00197987952390635,0.349024432118091,-0.724729138282482,-0.769265096835253,-0.135233644916207,-0.744848750119276,-1.00635066710982,0.477446479367429,-0.819443164202518,-1.10905466103454,-0.14265012754824,-0.768149914518678,-1.05351954788225
3.8,0.404148482712571,-0.0793189713283216,0.23009087999994,-0,0,-0,0.00487428933801937,0.0068690269722893,3.02535774210355e-13,0,0,0,0,0,0,0,0,0,0.34928244672922,-0.724523619178148,-0.771276076765853,-0.141205923043985,-0.698344294578474,-1.13288827632878,0.476711920256261,-0.818729423182364,-1.10852785202704,-0.144583859536012,-0.767981896754437,-1.05325411598371,0.0087886088740996,0.0069343319678894,-0.0683362942261567,-0.210890917209561,1.3182724736707,-3.88316040802934,-0.0249596556617604,0.0242664910314883,0.0179679281096412,-0.0657793170680598,0.00572617413654442,0.00905515762639197,0,0,0,0,0,0,0,0,0,0,0,0,0,0,0,0,0,0,0,0,0,0,0,0,0,0,0.6,0.2,2.77555756156289e-17,0.205199999938088,0.144799999937902,0.00703999999950616,0.25,-0.3,2.77555756156289e-17,0.6,-0.3,8.32667268468867e-17,0,0,0,0,0,0,0,0,0,0,0,0,0,0,0,0,0,0,0,0,0,0,0,0,0,0,0,0,0,0,0,0,0,0.00224861061190294,0.00214230642768418,0.00171648670535821,0.00198081495722729,0.34928244672922,-0.724523619178148,-0.771276076765853,-0.141205923043985,-0.698344294578474,-1.13288827632878,0.476711920256261,-0.818729423182364,-1.10852785202704,-0.144583859536012,-0.767981896754437,-1.05325411598371
3.85,0.404490035536895,-0.0788376425847783,0.230090879999961,-0,0,-0,0.00778299726142961,0.0109680846595239,4.8017145815038e-13,0,0,0,0,0,0,0,0,0,0.349900661919551,-0.724054853938309,-0.776036163674322,-0.158701268964223,-0.661252635834911,-1.32008499548597,0.474973842745444,-0.817035595458858,-1.1072571419586,-0.149185298374243,-0.76757824358764,-1.05261312780435,0.0141240382655283,0.010419104856263,-0.10803357900695,-0.446427443419672,0.0595155846000894,-3.07681613508013,-0.0394386630540922,0.0384958572300587,0.0291354174805747,-0.104731878104847,0.00923489658172238,0.0147060716475522,0,0,0,0,0,0,0,0,0,0,0,0,0,0,0,0,0,0,0,0,0,0,0,0,0,0,0.6,0.2,-5.55111512312578e-17,0.217599999790423,0.132399999790209,0.0179200000002311,0.25,-0.3,5.55111512312578e-17,0.6,-0.3,0,0,0,0,0,0,0,0,0,0,0,0,0,0,0,0,0,0,0,0,0,0,0,0,0,0,0,0,0,0,0,0,0,0,0.00225198931850199,0.00197400695976277,0.00172480977998606,0.00198306426838192,0.349900661919551,-0.724054853938309,-0.776036163674322,-0.158701268964223,-0.661252635834911,-1.32008499548597,0.474973842745444,-0.817035595458858,-1.1072571419586,-0.149185298374243,-0.76757824358764,-1.05261312780435
3.9,0.404897695359468,-0.0782631534392575,0.230090879999986,-0,0,-0,0.00804742525417623,0.0113407262672283,4.96824803519758e-13,0,0,0,0,0,0,0,0,0,0.350644020046067,-0.723534175555766,-0.781653340585011,-0.188683839982618,-0.736066656567159,-1.35847425280667,0.472924039304556,-0.815029092058867,-1.10571372178288,-0.154659169448312,-0.76709104317873,-1.05183318827972,0.0147219158685763,0.00994706836663362,-0.11033848562203,-0.699270781589112,-2.4916171449077,0.920792627479194,-0.0402536860539371,0.0394781629904029,0.03069914531455,-0.107899584447502,0.00966365258779911,0.015525223889945,0,0,0,0,0,0,0,0,0,0,0,0,0,0,0,0,0,0,0,0,0,0,0,0,0,0,0.6,0.2,2.77555756156289e-17,0.232399999790289,0.117599999790059,0.0179200000002311,0.25,-0.3,0,0.6,-0.3,0,0,0,0,0,0,0,0,0,0,0,0,0,0,0,0,0,0,0,0,0,0,0,0,0,0,0,0,0,0,0,0,0,0,0.00225571381594505,0.00161064083775423,0.00173470790813224,0.00198578289047424,0.350644020046067,-0.723534175555766,-0.781653340585011,-0.188683839982618,-0.736066656567159,-1.35847425280667,0.472924039304556,-0.815029092058867,-1.10571372178288,-0.154659169448312,-0.76709104317873,-1.05183318827972
3.95,0.40523924818379,-0.0777818246957196,0.230090880000007,-0,0,-0,0.00566757331696977,0.0079869517962905,3.49720252756924e-13,0,0,0,0,0,0,0,0,0,0.351271481381989,-0.723129947948634,-0.786306758268793,-0.227391212431479,-0.883053167608795,-1.2409144831475,0.47122696656555,-0.813360764343065,-1.10439808862284,-0.159230012270031,-0.76667841438311,-1.05116718079234,0.0104413347890464,0.00650753438133922,-0.0768868158163016,-0.768707017134362,-2.86945778511629,2.82987151429523,-0.0280335454748482,0.0276023625428778,0.0219732572315223,-0.0757489096567809,0.00687451568611719,0.0111308601088211,0,0,0,0,0,0,0,0,0,0,0,0,0,0,0,0,0,0,0,0,0,0,0,0,0,0,0.6,0.2,-2.77555756156289e-17,0.244799999937925,0.105199999937838,0.00704000000018821,0.25,-0.3,2.77555756156289e-17,0.6,-0.3,2.77555756156289e-17,0,0,0,0,0,0,0,0,0,0,0,0,0,0,0,0,0,0,0,0,0,0,0,0,0,0,0,0,0,0,0,0,0,0.00225858176255822,0.00125126664606397,0.0017429701636477,0.0019880886273969,0.351271481381989,-0.723129947948634,-0.786306758268793,-0.227391212431479,-0.883053167608795,-1.2409144831475,0.47122696656555,-0.813360764343065,-1.10439808862284,-0.159230012270031,-0.76667841438311,-1.05116718079234
4,0.405376045598814,-0.0775890447705478,0.230090880000016,-0,0,-0,-3.01980662698043e-12,1.24344978758018e-12,0,0,0,0,0,0,0,0,0,0,0.351523988668102,-0.722976133770878,-0.788157197142755,-0.250077354810992,-0.964577763427751,-1.15009824278644,0.4705523900772,-0.812695863906116,-1.10386538835539,-0.161056746598197,-0.766512038686072,-1.05089721147521,4.05009359383257e-11,-2.48423503990125e-10,3.98081567709596e-10,-0.128170197332977,-0.404444069041054,0.491530180118538,3.10862446895044e-11,7.21644966006352e-13,7.105427357601e-13,1.4033219031262e-11,6.03961325396085e-12,9.76996261670138e-12,0,0,0,0,0,0,0,0,0,0,0,0,0,0,0,0,0,0,0,0,0,0,0,0,0,0,0.599999999999909,0.200000000000045,-2.27401431018848e-13,0.25,0.0999999999999998,0,0.25,-0.3,-5.55111512312578e-17,0.6,-0.3,0,0,0,0,0,0,0,0,0,0,0,0,0,0,0,0,0,0,0,0,0,0,0,0,0,0,0,0,0,0,0,0,0,0.160687932887082,0.00225966696623815,0.00108365063405504,0.00174627131033154,0.00198901916421664,0.351523988668102,-0.722976133770878,-0.788157197142755,-0.250077354810992,-0.964577763427751,-1.15009824278644,0.4705523900772,-0.812695863906116,-1.10386538835539,-0.161056746598197,-0.766512038686072,-1.05089721147521
4.05,0.408629514834615,-0.0813072061364437,0.230090880000016,-0,0,-0,0.110718060778936,-0.126531891407922,0,0,0,0,0,0,0,0,0,0,0.31023434112297,-0.650511517813942,-0.889058804651055,-0.236882060979626,-0.943579861835255,-1.14984194817268,0.42896837673626,-0.819991731382697,-1.10945612344071,-0.165020747607828,-0.777774463265661,-1.06750061205509,-1.39527299021962,2.20590989262126,-2.96543194141279,0.42743483219656,0.706650007996401,0.0242865849619633,-1.43717677198651,-0.24487236068671,-0.181526601785187,-0.138566801692352,-0.395230474070862,-0.546605787390675,0,0,0,0,0,0,0,0,0,0,0,0,0,0,0,0,0,0,0,0,0,0,0,0,0,0,0.610400000000027,0.194799999999987,0.00703999999973354,0.25,0.0999999999999998,5.55111512312578e-17,0.25,-0.3,-5.55111512312578e-17,0.6,-0.3,0,0,0,0,0,0,0,0,0,0,0,0,0,0,0,0,0,0,0,0,0,0,0,0,0,0,0,0,0,0,0,0,0,0,0.0025007767294191,0.00116655805467364,0.00171030318887393,0.0019270698093946,0.31023434112297,-0.650511517813942,-0.889058804651055,-0.236882060979626,-0.943579861835255,-1.14984194817268,0.42896837673626,-0.819991731382697,-1.10945612344071,-0.165020747607828,-0.777774463265661,-1.06750061205509
4.1,0.416387787627343,-0.0901735909322383,0.230090880000016,-0,0,-0,0.176788512942494,-0.202039168391366,5.55111512312578e-15,0,0,0,0,0,0,0,0,0,0.21568138371142,-0.547873328014904,-1.00560702496852,-0.211906757572534,-0.896479687304938,-1.14359709193993,0.321984767768684,-0.835822917032987,-1.11985146012928,-0.175958601371288,-0.808790155556268,-1.10063684744405,-2.10185450950431,1.58887279433794,-1.38455887694242,0.502956079566408,1.03490293589313,0.212647961159718,-2.53263403798822,-0.336962421021447,-0.203060995397308,-0.270012808277098,-0.756562275110639,-0.676996845905897,0,0,0,0,0,0,0,0,0,0,0,0,0,0,0,0,0,0,0,0,0,0,0,0,0,0,0.635200000000168,0.182399999999745,0.0179200000009133,0.25,0.1,-2.77555756156289e-17,0.25,-0.3,5.55111512312578e-17,0.6,-0.3,0,0,0,0,0,0,0,0,0,0,0,0,0,0,0,0,0,0,0,0,0,0,0,0,0,0,0,0,0,0,0,0,0,0,0.00280585931461876,0.00136136383986529,0.00163408054346707,0.00176575958062494,0.21568138371142,-0.547873328014904,-1.00560702496852,-0.211906757572534,-0.896479687304938,-1.14359709193993,0.321984767768684,-0.835822917032987,-1.11985146012928,-0.175958601371288,-0.808790155556268,-1.10063684744405
4.15,0.425647661605751,-0.100756050204268,0.230090880000016,-0,0,-0,0.1827949176743,-0.208903466284482,2.77555756156289e-15,0,0,0,0,0,0,0,0,0,0.111213301885426,-0.551612005270921,-0.941886702330644,-0.190215687166168,-0.846231670580657,-1.12556623291541,0.181065749656657,-0.85044560436557,-1.12765612597189,-0.192661308358544,-0.852936288421861,-1.12883445213781,-1.98473606904839,-1.33214074974048,3.20591441903435,0.375636917075717,0.937431192311255,0.448578780770958,-2.88257492672139,-0.243492496216879,-0.11925708444771,-0.368744349035754,-0.929650712079499,-0.46158335939559,0,0,0,0,0,0,0,0,0,0,0,0,0,0,0,0,0,0,0,0,0,0,0,0,0,0,0.664799999999786,0.167600000000107,0.0179199999993216,0.25,0.0999999999999998,2.77555756156289e-17,0.25,-0.3,5.55111512312578e-17,0.6,-0.3,5.55111512312578e-17,0,0,0,0,0,0,0,0,0,0,0,0,0,0,0,0,0,0,0,0,0,0,0,0,0,0,0,0,0,0,0,0,0,0.00281443145850942,0.00158522211793695,0.00156570693767408,0.00155424157004729,0.111213301885426,-0.551612005270921,-0.941886702330644,-0.190215687166168,-0.846231670580657,-1.12556623291541,0.181065749656657,-0.85044560436557,-1.12765612597189,-0.192661308358544,-0.852936288421861,-1.12883445213781
4.2,0.433405934398422,-0.109622434999892,0.230090880000016,-0,0,-0,0.128737274974355,-0.147124785115693,2.77555756156289e-15,0,0,0,0,0,0,0,0,0,0.0313637181827813,-0.679025127250397,-0.689175643995114,-0.176454651401147,-0.809615946118761,-1.10133390381464,0.0545041083621682,-0.857887246532393,-1.1310561134702,-0.211126626347822,-0.895389869599193,-1.14334565715655,-1.27559147816677,-3.0611340017341,5.81736051916355,0.206841972449023,0.571007745012875,0.461087185296272,-2.1386827254831,-0.0892297930755181,-0.0388810939298878,-0.342696052066938,-0.737012004750082,-0.184445907584774,0,0,0,0,0,0,0,0,0,0,0,0,0,0,0,0,0,0,0,0,0,0,0,0,0,0,0.689599999999587,0.155200000000207,0.00704000000018817,0.25,0.0999999999999999,5.55111512312578e-17,0.25,-0.3,1.11022302462516e-16,0.6,-0.3,5.55111512312578e-17,0,0,0,0,0,0,0,0,0,0,0,0,0,0,0,0,0,0,0,0,0,0,0,0,0,0,0,0,0,0,0,0,0,0.00231422051676406,0.00176162519187397,0.00153160007171359,0.00136603005579214,0.0313637181827813,-0.679025127250397,-0.689175643995114,-0.176454651401147,-0.809615946118761,-1.10133390381464,0.0545041083621682,-0.857887246532393,-1.1310561134702,-0.211126626347822,-0.895389869599193,-1.14334565715655
4.25,0.436513247785513,-0.113173565116739,0.230090880000016,-0,0,-0,0,2.8421709430404e-12,0,0,0,0,0,0,0,0,0,0,-0.00111589330023953,-0.787977343347777,-0.485522806337277,-0.171762425268498,-0.79645674118209,-1.08921712001652,0.00245945693991168,-0.859449161960892,-1.13172469756843,-0.220120768957555,-0.91369092750513,-1.14688400587608,-0.24981177166411,-0.650111732548242,1.19620305940309,1.48325796089921e-11,-6.31716901011714e-12,-6.21724893790088e-12,2.22932783344731e-11,7.03881397612349e-12,3.19744231092045e-12,1.32338584535319e-10,-1.31850086404484e-10,3.12994075102324e-10,0,0,0,0,0,0,0,0,0,0,0,0,0,0,0,0,0,0,0,0,0,0,0,0,0,0,0.7,0.15,-2.77555756156289e-17,0.25,0.1,-8.32667268468867e-17,0.25,-0.3,-5.55111512312578e-17,0.600000000000136,-0.3,-2.27373675443232e-13,0,0,0,0,0,0,0,0,0,0,0,0,0,0,0,0,0,0,0,0,0,0,0,0,0,0,0,0,0,0,0,0,0.196248941791876,0.001732345982768,0.00182844039903938,0.00152449767135,0.00128866430362825,-0.00111589330023953,-0.787977343347777,-0.485522806337277,-0.171762425268498,-0.79645674118209,-1.08921712001652,0.00245945693991168,-0.859449161960892,-1.13172469756843,-0.220120768957555,-0.91369092750513,-1.14688400587608
