TharitSinsunthorn/moonbot_self_recognition/moonbot_gazebo/src/RL2.csv
time,R0_1,R0_2,R0_3,Q0_1,Q0_2,Q0_3,v0_1,v0_2,v0_3,w0_1,w0_2,w0_3,vd0_1,vd0_2,vd0_3,wd0_1,wd0_2,wd0_3,q_1,q_2,q_3,q_4,q_5,q_6,q_7,q_8,q_9,q_10,q_11,q_12,qd_1,qd_2,qd_3,qd_4,qd_5,qd_6,qd_7,qd_8,qd_9,qd_10,qd_11,qd_12,qdd_1,qdd_2,qdd_3,qdd_4,qdd_5,qdd_6,qdd_7,qdd_8,qdd_9,qdd_10,qdd_11,qdd_12,tau_1,tau_2,tau_3,tau_4,tau_5,tau_6,tau_7,tau_8,tau_9,tau_10,tau_11,tau_12,tau_max,tau_rms,pos_e1_1,pos_e1_2,pos_e1_3,pos_e2_1,pos_e2_2,pos_e2_3,pos_e3_1,pos_e3_2,pos_e3_3,pos_e4_1,pos_e4_2,pos_e4_3,Fe1_1,Fe1_2,Fe1_3,Fe_res1,Fe2_1,Fe2_2,Fe2_3,Fe_res2,Fe3_1,Fe3_2,Fe3_3,Fe_res3,Fe4_1,Fe4_2,Fe4_3,Fe_res4,Te1_1,Te1_2,Te1_3,Te_res1,Te2_1,Te2_2,Te2_3,Te_res2,Te3_1,Te3_2,Te3_3,Te_res3,Te4_1,Te4_2,Te4_3,Te_res4,tsm,manipulability1,manipulability2,manipulability3,manipulability4,des_q_1,des_q_2,des_q_3,des_q_4,des_q_5,des_q_6,des_q_7,des_q_8,des_q_9,des_q_10,des_q_11,des_q_12
0,0.21,0,0.2,-0,0,-0,0,0,0,0,0,0,0,0,0,0,0,0,0.180926460754122,-0.544845141085158,-1.43319791061681,-0.334198044265502,-0.578249146141756,-1.45923889713949,0.237374246973171,-0.645859916697325,-1.49133321106369,-0.0693331336882101,-0.598958989828357,-1.47151323979916,0,0,0,0,2.22044604925031e-14,0,0,-3.33066907387547e-14,0,-8.88178419700125e-14,-2.22044604925031e-14,0,0,0,0,0,0,0,0,0,0,0,0,0,0,0,0,0,0,0,0,0,0,0,0,0,0,0,0.4,0.22,5.55111512312578e-17,0.0399999999999999,0.22,-5.55111512312578e-17,0.0399999999999999,-0.2,-6.93889390390723e-17,0.4,-0.2,2.77555756156289e-17,0,0,0,0,0,0,0,0,0,0,0,0,0,0,0,0,0,0,0,0,0,0,0,0,0,0,0,0,0,0,0,0,0.175813529623384,0.00218428602782492,0.00200362002791537,0.00168206958567564,0.00189979138736704,0.180926460754122,-0.544845141085158,-1.43319791061681,-0.334198044265502,-0.578249146141756,-1.45923889713949,0.237374246973171,-0.645859916697325,-1.49133321106369,-0.0693331336882101,-0.598958989828357,-1.47151323979916
0.05,0.2117196017747,-4.60556216859649e-05,0.2,-0,0,-0,0.0603334565523195,-0.00161589438372471,0,0,0,0,0,0,0,0,0,0,0.118253536593612,-0.502327260761666,-1.51391326371703,-0.320131408519107,-0.575447077951409,-1.45737535264924,0.220994769010502,-0.642248020287695,-1.49013819528501,-0.081889090135836,-0.603297927696399,-1.47377850231216,-2.14762527723658,1.30657704762001,-2.49761428102886,0.491162398783374,0.0988716157963032,0.0663497444991279,-0.571110094899385,0.127565599518431,0.0427726004030404,-0.443794078570559,-0.152130145271823,-0.078299661897141,0,0,0,0,0,0,0,0,0,0,0,0,0,0,0,0,0,0,0,0,0,0,0,0,0,0,0.40624,0.21376,0.00703999999999999,0.0399999999999999,0.22,2.77555756156289e-17,0.0399999999999998,-0.2,-1.94289029309402e-16,0.4,-0.2,1.11022302462516e-16,0,0,0,0,0,0,0,0,0,0,0,0,0,0,0,0,0,0,0,0,0,0,0,0,0,0,0,0,0,0,0,0,0,0.00215860255037428,0.00201810357421215,0.00169810679287756,0.00187870184608273,0.118253536593612,-0.502327260761666,-1.51391326371703,-0.320131408519107,-0.575447077951409,-1.45737535264924,0.220994769010502,-0.642248020287695,-1.49013819528501,-0.081889090135836,-0.603297927696399,-1.47377850231216
0.1,0.216387092306027,-0.000171063737690727,0.2,-0,0,-0,0.113395454171628,-0.00303703928146306,0,0,0,0,0,0,0,0,0,0,-0.0359947202247779,-0.441281830643051,-1.63331652421547,-0.283005367076217,-0.567613627798876,-1.4518807009259,0.178114947392836,-0.632099940863268,-1.48650814694724,-0.11744171905606,-0.615005101128016,-1.4794157992639,-3.5587332201246,0.927043341601963,-1.88826275253628,0.887759835789659,0.193111039261096,0.139476249822934,-1.02061274263274,0.250809314859535,0.0935521206706369,-0.883917179943161,-0.283161384648101,-0.130227365010427,0,0,0,0,0,0,0,0,0,0,0,0,0,0,0,0,0,0,0,0,0,0,0,0,0,0,0.42112,0.19888,0.01792,0.0399999999999999,0.22,5.55111512312578e-17,0.0399999999999998,-0.2,-9.71445146547012e-17,0.4,-0.2,-2.77555756156289e-17,0,0,0,0,0,0,0,0,0,0,0,0,0,0,0,0,0,0,0,0,0,0,0,0,0,0,0,0,0,0,0,0,0,0.00208419171698429,0.002059197861229,0.00174376648721349,0.00182283692793992,-0.0359947202247779,-0.441281830643051,-1.63331652421547,-0.283005367076217,-0.567613627798876,-1.4518807009259,0.178114947392836,-0.632099940863268,-1.48650814694724,-0.11744171905606,-0.615005101128016,-1.4794157992639
0.15,0.223265499404826,-0.000355286224434586,0.2,-0,0,-0,0.15171800800779,-0.00406342170760741,0,0,0,0,0,0,0,0,0,0,-0.222221485806673,-0.44929880374508,-1.63847586948215,-0.231105955298427,-0.555593786088579,-1.44256132804697,0.119068811167877,-0.616407540374851,-1.48004682778151,-0.173944019727268,-0.631906410105647,-1.4864348879489,-3.63733529588961,-0.960601625337831,1.1922615185195,1.11605974107141,0.268987658638919,0.218530335399691,-1.26062954256927,0.352314590872393,0.154526268948274,-1.28971590617608,-0.367870201879128,-0.142217937013633,0,0,0,0,0,0,0,0,0,0,0,0,0,0,0,0,0,0,0,0,0,0,0,0,0,0,0.43888,0.18112,0.01792,0.0399999999999999,0.22,-2.77555756156289e-17,0.0399999999999998,-0.2,-1.38777878078145e-16,0.4,-0.2,8.32667268468867e-17,0,0,0,0,0,0,0,0,0,0,0,0,0,0,0,0,0,0,0,0,0,0,0,0,0,0,0,0,0,0,0,0,0,0.00204406688035679,0.00212411544859809,0.00181624182609563,0.00174464614288669,-0.222221485806673,-0.44929880374508,-1.63847586948215,-0.231105955298427,-0.555593786088579,-1.44256132804697,0.119068811167877,-0.616407540374851,-1.48004682778151,-0.173944019727268,-0.631906410105647,-1.4864348879489
0.2,0.231617850881939,-0.000578984958337844,0.2,-0,0,-0,0.175301118060817,-0.0046950416621578,0,0,0,0,0,0,0,0,0,0,-0.369232489496069,-0.527471653762021,-1.53201074608021,-0.172525658571933,-0.540546160587848,-1.42914729314193,0.0537486860519758,-0.596586565263416,-1.47023225740004,-0.249517546812965,-0.651443647526882,-1.49308462222862,-2.30363876799515,-1.74283667533978,2.33867903977174,1.18982724276298,0.318063785411893,0.301461408925618,-1.31501328242156,0.420522444451255,0.22499259797808,-1.65134164267489,-0.398356763097263,-0.12377151313121,0,0,0,0,0,0,0,0,0,0,0,0,0,0,0,0,0,0,0,0,0,0,0,0,0,0,0.45376,0.16624,0.00704000000000002,0.0399999999999999,0.22,2.77555756156289e-17,0.0399999999999999,-0.2,-2.77555756156289e-17,0.4,-0.2,6.93889390390723e-17,0,0,0,0,0,0,0,0,0,0,0,0,0,0,0,0,0,0,0,0,0,0,0,0,0,0,0,0,0,0,0,0,0,0.0020259858050041,0.00220896893616569,0.001911414971405,0.00165748885293592,-0.369232489496069,-0.527471653762021,-1.53201074608021,-0.172525658571933,-0.540546160587848,-1.42914729314193,0.0537486860519758,-0.596586565263416,-1.47023225740004,-0.249517546812965,-0.651443647526882,-1.49308462222862
0.25,0.238865726704902,-0.00077310282436966,0.2,-0,0,-0,0,0,0,0,0,0,0,0,0,0,0,0,-0.417965578132236,-0.587629875115709,-1.46511295545283,-0.125503228446149,-0.527387230552402,-1.41550581844801,0.00237467000454039,-0.579095415769867,-1.45979157941365,-0.321532023329001,-0.667068036312469,-1.49739716876666,-0.3450782321611,-0.192861529670796,0.424950561098392,0,0,0,0,0,0,8.88178419700125e-14,5.55111512312578e-14,0,0,0,0,0,0,0,0,0,0,0,0,0,0,0,0,0,0,0,0,0,0,0,0,0,0,0,0.46,0.16,-5.55111512312578e-17,0.0399999999999999,0.22,-5.55111512312578e-17,0.0399999999999999,-0.2,-8.32667268468867e-17,0.4,-0.2,6.93889390390723e-17,0,0,0,0,0,0,0,0,0,0,0,0,0,0,0,0,0,0,0,0,0,0,0,0,0,0,0,0,0,0,0,0,0.188013736360774,0.00195591209932049,0.00228697365071142,0.00199926737211576,0.00159000140708241,-0.417965578132236,-0.587629875115709,-1.46511295545283,-0.125503228446149,-0.527387230552402,-1.41550581844801,0.00237467000454039,-0.579095415769867,-1.45979157941365,-0.321532023329001,-0.667068036312469,-1.49739716876666
0.3,0.239490291807045,-0.000784261395167302,0.2,-0,0,-0,0.0219133127266097,-0.000391506426842994,0,0,0,0,0,0,0,0,0,0,-0.415720566730351,-0.589727031434237,-1.46635290210294,-0.12158366775583,-0.526270413544811,-1.41425314598162,-0.00179791790566286,-0.577573154621144,-1.45879406603014,-0.264297238186894,-0.61040645534626,-1.56836245238742,0.0790501764430518,-0.0737069707185567,-0.0432847419592264,0.137237862284323,0.0391709303072973,0.0441179567449268,-0.146015979469416,0.0533997833636168,0.0351641227290145,1.9018418695639,1.81631920002272,-2.17837427679086,0,0,0,0,0,0,0,0,0,0,0,0,0,0,0,0,0,0,0,0,0,0,0,0,0,0,0.46,0.16,0,0.0399999999999999,0.22,-2.77555756156289e-17,0.0399999999999999,-0.2,-5.55111512312578e-17,0.40624,-0.2,0.00704000000000005,0,0,0,0,0,0,0,0,0,0,0,0,0,0,0,0,0,0,0,0,0,0,0,0,0,0,0,0,0,0,0,0,0.00631990661636039,0.0019454040274284,0.00229377805820359,0.00200710404026118,0.00164378854948118,-0.415720566730351,-0.589727031434237,-1.46635290210294,-0.12158366775583,-0.526270413544811,-1.41425314598162,-0.00179791790566286,-0.577573154621144,-1.45879406603014,-0.264297238186894,-0.61040645534626,-1.56836245238742
0.35,0.241185539941432,-0.000814548944475188,0.2,-0,0,-0,0.0411856073070122,-0.000735828040027359,0,0,0,0,0,0,0,0,0,0,-0.409499954408455,-0.595474856640976,-1.46962144158099,-0.111069406143485,-0.523245794525809,-1.41077870927271,-0.0129556529207382,-0.573446641526541,-1.45601276844515,-0.143618262495361,-0.509009603031601,-1.66734591279918,0.152862726460223,-0.140380894170478,-0.0781069630821918,0.253775371025933,0.0733808529002511,0.0854146132331479,-0.268836067653444,0.100167677442398,0.0685680841256087,2.56080427084671,1.89185705717225,-1.44042656954886,0,0,0,0,0,0,0,0,0,0,0,0,0,0,0,0,0,0,0,0,0,0,0,0,0,0,0.46,0.16,0,0.0399999999999998,0.22,-2.77555756156289e-17,0.04,-0.2,-2.77555756156289e-17,0.42112,-0.2,0.0179199999999997,0,0,0,0,0,0,0,0,0,0,0,0,0,0,0,0,0,0,0,0,0,0,0,0,0,0,0,0,0,0,0,0,0,0.0019168846777955,0.00231236219409846,0.00202851198885851,0.00177073176811288,-0.409499954408455,-0.595474856640976,-1.46962144158099,-0.111069406143485,-0.523245794525809,-1.41077870927271,-0.0129556529207382,-0.573446641526541,-1.45601276844515,-0.143618262495361,-0.509009603031601,-1.66734591279918
0.4,0.243683800350003,-0.000859183227665757,0.2,-0,0,-0,0.0551044867261957,-0.000984504760660548,0,0,0,0,0,0,0,0,0,0,-0.39998030086838,-0.604089466584015,-1.47418116796518,-0.0959023687649134,-0.518811822678022,-1.40545793748629,-0.0289604623975341,-0.567386184751486,-1.4517146440761,-0.0265859985708188,-0.467423135461317,-1.64889475588195,0.213698787815786,-0.19145949662156,-0.0979527876589614,0.331218103034425,0.0975200351964745,0.119434699140086,-0.348602432211198,0.133414585563596,0.0968682169256496,2.09004088431035,-0.0307688862305922,1.66974724382754,0,0,0,0,0,0,0,0,0,0,0,0,0,0,0,0,0,0,0,0,0,0,0,0,0,0,0.46,0.16,-5.55111512312578e-17,0.0399999999999998,0.22,2.77555756156289e-17,0.0399999999999999,-0.2,0,0.43888,-0.2,0.0179199999999988,0,0,0,0,0,0,0,0,0,0,0,0,0,0,0,0,0,0,0,0,0,0,0,0,0,0,0,0,0,0,0,0,0.00140623390372341,0.00187487763121701,0.00234003514744125,0.00206040478196658,0.00195668063363307,-0.39998030086838,-0.604089466584015,-1.47418116796518,-0.0959023687649134,-0.518811822678022,-1.40545793748629,-0.0289604623975341,-0.567386184751486,-1.4517146440761,-0.0265859985708188,-0.467423135461317,-1.64889475588195
0.45,0.246717402274696,-0.000913382000111447,0.2,-0,0,-0,0.0636699509841521,-0.00113753658874252,0,0,0,0,0,0,0,0,0,0,-0.387820159951379,-0.614771324928667,-1.47930971837286,-0.0779998761927634,-0.513477895388977,-1.39866967922049,-0.0477146470537164,-0.560075430909712,-1.4461694149118,0.0496439249191853,-0.509861327485583,-1.51979755675706,0.260915158003794,-0.226144149716012,-0.103948858064662,0.371126282283463,0.111415916680302,0.145487434846814,-0.387564261336415,0.152908619077274,0.119390447826007,1.10536901627141,-1.16581415479818,2.76469575491554,0,0,0,0,0,0,0,0,0,0,0,0,0,0,0,0,0,0,0,0,0,0,0,0,0,0,0.46,0.16,8.32667268468867e-17,0.0399999999999998,0.22,-2.77555756156289e-17,0.0399999999999999,-0.2,-2.77555756156289e-17,0.45376,-0.2,0.00703999999999999,0,0,0,0,0,0,0,0,0,0,0,0,0,0,0,0,0,0,0,0,0,0,0,0,0,0,0,0,0,0,0,0,0.00445688557231159,0.00182393824497365,0.00237404564522785,0.00209963358298185,0.00211779372467119,-0.387820159951379,-0.614771324928667,-1.47930971837286,-0.0779998761927634,-0.513477895388977,-1.39866967922049,-0.0477146470537164,-0.560075430909712,-1.4461694149118,0.0496439249191853,-0.509861327485583,-1.51979755675706
0.5,0.249349854956642,-0.000960413781941967,0.2,-0,0,-0,5.55111512312578e-15,-8.67361737988404e-17,0,0,0,0,0,0,0,0,0,0,-0.376695097238479,-0.624227137288366,-1.48340093395254,-0.0629115090215948,-0.508906436414361,-1.39248208863106,-0.0634058972156226,-0.553789119111771,-1.44106110022438,0.0708116873897229,-0.550659601537718,-1.43839251106996,2.22044604925031e-14,1.11022302462516e-14,-1.77635683940025e-13,4.44089209850063e-14,0,1.77635683940025e-13,1.33226762955019e-13,5.55111512312578e-14,0,0.158596759469276,-0.192168488130984,0.449753984040413,0,0,0,0,0,0,0,0,0,0,0,0,0,0,0,0,0,0,0,0,0,0,0,0,0,0,0.46,0.16,1.11022302462516e-16,0.0399999999999998,0.22,-5.55111512312578e-17,0.04,-0.2,0,0.46,-0.2,8.32667268468867e-17,0,0,0,0,0,0,0,0,0,0,0,0,0,0,0,0,0,0,0,0,0,0,0,0,0,0,0,0,0,0,0,0,0.192807735739196,0.0017798309259875,0.00240386981383915,0.00213407133568249,0.00215147333880219,-0.376695097238479,-0.624227137288366,-1.48340093395254,-0.0629115090215948,-0.508906436414361,-1.39248208863106,-0.0634058972156226,-0.553789119111771,-1.44106110022438,0.0708116873897229,-0.550659601537718,-1.43839251106996
0.55,0.251986561570878,-0.00101961862181631,0.2,-0,0,-0,0.0925107349223409,-0.00207724409616271,0,0,0,0,0,0,0,0,0,0,-0.36485938611758,-0.63384157584875,-1.48716050263492,-0.048266006288789,-0.504370200668525,-1.3859693600664,0.035982256744223,-0.513523786006326,-1.52250813328688,0.056049330844175,-0.557153337530468,-1.44383563984727,0.422117419617729,-0.339106243401821,-0.128170010432882,0.509281887785074,0.158327622192256,0.231766312384885,3.4174527729026,1.26463169386327,-2.49550188556427,-0.523858411170508,-0.22881394475599,-0.187664860889747,0,0,0,0,0,0,0,0,0,0,0,0,0,0,0,0,0,0,0,0,0,0,0,0,0,0,0.46,0.16,0,0.0399999999999999,0.22,0,0.0524799999215903,-0.206240000039205,0.00703999999999902,0.46,-0.2,5.55111512312578e-17,0,0,0,0,0,0,0,0,0,0,0,0,0,0,0,0,0,0,0,0,0,0,0,0,0,0,0,0,0,0,0,0,0,0.00173586550003691,0.00243413211817019,0.00209830223492909,0.00211555737049982,-0.36485938611758,-0.63384157584875,-1.48716050263492,-0.048266006288789,-0.504370200668525,-1.3859693600664,0.035982256744223,-0.513523786006326,-1.52250813328688,0.056049330844175,-0.557153337530468,-1.44383563984727
0.6,0.259143336666663,-0.00118031747290383,0.2,-0,0,-0,0.1738719675902,-0.00390413629799994,0,0,0,0,0,0,0,0,0,0,-0.329466117781411,-0.660667029563671,-1.49573206694285,-0.0104820291265821,-0.492478929927158,-1.36681999296677,0.277921700195429,-0.444008304897924,-1.63511176889479,0.0132542292798181,-0.57514711937186,-1.4571727646255,0.907096340734448,-0.660717265131616,-0.186594317468369,0.892212470976572,0.282516426756074,0.485385105624836,5.46002373615329,1.30350491809295,-1.63349372973043,-1.07781992441334,-0.441215321218436,-0.305098117815561,0,0,0,0,0,0,0,0,0,0,0,0,0,0,0,0,0,0,0,0,0,0,0,0,0,0,0.46,0.16,5.55111512312578e-17,0.0399999999999999,0.22,0,0.0822399997346124,-0.221120000132695,0.0179200000000002,0.46,-0.2,2.77555756156289e-17,0,0,0,0,0,0,0,0,0,0,0,0,0,0,0,0,0,0,0,0,0,0,0,0,0,0,0,0,0,0,0,0,0,0.00161742634365084,0.00251706357616857,0.00207043746456318,0.00201966061388027,-0.329466117781411,-0.660667029563671,-1.49573206694285,-0.0104820291265821,-0.492478929927158,-1.36681999296677,0.277921700195429,-0.444008304897924,-1.63511176889479,0.0132542292798181,-0.57514711937186,-1.4571727646255
0.65,0.269690163123609,-0.00141713683240121,0.2,-0,0,-0,0.232632857850384,-0.00522355844377077,0,0,0,0,0,0,0,0,0,0,-0.266763205570416,-0.701706051591361,-1.50417960268629,0.0403132611381216,-0.476425627705025,-1.33449114091283,0.537835615806531,-0.418105764796583,-1.61618127974945,-0.0578322126132331,-0.602179497126322,-1.47320402942479,1.50752769240208,-0.916829502641259,-0.144966856067796,1.07309562063014,0.336439954837575,0.756635830132701,4.64783616454563,-0.156482440338668,1.82642064416356,-1.65609610943571,-0.597672859091514,-0.318187743381415,0,0,0,0,0,0,0,0,0,0,0,0,0,0,0,0,0,0,0,0,0,0,0,0,0,0,0.46,0.16,6.93889390390723e-17,0.0399999999999998,0.22,-2.77555756156289e-17,0.117759999734613,-0.238880000132694,0.0179199999999984,0.46,-0.2,5.55111512312578e-17,0,0,0,0,0,0,0,0,0,0,0,0,0,0,0,0,0,0,0,0,0,0,0,0,0,0,0,0,0,0,0,0,0,0.00144645106086823,0.00263959159131506,0.00220608091772775,0.00188411743388479,-0.266763205570416,-0.701706051591361,-1.50417960268629,0.0403132611381216,-0.476425627705025,-1.33449114091283,0.537835615806531,-0.418105764796583,-1.61618127974945,-0.0578322126132331,-0.602179497126322,-1.47320402942479
0.7,0.282497023821328,-0.00170470319750518,0.2,-0,0,-0,0.268793405702727,-0.0060355105334765,0,0,0,0,0,0,0,0,0,0,-0.167899690483664,-0.752622393430785,-1.50827459798652,0.0950025904637157,-0.460067028136264,-1.28818403603696,0.692857869277929,-0.459624261834374,-1.47060211876338,-0.15884002792067,-0.634559539401339,-1.48742582262003,2.3262666677346,-1.06841941377096,-0.0342046507107341,1.08921407201721,0.310281922419853,1.03908844990777,1.93295616223299,-1.10299116060704,3.16726183062492,-2.26442049840205,-0.666904635973165,-0.254632764931806,0,0,0,0,0,0,0,0,0,0,0,0,0,0,0,0,0,0,0,0,0,0,0,0,0,0,0.46,0.16,1.2490009027033e-16,0.0399999999999999,0.22,5.55111512312578e-17,0.14751999992159,-0.253760000039205,0.00703999999999905,0.46,-0.2,-2.77555756156289e-17,0,0,0,0,0,0,0,0,0,0,0,0,0,0,0,0,0,0,0,0,0,0,0,0,0,0,0,0,0,0,0,0,0.00456994930778584,0.00124794504589492,0.00278409671782862,0.00241219392805225,0.00173261638479046,-0.167899690483664,-0.752622393430785,-1.50827459798652,0.0950025904637157,-0.460067028136264,-1.28818403603696,0.692857869277929,-0.459624261834374,-1.47060211876338,-0.15884002792067,-0.634559539401339,-1.48742582262003
0.75,0.293610365527961,-0.00195424313974128,0.2,-0,0,-0,5.55111512312578e-15,-4.33680868994202e-17,0,0,0,0,0,0,0,0,0,0,-0.0538122488348594,-0.795911297882406,-1.50716741226586,0.137032140484182,-0.44938631331184,-1.24120885319602,0.706990566141191,-0.496964069658054,-1.37443164383311,-0.261180521307812,-0.660787731075561,-1.49576474615236,7.7715611723761e-14,-2.22044604925031e-14,0,4.44089209850063e-14,7.7715611723761e-14,0,0.4295542267851,-0.219150198105633,0.485550801132817,-8.88178419700125e-14,-2.22044604925031e-14,1.77635683940025e-13,0,0,0,0,0,0,0,0,0,0,0,0,0,0,0,0,0,0,0,0,0,0,0,0,0,0,0.46,0.16,-4.16333634234434e-17,0.0399999999999996,0.22,5.55111512312578e-17,0.16,-0.26,0,0.46,-0.2,-6.93889390390723e-17,0,0,0,0,0,0,0,0,0,0,0,0,0,0,0,0,0,0,0,0,0,0,0,0,0,0,0,0,0,0,0,0,0.151211766146606,0.00108848736948579,0.00290007963919648,0.00248512148630164,0.0016169063903279,-0.0538122488348594,-0.795911297882406,-1.50716741226586,0.137032140484182,-0.44938631331184,-1.24120885319602,0.706990566141191,-0.496964069658054,-1.37443164383311,-0.261180521307812,-0.660787731075561,-1.49576474615236
0.8,0.292708914271863,-0.00193916331051366,0.2,-0,0,-0,-0.0316280612139508,0.000529086579757754,0,0,0,0,0,0,0,0,0,0,-0.0642142046083192,-0.792469714475888,-1.5073935244742,0.141391971759229,-0.405743427270536,-1.36733819594688,0.713636115346364,-0.497087193894175,-1.37463353282246,-0.252312744305057,-0.658781620058794,-1.49521510658026,-0.362281159325517,0.120982908341571,-0.00768857336250761,0.150698684479966,1.24149992659879,-3.95925324100421,0.233222278147416,-0.00416179568194508,-0.00682011762638268,0.310045633638367,0.0706319375240017,0.0195099961766587,0,0,0,0,0,0,0,0,0,0,0,0,0,0,0,0,0,0,0,0,0,0,0,0,0,0,0.46,0.16,5.55111512312578e-17,0.0462399999999997,0.21376,0.00704000000000354,0.16,-0.26,2.77555756156289e-17,0.46,-0.2,9.71445146547012e-17,0,0,0,0,0,0,0,0,0,0,0,0,0,0,0,0,0,0,0,0,0,0,0,0,0,0,0,0,0,0,0,0,0,0.00110089633194102,0.00282838413305979,0.00248425650894364,0.00162556251070288,-0.0642142046083192,-0.792469714475888,-1.5073935244742,0.141391971759229,-0.405743427270536,-1.36733819594688,0.713636115346364,-0.497087193894175,-1.37463353282246,-0.252312744305057,-0.658781620058794,-1.49521510658026
0.85,0.290262118005312,-0.00189823234546725,0.2,-0,0,-0,-0.0594442714020871,0.00099440702449596,0,0,0,0,0,0,0,0,0,0,-0.0912916079906892,-0.783033113546774,-1.50789517977523,0.153012859721411,-0.375291550493142,-1.57290298953415,0.731696898829823,-0.497351129074205,-1.37506509480964,-0.228723082325788,-0.653231799785303,-1.49362142803542,-0.642684746244859,0.230436820113389,-0.0106320861695153,0.283254864169491,-0.153497131027924,-3.64143486628778,0.439048964065947,-0.00546452157044186,-0.00892148461701936,0.566668387843983,0.136181056698381,0.0401126939442165,0,0,0,0,0,0,0,0,0,0,0,0,0,0,0,0,0,0,0,0,0,0,0,0,0,0,0.46,0.16,-1.38777878078145e-17,0.0611199999999989,0.198880000000001,0.0179200000000037,0.16,-0.26,5.55111512312578e-17,0.46,-0.2,-4.16333634234434e-17,0,0,0,0,0,0,0,0,0,0,0,0,0,0,0,0,0,0,0,0,0,0,0,0,0,0,0,0,0,0,0,0,0,0.00113514725894333,0.00246136235675781,0.00248240436652762,0.00164967007034082,-0.0912916079906892,-0.783033113546774,-1.50789517977523,0.153012859721411,-0.375291550493142,-1.57290298953415,0.731696898829823,-0.497351129074205,-1.37506509480964,-0.228723082325788,-0.653231799785303,-1.49362142803542
0.9,0.286656312980921,-0.00183791302855676,0.2,-0,0,-0,-0.0795337565380083,0.00133047179014063,0,0,0,0,0,0,0,0,0,0,-0.128306360968545,-0.768922245178181,-1.50831231108718,0.169824038148799,-0.471849163285279,-1.65119878809508,0.758353438139553,-0.497551490116284,-1.3753916035951,-0.195228352166911,-0.644802683596655,-1.49098854216813,-0.788300577118628,0.312976972697299,-0.00572976845614193,0.356168645417609,-3.06474087031761,0.0132454669790061,0.588225750719129,-0.00247978451398678,-0.00403592104660788,0.72589879162841,0.188269685608244,0.0610859529180274,0,0,0,0,0,0,0,0,0,0,0,0,0,0,0,0,0,0,0,0,0,0,0,0,0,0,0.46,0.16,0,0.0788800000000016,0.181119999999998,0.0179199999999966,0.16,-0.26,0,0.46,-0.2,-5.55111512312578e-17,0,0,0,0,0,0,0,0,0,0,0,0,0,0,0,0,0,0,0,0,0,0,0,0,0,0,0,0,0,0,0,0,0,0.00118700969943999,0.00193598321995323,0.0024810002234626,0.00168675251737896,-0.128306360968545,-0.768922245178181,-1.50831231108718,0.169824038148799,-0.471849163285279,-1.65119878809508,0.758353438139553,-0.497551490116284,-1.3753916035951,-0.195228352166911,-0.644802683596655,-1.49098854216813
0.95,0.282277835451303,-0.00176466814373688,0.2,-0,0,-0,-0.0918965166216312,0.00153728087668994,0,0,0,0,0,0,0,0,0,0,-0.169063079204484,-0.751567517077067,-1.50825224762505,0.183513515924534,-0.648816375844038,-1.57674657182442,0.790738170882427,-0.497491005445229,-1.37529313758406,-0.156553546943814,-0.634232967352793,-1.48730539905694,-0.81986751880383,0.365639901966019,0.00669529419710102,0.154829266764134,-3.42421254785999,2.04793964229726,0.679541746994072,0.00403333063465627,0.00656701859007569,0.793823069876254,0.224477243811549,0.0819069531830863,0,0,0,0,0,0,0,0,0,0,0,0,0,0,0,0,0,0,0,0,0,0,0,0,0,0,0.46,0.16,2.77555756156289e-17,0.0937599999999996,0.16624,0.00703999999999283,0.16,-0.26,8.32667268468867e-17,0.46,-0.2,6.93889390390723e-17,0,0,0,0,0,0,0,0,0,0,0,0,0,0,0,0,0,0,0,0,0,0,0,0,0,0,0,0,0,0,0,0,0,0.00125192855407122,0.00148675727688914,0.00248142393403741,0.0017340937008215,-0.169063079204484,-0.751567517077067,-1.50825224762505,0.183513515924534,-0.648816375844038,-1.57674657182442,0.790738170882427,-0.497491005445229,-1.37529313758406,-0.156553546943814,-0.634232967352793,-1.48730539905694
