TharitSinsunthorn/moonbot_self_recognition/moonbot_gazebo/src/RL_base_gait_test1.csv
time,R0_1,R0_2,R0_3,Q0_1,Q0_2,Q0_3,v0_1,v0_2,v0_3,w0_1,w0_2,w0_3,vd0_1,vd0_2,vd0_3,wd0_1,wd0_2,wd0_3,q_1,q_2,q_3,q_4,q_5,q_6,q_7,q_8,q_9,q_10,q_11,q_12,qd_1,qd_2,qd_3,qd_4,qd_5,qd_6,qd_7,qd_8,qd_9,qd_10,qd_11,qd_12,qdd_1,qdd_2,qdd_3,qdd_4,qdd_5,qdd_6,qdd_7,qdd_8,qdd_9,qdd_10,qdd_11,qdd_12,tau_1,tau_2,tau_3,tau_4,tau_5,tau_6,tau_7,tau_8,tau_9,tau_10,tau_11,tau_12,tau_max,tau_rms,pos_e1_1,pos_e1_2,pos_e1_3,pos_e2_1,pos_e2_2,pos_e2_3,pos_e3_1,pos_e3_2,pos_e3_3,pos_e4_1,pos_e4_2,pos_e4_3,Fe1_1,Fe1_2,Fe1_3,Fe_res1,Fe2_1,Fe2_2,Fe2_3,Fe_res2,Fe3_1,Fe3_2,Fe3_3,Fe_res3,Fe4_1,Fe4_2,Fe4_3,Fe_res4,Te1_1,Te1_2,Te1_3,Te_res1,Te2_1,Te2_2,Te2_3,Te_res2,Te3_1,Te3_2,Te3_3,Te_res3,Te4_1,Te4_2,des_q_1,des_q_2,des_q_3,des_q_4,des_q_5,des_q_6,des_q_7,des_q_8,des_q_9,des_q_10,des_q_11,des_q_12
0,0.21,0,0.2,0,0,0,0,0,0,0,0,0,0,0,0,0,0,0,0.180926461,-0.544845141,-1.433197911,-0.334198044,-0.578249146,-1.459238897,0.237374247,-0.645859917,-1.491333211,-0.069333134,-0.59895899,-1.47151324,0,0,0,0,2.22E-14,0,0,-3.33E-14,0,-8.88E-14,-2.22E-14,0,0,0,0,0,0,0,0,0,0,0,0,0,0,0,0,0,0,0,0,0,0,0,0,0,0,0,0.4,0.22,5.55E-17,0.04,0.22,-5.55E-17,0.04,-0.2,-6.94E-17,0.4,-0.2,2.78E-17,0,0,0,0,0,0,0,0,0,0,0,0,0,0,0,0,0,0,0,0,0,0,0,0,0,0,0,0,0,0,0.180926461,-0.544845141,-1.433197911,-0.334198044,-0.578249146,-1.459238897,0.237374247,-0.645859917,-1.491333211,-0.069333134,-0.59895899,-1.47151324
0.05,0.211719602,-4.61E-05,0.2,0,0,0,0.060333457,-0.001615894,0,0,0,0,0,0,0,0,0,0,0.118253537,-0.502327261,-1.513913264,-0.320131409,-0.575447078,-1.457375353,0.220994769,-0.64224802,-1.490138195,-0.08188909,-0.603297928,-1.473778502,-2.147625277,1.306577048,-2.497614281,0.491162399,0.098871616,0.066349744,-0.571110095,0.1275656,0.0427726,-0.443794079,-0.152130145,-0.078299662,0,0,0,0,0,0,0,0,0,0,0,0,0,0,0,0,0,0,0,0,0,0,0,0,0,0,0.40624,0.21376,0.00704,0.04,0.22,2.78E-17,0.04,-0.2,-1.94E-16,0.4,-0.2,1.11E-16,0,0,0,0,0,0,0,0,0,0,0,0,0,0,0,0,0,0,0,0,0,0,0,0,0,0,0,0,0,0,0.118253537,-0.502327261,-1.513913264,-0.320131409,-0.575447078,-1.457375353,0.220994769,-0.64224802,-1.490138195,-0.08188909,-0.603297928,-1.473778502
0.1,0.216387092,-0.000171064,0.2,0,0,0,0.113395454,-0.003037039,0,0,0,0,0,0,0,0,0,0,-0.03599472,-0.441281831,-1.633316524,-0.283005367,-0.567613628,-1.451880701,0.178114947,-0.632099941,-1.486508147,-0.117441719,-0.615005101,-1.479415799,-3.55873322,0.927043342,-1.888262753,0.887759836,0.193111039,0.13947625,-1.020612743,0.250809315,0.093552121,-0.88391718,-0.283161385,-0.130227365,0,0,0,0,0,0,0,0,0,0,0,0,0,0,0,0,0,0,0,0,0,0,0,0,0,0,0.42112,0.19888,0.01792,0.04,0.22,5.55E-17,0.04,-0.2,-9.71E-17,0.4,-0.2,-2.78E-17,0,0,0,0,0,0,0,0,0,0,0,0,0,0,0,0,0,0,0,0,0,0,0,0,0,0,0,0,0,0,-0.03599472,-0.441281831,-1.633316524,-0.283005367,-0.567613628,-1.451880701,0.178114947,-0.632099941,-1.486508147,-0.117441719,-0.615005101,-1.479415799
0.15,0.223265499,-0.000355286,0.2,0,0,0,0.151718008,-0.004063422,0,0,0,0,0,0,0,0,0,0,-0.222221486,-0.449298804,-1.638475869,-0.231105955,-0.555593786,-1.442561328,0.119068811,-0.61640754,-1.480046828,-0.17394402,-0.63190641,-1.486434888,-3.637335296,-0.960601625,1.192261519,1.116059741,0.268987659,0.218530335,-1.260629543,0.352314591,0.154526269,-1.289715906,-0.367870202,-0.142217937,0,0,0,0,0,0,0,0,0,0,0,0,0,0,0,0,0,0,0,0,0,0,0,0,0,0,0.43888,0.18112,0.01792,0.04,0.22,-2.78E-17,0.04,-0.2,-1.39E-16,0.4,-0.2,8.33E-17,0,0,0,0,0,0,0,0,0,0,0,0,0,0,0,0,0,0,0,0,0,0,0,0,0,0,0,0,0,0,-0.222221486,-0.449298804,-1.638475869,-0.231105955,-0.555593786,-1.442561328,0.119068811,-0.61640754,-1.480046828,-0.17394402,-0.63190641,-1.486434888
0.2,0.231617851,-0.000578985,0.2,0,0,0,0.175301118,-0.004695042,0,0,0,0,0,0,0,0,0,0,-0.369232489,-0.527471654,-1.532010746,-0.172525659,-0.540546161,-1.429147293,0.053748686,-0.596586565,-1.470232257,-0.249517547,-0.651443648,-1.493084622,-2.303638768,-1.742836675,2.33867904,1.189827243,0.318063785,0.301461409,-1.315013282,0.420522444,0.224992598,-1.651341643,-0.398356763,-0.123771513,0,0,0,0,0,0,0,0,0,0,0,0,0,0,0,0,0,0,0,0,0,0,0,0,0,0,0.45376,0.16624,0.00704,0.04,0.22,2.78E-17,0.04,-0.2,-2.78E-17,0.4,-0.2,6.94E-17,0,0,0,0,0,0,0,0,0,0,0,0,0,0,0,0,0,0,0,0,0,0,0,0,0,0,0,0,0,0,-0.369232489,-0.527471654,-1.532010746,-0.172525659,-0.540546161,-1.429147293,0.053748686,-0.596586565,-1.470232257,-0.249517547,-0.651443648,-1.493084622
0.25,0.238865727,-0.000773103,0.2,0,0,0,0,-1.08E-17,0,0,0,0,0,0,0,0,0,0,-0.417965578,-0.587629875,-1.465112955,-0.125503228,-0.527387231,-1.415505818,0.00237467,-0.579095416,-1.459791579,-0.321532023,-0.667068036,-1.497397169,-0.345078232,-0.19286153,0.424950561,0,0,0,0,0,0,8.88E-14,3.33E-14,0,0,0,0,0,0,0,0,0,0,0,0,0,0,0,0,0,0,0,0,0,0,0,0,0,0,0,0.46,0.16,-5.55E-17,0.04,0.22,-5.55E-17,0.04,-0.2,-8.33E-17,0.4,-0.2,4.16E-17,0,0,0,0,0,0,0,0,0,0,0,0,0,0,0,0,0,0,0,0,0,0,0,0,0,0,0,0,0,0,-0.417965578,-0.587629875,-1.465112955,-0.125503228,-0.527387231,-1.415505818,0.00237467,-0.579095416,-1.459791579,-0.321532023,-0.667068036,-1.497397169
0.3,0.238703898,-0.000770212,0.2,0,0,0,-0.005677893,0.000101442,0,0,0,0,0,0,0,0,0,0,-0.418543251,-0.587088308,-1.464788528,-0.12652287,-0.52767679,-1.415828005,0.003461305,-0.579489976,-1.460047673,-0.290242212,-0.58513872,-1.560296375,-0.020249311,0.018992702,0.011397538,-0.035793878,-0.010160202,-0.011292986,0.038151163,-0.013843973,-0.008974166,1.000743378,2.662521718,-1.866842353,0,0,0,0,0,0,0,0,0,0,0,0,0,0,0,0,0,0,0,0,0,0,0,0,0,0,0.46,0.16,0,0.04,0.22,-5.55E-17,0.04,-0.2,-1.11E-16,0.40624,-0.20624,0.00704,0,0,0,0,0,0,0,0,0,0,0,0,0,0,0,0,0,0,0,0,0,0,0,0,0,0,0,0,0,0,-0.418543251,-0.587088308,-1.464788528,-0.12652287,-0.52767679,-1.415828005,0.003461305,-0.579489976,-1.460047673,-0.290242212,-0.58513872,-1.560296375
0.35,0.238264647,-0.000762364,0.2,0,0,0,-0.010671479,0.000190658,0,0,0,0,0,0,0,0,0,0,-0.420102954,-0.585622141,-1.463901398,-0.129298906,-0.528463082,-1.416697573,0.006422186,-0.580561154,-1.460737891,-0.234168232,-0.431522395,-1.626527239,-0.037781918,0.035568915,0.021640552,-0.067556638,-0.019107237,-0.0210596,0.072087958,-0.026026841,-0.016702953,1.097546031,2.942717383,-0.525439763,0,0,0,0,0,0,0,0,0,0,0,0,0,0,0,0,0,0,0,0,0,0,0,0,0,0,0.46,0.16,2.78E-17,0.04,0.22,2.78E-17,0.04,-0.2,-1.67E-16,0.42112,-0.22112,0.01792,0,0,0,0,0,0,0,0,0,0,0,0,0,0,0,0,0,0,0,0,0,0,0,0,0,0,0,0,0,0,-0.420102954,-0.585622141,-1.463901398,-0.129298906,-0.528463082,-1.416697573,0.006422186,-0.580561154,-1.460737891,-0.234168232,-0.431522395,-1.626527239
0.4,0.23761733,-0.000750799,0.2,0,0,0,-0.014277958,0.000255092,0,0,0,0,0,0,0,0,0,0,-0.422379669,-0.583471664,-1.4625766,-0.133412457,-0.529622656,-1.417965925,0.010816232,-0.582140227,-1.461742064,-0.188371118,-0.354870452,-1.544211014,-0.049996348,0.047328529,0.029400167,-0.090964658,-0.025584619,-0.027842232,0.097235132,-0.034833999,-0.022016558,0.778407379,0.363158999,3.144795463,0,0,0,0,0,0,0,0,0,0,0,0,0,0,0,0,0,0,0,0,0,0,0,0,0,0,0.46,0.16,5.55E-17,0.04,0.22,0,0.04,-0.2,-1.39E-16,0.43888,-0.23888,0.01792,0,0,0,0,0,0,0,0,0,0,0,0,0,0,0,0,0,0,0,0,0,0,0,0,0,0,0,0,0,0,-0.422379669,-0.583471664,-1.4625766,-0.133412457,-0.529622656,-1.417965925,0.010816232,-0.582140227,-1.461742064,-0.188371118,-0.354870452,-1.544211014
0.45,0.236831303,-0.000736756,0.2,0,0,0,-0.016497329,0.000294744,0,0,0,0,0,0,0,0,0,0,-0.425109877,-0.580876844,-1.460939908,-0.138443765,-0.531031804,-1.419485165,0.016201315,-0.584058182,-1.462940736,-0.159796775,-0.397074461,-1.336940877,-0.056992916,0.054309982,0.034606306,-0.105929225,-0.029584037,-0.031696755,0.11347543,-0.040257382,-0.024970711,0.438376183,-1.344610625,4.29116169,0,0,0,0,0,0,0,0,0,0,0,0,0,0,0,0,0,0,0,0,0,0,0,0,0,0,0.46,0.16,1.11E-16,0.04,0.22,-2.78E-17,0.04,-0.2,-5.55E-17,0.45376,-0.25376,0.00704,0,0,0,0,0,0,0,0,0,0,0,0,0,0,0,0,0,0,0,0,0,0,0,0,0,0,0,0,0,0,-0.425109877,-0.580876844,-1.460939908,-0.138443765,-0.531031804,-1.419485165,0.016201315,-0.584058182,-1.462940736,-0.159796775,-0.397074461,-1.336940877
0.5,0.236149216,-0.000724569,0.2,0,0,0,0,0,0,0,0,0,0,0,0,0,0,0,-0.427449031,-0.578639941,-1.459494696,-0.142842165,-0.532255351,-1.420785039,0.02091863,-0.585722682,-1.463962646,-0.148294808,-0.444671744,-1.208429285,0,0,0,0,0,0,8.88E-14,4.44E-13,-7.11E-13,0.034629807,-0.272637816,0.648401271,0,0,0,0,0,0,0,0,0,0,0,0,0,0,0,0,0,0,0,0,0,0,0,0,0,0,0.46,0.16,-2.78E-17,0.04,0.22,0,0.04,-0.2,5.00E-16,0.46,-0.26,-2.78E-17,0,0,0,0,0,0,0,0,0,0,0,0,0,0,0,0,0,0,0,0,0,0,0,0,0,0,0,0,0,0,-0.427449031,-0.578639941,-1.459494696,-0.142842165,-0.532255351,-1.420785039,0.02091863,-0.585722682,-1.463962646,-0.148294808,-0.444671744,-1.208429285
0.55,0.237890182,-0.000751137,0.2,0,0,0,0.06108305,-0.000932144,0,0,0,0,0,0,0,0,0,0,-0.421463124,-0.584382409,-1.463141121,-0.131652857,-0.529144138,-1.417444527,0.048245206,-0.516660649,-1.524755794,-0.156507144,-0.445417761,-1.214673774,0.212090213,-0.202499157,-0.126216876,0.390357456,0.109108531,0.118477231,0.885302009,2.222313153,-1.813402527,-0.289299652,-0.02675157,-0.217436986,0,0,0,0,0,0,0,0,0,0,0,0,0,0,0,0,0,0,0,0,0,0,0,0,0,0,0.46,0.16,0,0.04,0.22,-2.78E-17,0.04,-0.20624,0.00704,0.46,-0.26,-5.55E-17,0,0,0,0,0,0,0,0,0,0,0,0,0,0,0,0,0,0,0,0,0,0,0,0,0,0,0,0,0,0,-0.421463124,-0.584382409,-1.463141121,-0.131652857,-0.529144138,-1.417444527,0.048245206,-0.516660649,-1.524755794,-0.156507144,-0.445417761,-1.214673774
0.6,0.242615662,-0.000823249,0.2,0,0,0,0.114804299,-0.001751945,0,0,0,0,0,0,0,0,0,0,-0.404257035,-0.600409115,-1.472281347,-0.102255371,-0.520739616,-1.40780562,0.099611832,-0.392851051,-1.592879254,-0.17931695,-0.447685302,-1.230900678,0.431485682,-0.395117884,-0.211941627,0.701291022,0.203408948,0.241970961,1.019474122,2.294884058,-0.65608154,-0.561187661,-0.058179764,-0.38465431,0,0,0,0,0,0,0,0,0,0,0,0,0,0,0,0,0,0,0,0,0,0,0,0,0,0,0.46,0.16,5.55E-17,0.04,0.22,2.78E-17,0.04,-0.22112,0.01792,0.46,-0.26,5.55E-17,0,0,0,0,0,0,0,0,0,0,0,0,0,0,0,0,0,0,0,0,0,0,0,0,0,0,0,0,0,0,-0.404257035,-0.600409115,-1.472281347,-0.102255371,-0.520739616,-1.40780562,0.099611832,-0.392851051,-1.592879254,-0.17931695,-0.447685302,-1.230900678
0.65,0.249579528,-0.000929519,0.2,0,0,0,0.153602978,-0.002344023,0,0,0,0,0,0,0,0,0,0,-0.376034755,-0.625115574,-1.483764835,-0.061437137,-0.508577382,-1.392022595,0.139858714,-0.343649394,-1.5249727,-0.214338462,-0.451588236,-1.252955199,0.654511477,-0.555405587,-0.233201148,0.87540625,0.265099029,0.364715357,0.619252953,-0.06894835,2.773608449,-0.787050781,-0.091181444,-0.467906263,0,0,0,0,0,0,0,0,0,0,0,0,0,0,0,0,0,0,0,0,0,0,0,0,0,0,0.46,0.16,-5.55E-17,0.04,0.22,2.78E-17,0.04,-0.23888,0.01792,0.46,-0.26,0,0,0,0,0,0,0,0,0,0,0,0,0,0,0,0,0,0,0,0,0,0,0,0,0,0,0,0,0,0,0,-0.376034755,-0.625115574,-1.483764835,-0.061437137,-0.508577382,-1.392022595,0.139858714,-0.343649394,-1.5249727,-0.214338462,-0.451588236,-1.252955199
0.7,0.258035651,-0.001058562,0.2,0,0,0,0.177479089,-0.002708379,0,0,0,0,0,0,0,0,0,0,-0.336277136,-0.656631086,-1.494610418,-0.015653834,-0.494432956,-1.370199189,0.15304421,-0.396571936,-1.334886035,-0.259163357,-0.45702418,-1.276903158,0.890749849,-0.673666831,-0.200023731,0.927988871,0.289620155,0.483004399,0.007440506,-1.430948334,4.035460811,-0.961901119,-0.119188024,-0.477701344,0,0,0,0,0,0,0,0,0,0,0,0,0,0,0,0,0,0,0,0,0,0,0,0,0,0,0.46,0.16,2.78E-17,0.04,0.22,2.78E-17,0.04,-0.25376,0.00704,0.46,-0.26,2.78E-17,0,0,0,0,0,0,0,0,0,0,0,0,0,0,0,0,0,0,0,0,0,0,0,0,0,0,0,0,0,0,-0.336277136,-0.656631086,-1.494610418,-0.015653834,-0.494432956,-1.370199189,0.15304421,-0.396571936,-1.334886035,-0.259163357,-0.45702418,-1.276903158
0.75,0.265373575,-0.001170541,0.2,0,0,0,-5.55E-15,1.73E-16,0,0,0,0,0,0,0,0,0,0,-0.295769362,-0.68505484,-1.501368119,0.020955085,-0.482964482,-1.348769151,0.139538366,-0.444302439,-1.205107919,-0.300129376,-0.462159304,-1.295298948,-2.22E-14,2.22E-14,0,-1.33E-13,4.44E-14,-1.78E-13,0.09932658,-0.285655791,0.549733138,8.88E-14,-4.44E-14,1.78E-13,0,0,0,0,0,0,0,0,0,0,0,0,0,0,0,0,0,0,0,0,0,0,0,0,0,0,0.46,0.16,-1.39E-17,0.04,0.22,2.78E-17,0.04,-0.26,-2.78E-17,0.46,-0.26,-5.55E-17,0,0,0,0,0,0,0,0,0,0,0,0,0,0,0,0,0,0,0,0,0,0,0,0,0,0,0,0,0,0,-0.295769362,-0.68505484,-1.501368119,0.020955085,-0.482964482,-1.348769151,0.139538366,-0.444302439,-1.205107919,-0.300129376,-0.462159304,-1.295298948
0.8,0.263524135,-0.001118786,0.2,0,0,0,-0.064888935,0.001815874,0,0,0,0,0,0,0,0,0,0,-0.30682921,-0.677861373,-1.499901347,0.044903362,-0.442568004,-1.446576937,0.148460825,-0.44502713,-1.211475297,-0.289695235,-0.460809128,-1.290761775,-0.383099177,0.251890357,0.053157115,0.827631448,1.186576378,-3.063267857,0.314327772,-0.026010861,-0.221572662,0.364674548,0.047184195,0.160734834,0,0,0,0,0,0,0,0,0,0,0,0,0,0,0,0,0,0,0,0,0,0,0,0,0,0,0.46,0.16,1.53E-16,0.04,0.21376,0.00704,0.04,-0.26,0,0.46,-0.26,2.78E-17,0,0,0,0,0,0,0,0,0,0,0,0,0,0,0,0,0,0,0,0,0,0,0,0,0,0,0,0,0,0,-0.30682921,-0.677861373,-1.499901347,0.044903362,-0.442568004,-1.446576937,0.148460825,-0.44502713,-1.211475297,-0.289695235,-0.460809128,-1.290761775
0.85,0.258504225,-0.000978307,0.2,0,0,0,-0.12195738,0.003412897,0,0,0,0,0,0,0,0,0,0,-0.334773172,-0.658582547,-1.495159807,0.107759441,-0.402854643,-1.602779587,0.173247478,-0.447237898,-1.227959409,-0.262000041,-0.457242326,-1.277753822,-0.652448392,0.464725359,0.125545936,1.514381844,0.245066284,-2.692166255,0.609868889,-0.056785816,-0.389897199,0.664439823,0.085138257,0.325457113,0,0,0,0,0,0,0,0,0,0,0,0,0,0,0,0,0,0,0,0,0,0,0,0,0,0,0.46,0.16,-1.39E-17,0.04,0.19888,0.01792,0.04,-0.26,2.78E-17,0.46,-0.26,-2.78E-17,0,0,0,0,0,0,0,0,0,0,0,0,0,0,0,0,0,0,0,0,0,0,0,0,0,0,0,0,0,0,-0.334773172,-0.658582547,-1.495159807,0.107759441,-0.402854643,-1.602779587,0.173247478,-0.447237898,-1.227959409,-0.262000041,-0.457242326,-1.277753822
0.9,0.251106464,-0.000771285,0.2,0,0,0,-0.163173479,0.004566303,0,0,0,0,0,0,0,0,0,0,-0.371104635,-0.630987726,-1.486085017,0.196189266,-0.463214328,-1.64661965,0.211308238,-0.451045534,-1.25019928,-0.222846572,-0.452347147,-1.256676502,-0.756451554,0.599166623,0.221972813,1.871545582,-2.179798615,0.484325571,0.855325625,-0.088850031,-0.470080841,0.846705156,0.103495768,0.484944592,0,0,0,0,0,0,0,0,0,0,0,0,0,0,0,0,0,0,0,0,0,0,0,0,0,0,0.46,0.16,0,0.04,0.18112,0.01792,0.04,-0.26,0,0.46,-0.26,8.33E-17,0,0,0,0,0,0,0,0,0,0,0,0,0,0,0,0,0,0,0,0,0,0,0,0,0,0,0,0,0,0,-0.371104635,-0.630987726,-1.486085017,0.196189266,-0.463214328,-1.64661965,0.211308238,-0.451045534,-1.25019928,-0.222846572,-0.452347147,-1.256676502
0.95,0.242123468,-0.000519902,0.2,0,0,0,-0.188537232,0.005276091,0,0,0,0,0,0,0,0,0,0,-0.408811436,-0.59911815,-1.471598092,0.280209855,-0.59928338,-1.56508534,0.260006224,-0.456313695,-1.274082629,-0.17792284,-0.447223932,-1.227865814,-0.740230671,0.65217908,0.336254113,1.387420642,-2.762149792,2.006619261,1.044698562,-0.114996587,-0.473825086,0.919394377,0.098559984,0.63499948,0,0,0,0,0,0,0,0,0,0,0,0,0,0,0,0,0,0,0,0,0,0,0,0,0,0,0.46,0.16,8.33E-17,0.04,0.16624,0.00704,0.04,-0.26,2.78E-17,0.46,-0.26,2.78E-17,0,0,0,0,0,0,0,0,0,0,0,0,0,0,0,0,0,0,0,0,0,0,0,0,0,0,0,0,0,0,-0.408811436,-0.59911815,-1.471598092,0.280209855,-0.59928338,-1.56508534,0.260006224,-0.456313695,-1.274082629,-0.17792284,-0.447223932,-1.227865814
1,0.234328341,-0.00030176,0.2,0,0,0,-2.22E-14,0,0,0,0,0,0,0,0,0,0,0,-0.436914405,-0.573198558,-1.455841887,0.30355292,-0.688065329,-1.501935747,0.30446764,-0.461225838,-1.292182548,-0.1412046,-0.44375357,-1.199826108,-3.33E-13,2.82E-12,-3.55E-12,0.308103219,-0.288708517,0.378345643,1.78E-13,1.11E-14,-1.78E-13,8.88E-14,0,1.78E-13,0,0,0,0,0,0,0,0,0,0,0,0,0,0,0,0,0,0,0,0,0,0,0,0,0,0,0.46,0.16,3.61E-15,0.04,0.16,1.39E-17,0.04,-0.26,2.78E-17,0.46,-0.26,2.78E-17,0,0,0,0,0,0,0,0,0,0,0,0,0,0,0,0,0,0,0,0,0,0,0,0,0,0,0,0,0,0,-0.436914405,-0.573198558,-1.455841887,0.30355292,-0.688065329,-1.501935747,0.30446764,-0.461225838,-1.292182548,-0.1412046,-0.44375357,-1.199826108
1.05,0.237028578,-0.000374573,0.2,0,0,0,0.094739732,-0.002554675,0,0,0,0,0,0,0,0,0,0,-0.445502282,-0.514236948,-1.523025033,0.317864683,-0.677183791,-1.499755005,0.288844482,-0.459499045,-1.286168144,-0.153699915,-0.44483637,-1.209857473,-0.278012828,1.862377086,-2.056111058,0.492464161,0.380346185,0.08030904,-0.545381816,0.060390006,0.214209559,-0.441196896,-0.039487311,-0.347891477,0,0,0,0,0,0,0,0,0,0,0,0,0,0,0,0,0,0,0,0,0,0,0,0,0,0,0.46572,0.16,0.00704,0.04,0.16,6.94E-17,0.04,-0.26,5.55E-17,0.46,-0.26,5.55E-17,0,0,0,0,0,0,0,0,0,0,0,0,0,0,0,0,0,0,0,0,0,0,0,0,0,0,0,0,0,0,-0.445502282,-0.514236948,-1.523025033,0.317864683,-0.677183791,-1.499755005,0.288844482,-0.459499045,-1.286168144,-0.153699915,-0.44483637,-1.209857473
1.1,0.244357792,-0.000572206,0.2,0,0,0,0.178061321,-0.004801458,0,0,0,0,0,0,0,0,0,0,-0.461735268,-0.417849378,-1.615971173,0.352762864,-0.64835474,-1.492129964,0.247671799,-0.454942249,-1.268405526,-0.188866819,-0.44838976,-1.235325292,-0.322338278,1.653442942,-1.351312556,0.798999821,0.690013954,0.208499104,-0.983622581,0.10836906,0.451215779,-0.871393011,-0.093944985,-0.595592842,0,0,0,0,0,0,0,0,0,0,0,0,0,0,0,0,0,0,0,0,0,0,0,0,0,0,0.47936,0.16,0.01792,0.04,0.16,-4.16E-17,0.04,-0.26,2.78E-17,0.46,-0.26,2.78E-17,0,0,0,0,0,0,0,0,0,0,0,0,0,0,0,0,0,0,0,0,0,0,0,0,0,0,0,0,0,0,-0.461735268,-0.417849378,-1.615971173,0.352762864,-0.64835474,-1.492129964,0.247671799,-0.454942249,-1.268405526,-0.188866819,-0.44838976,-1.235325292
1.15,0.255158738,-0.000863456,0.2,0,0,0,0.238238024,-0.006424134,0,0,0,0,0,0,0,0,0,0,-0.473616075,-0.400118485,-1.600165986,0.395573116,-0.608160967,-1.476202143,0.190304511,-0.448870535,-1.238214761,-0.244118514,-0.454944123,-1.268413507,-0.158117804,-0.640195366,1.499134025,0.868455743,0.860277591,0.400350307,-1.231495709,0.125005213,0.708550541,-1.254398562,-0.155618245,-0.686090023,0,0,0,0,0,0,0,0,0,0,0,0,0,0,0,0,0,0,0,0,0,0,0,0,0,0,0.49564,0.16,0.01792,0.04,0.16,0,0.04,-0.26,0,0.46,-0.26,0,0,0,0,0,0,0,0,0,0,0,0,0,0,0,0,0,0,0,0,0,0,0,0,0,0,0,0,0,0,0,-0.473616075,-0.400118485,-1.600165986,0.395573116,-0.608160967,-1.476202143,0.190304511,-0.448870535,-1.238214761,-0.244118514,-0.454944123,-1.268413507
1.2,0.268274174,-0.001217116,0.2,0,0,0,0.275269842,-0.007422704,0,0,0,0,0,0,0,0,0,0,-0.472199623,-0.475571123,-1.489088658,0.437167571,-0.563827982,-1.449066776,0.125892858,-0.443258329,-1.194626231,-0.316846656,-0.464257563,-1.301994967,0.177842096,-1.824995689,2.285387956,0.794933746,0.885560909,0.641904443,-1.304934072,0.097199663,0.981268587,-1.57810549,-0.203174281,-0.647733492,0,0,0,0,0,0,0,0,0,0,0,0,0,0,0,0,0,0,0,0,0,0,0,0,0,0,0.50928,0.16,0.00704,0.04,0.16,5.55E-17,0.04,-0.26,2.78E-17,0.46,-0.26,0,0,0,0,0,0,0,0,0,0,0,0,0,0,0,0,0,0,0,0,0,0,0,0,0,0,0,0,0,0,0,-0.472199623,-0.475571123,-1.489088658,0.437167571,-0.563827982,-1.449066776,0.125892858,-0.443258329,-1.194626231,-0.316846656,-0.464257563,-1.301994967
1.25,0.279655286,-0.00152401,0.2,0,0,0,-2.22E-14,-1.39E-15,0,0,0,0,0,0,0,0,0,0,-0.193852159,-0.741644018,-1.507919456,0.466435976,-0.529979974,-1.418353434,0.074508265,-0.440708668,-1.150049297,-0.384982535,-0.472795428,-1.325728242,26.04990412,-20.13698059,-7.26205984,-4.44E-14,-6.66E-14,-1.78E-13,8.88E-14,-1.11E-14,-1.78E-13,-5.15E-12,4.11E-13,1.07E-12,0,0,0,0,0,0,0,0,0,0,0,0,0,0,0,0,0,0,0,0,0,0,0,0,0,0,0.46,0.16,1.39E-17,0.04,0.16,8.33E-17,0.04,-0.26,0,0.46,-0.26,5.55E-17,0,0,0,0,0,0,0,0,0,0,0,0,0,0,0,0,0,0,0,0,0,0,0,0,0,0,0,0,0,0,-0.193852159,-0.741644018,-1.507919456,0.466435976,-0.529979974,-1.418353434,0.074508265,-0.440708668,-1.150049297,-0.384982535,-0.472795428,-1.325728242
1.3,0.281340431,-0.001591667,0.2,0,0,0,0.059124543,-0.002373782,0,0,0,0,0,0,0,0,0,0,-0.179147971,-0.748273755,-1.508166485,0.470165165,-0.525345933,-1.413204019,0.06716183,-0.44056214,-1.142987303,-0.273653464,-0.431349162,-1.427507685,0.522550627,-0.232418415,-0.007520236,0.129729193,0.161365554,0.182402294,-0.256772568,0.004425035,0.249512953,3.883141794,1.257054911,-3.106297081,0,0,0,0,0,0,0,0,0,0,0,0,0,0,0,0,0,0,0,0,0,0,0,0,0,0,0.46,0.16,4.16E-17,0.04,0.16,0,0.04,-0.26,8.33E-17,0.473383319,-0.24752,0.00704,0,0,0,0,0,0,0,0,0,0,0,0,0,0,0,0,0,0,0,0,0,0,0,0,0,0,0,0,0,0,-0.179147971,-0.748273755,-1.508166485,0.470165165,-0.525345933,-1.413204019,0.06716183,-0.44056214,-1.142987303,-0.273653464,-0.431349162,-1.427507685
1.35,0.285914398,-0.001775306,0.2,0,0,0,0.111123326,-0.004461474,0,0,0,0,0,0,0,0,0,0,-0.136145317,-0.766147868,-1.508345993,0.479813514,-0.513316083,-1.398456703,0.047652511,-0.440493888,-1.123036658,0.017943561,-0.368745078,-1.564441163,1.088352021,-0.432116168,0.002005214,0.228277741,0.28480212,0.368689804,-0.468232876,-0.002939466,0.495391418,6.835957479,1.099273896,-1.937303524,0,0,0,0,0,0,0,0,0,0,0,0,0,0,0,0,0,0,0,0,0,0,0,0,0,0,0.46,0.16,-4.16E-17,0.04,0.16,8.33E-17,0.04,-0.26,5.55E-17,0.505297388,-0.21776,0.01792,0,0,0,0,0,0,0,0,0,0,0,0,0,0,0,0,0,0,0,0,0,0,0,0,0,0,0,0,0,0,-0.136145317,-0.766147868,-1.508345993,0.479813514,-0.513316083,-1.398456703,0.047652511,-0.440493888,-1.123036658,0.017943561,-0.368745078,-1.564441163
1.4,0.292654981,-0.002045933,0.2,0,0,0,0.148678003,-0.005969251,0,0,0,0,0,0,0,0,0,0,-0.063459766,-0.791895417,-1.507429031,0.492884286,-0.497093193,-1.374643361,0.020023417,-0.441357512,-1.091456572,0.364407515,-0.353027718,-1.541250391,1.70744252,-0.559527784,0.031229566,0.277361802,0.342074457,0.546797846,-0.598146144,-0.029615431,0.719676844,6.485390709,-0.352926956,2.16482405,0,0,0,0,0,0,0,0,0,0,0,0,0,0,0,0,0,0,0,0,0,0,0,0,0,0,0.46,0.16,0,0.04,0.16,5.55E-17,0.04,-0.26,-2.78E-17,0.543388372,-0.18224,0.01792,0,0,0,0,0,0,0,0,0,0,0,0,0,0,0,0,0,0,0,0,0,0,0,0,0,0,0,0,0,0,-0.063459766,-0.791895417,-1.507429031,0.492884286,-0.497093193,-1.374643361,0.020023417,-0.441357512,-1.091456572,0.364407515,-0.353027718,-1.541250391
1.45,0.300839975,-0.002374551,0.2,0,0,0,0.171788574,-0.006897114,0,0,0,0,0,0,0,0,0,0,0.042531354,-0.821428652,-1.504798507,0.507154169,-0.479909048,-1.342316302,-0.011797376,-0.444172059,-1.049355358,0.608314521,-0.406586484,-1.369896409,2.403638035,-0.598541697,0.066278756,0.286222664,0.337164195,0.710053046,-0.652570299,-0.076581365,0.919606641,3.674340476,-1.386065375,3.669613496,0,0,0,0,0,0,0,0,0,0,0,0,0,0,0,0,0,0,0,0,0,0,0,0,0,0,0.46,0.16,-4.16E-17,0.04,0.16,0,0.04,-0.26,0,0.575302441,-0.15248,0.00704,0,0,0,0,0,0,0,0,0,0,0,0,0,0,0,0,0,0,0,0,0,0,0,0,0,0,0,0,0,0,0.042531354,-0.821428652,-1.504798507,0.507154169,-0.479909048,-1.342316302,-0.011797376,-0.444172059,-1.049355358,0.608314521,-0.406586484,-1.369896409
1.5,0.307942624,-0.002659714,0.2,0,0,0,-4.44E-14,6.94E-16,0,0,0,0,0,0,0,0,0,0,0.153082574,-0.844544661,-1.501649054,0.518312084,-0.467335222,-1.311136701,-0.037944496,-0.448429818,-1.009163126,0.326951038,-0.939157636,-1.479878721,-7.22E-13,1.55E-13,0,-4.44E-14,-6.66E-14,-1.78E-13,7.82E-12,-1.15E-11,6.04E-12,-36.39051732,-48.58670874,-20.22021343,0,0,0,0,0,0,0,0,0,0,0,0,0,0,0,0,0,0,0,0,0,0,0,0,0,0,0.46,0.16,0,0.04,0.16,0,0.04,-0.26,-1.42E-14,0.46,-0.14,1.39E-17,0,0,0,0,0,0,0,0,0,0,0,0,0,0,0,0,0,0,0,0,0,0,0,0,0,0,0,0,0,0,0.153082574,-0.844544661,-1.501649054,0.518312084,-0.467335222,-1.311136701,-0.037944496,-0.448429818,-1.009163126,0.326951038,-0.939157636,-1.479878721
1.55,0.309083079,-0.002685547,0.2,0,0,0,0.040013676,-0.000906348,0,0,0,0,0,0,0,0,0,0,0.172358433,-0.848053888,-1.501091293,0.520135831,-0.465533764,-1.305877159,0.00074768,-0.381332741,-1.215290624,0.311601184,-0.945185922,-1.47804692,0.682100786,-0.122116711,0.019642566,0.06368293,0.062543797,0.18541942,1.38947863,1.831649255,-6.328617395,-0.549908402,-0.211267958,0.064769233,0,0,0,0,0,0,0,0,0,0,0,0,0,0,0,0,0,0,0,0,0,0,0,0,0,0,0.46,0.16,6.94E-17,0.04,0.16,-2.78E-17,0.0582,-0.25376,0.00704,0.46,-0.14,-2.78E-17,0,0,0,0,0,0,0,0,0,0,0,0,0,0,0,0,0,0,0,0,0,0,0,0,0,0,0,0,0,0,0.172358433,-0.848053888,-1.501091293,0.520135831,-0.465533764,-1.305877159,0.00074768,-0.381332741,-1.215290624,0.311601184,-0.945185922,-1.47804692
1.6,0.312178599,-0.002755663,0.2,0,0,0,0.075204856,-0.001703462,0,0,0,0,0,0,0,0,0,0,0.227267262,-0.857107612,-1.49955813,0.524954093,-0.460939105,-1.291206949,0.126600595,-0.345590701,-1.528521895,0.26441111,-0.961414284,-1.472868345,1.369053484,-0.213276745,0.037328226,0.115323711,0.107632077,0.361746112,3.39423979,-0.455097017,-5.404264557,-1.227943407,-0.392052014,0.128379719,0,0,0,0,0,0,0,0,0,0,0,0,0,0,0,0,0,0,0,0,0,0,0,0,0,0,0.46,0.16,6.94E-17,0.04,0.16,0,0.1016,-0.23888,0.01792,0.46,-0.14,6.94E-17,0,0,0,0,0,0,0,0,0,0,0,0,0,0,0,0,0,0,0,0,0,0,0,0,0,0,0,0,0,0,0.227267262,-0.857107612,-1.49955813,0.524954093,-0.460939105,-1.291206949,0.126600595,-0.345590701,-1.528521895,0.26441111,-0.961414284,-1.472868345
1.65,0.316740419,-0.002858993,0.2,0,0,0,0.100620709,-0.002279156,0,0,0,0,0,0,0,0,0,0,0.315147477,-0.869018153,-1.497338388,0.531721839,-0.454968587,-1.268517637,0.384822011,-0.47342616,-1.651998381,0.176021727,-0.984733941,-1.464809348,2.009380061,-0.246656834,0.047834498,0.146005116,0.123376884,0.511583142,6.440635485,-3.66278555,-0.342344689,-2.180997772,-0.505985096,0.180949818,0,0,0,0,0,0,0,0,0,0,0,0,0,0,0,0,0,0,0,0,0,0,0,0,0,0,0.46,0.16,9.71E-17,0.04,0.16,2.78E-17,0.1534,-0.22112,0.01792,0.46,-0.14,-4.16E-17,0,0,0,0,0,0,0,0,0,0,0,0,0,0,0,0,0,0,0,0,0,0,0,0,0,0,0,0,0,0,0.315147477,-0.869018153,-1.497338388,0.531721839,-0.454968587,-1.268517637,0.384822011,-0.47342616,-1.651998381,0.176021727,-0.984733941,-1.464809348
1.7,0.322279772,-0.002984464,0.2,0,0,0,0.116261234,-0.002633429,0,0,0,0,0,0,0,0,0,0,0.432647602,-0.880755231,-1.494930972,0.539447587,-0.449038088,-1.23919895,0.754509542,-0.645013274,-1.576103407,0.024518287,-1.011225249,-1.454796626,2.558763797,-0.218918426,0.046534107,0.157908214,0.11223191,0.631784072,7.169451949,-2.812955396,2.161269621,-3.692436922,-0.531894513,0.208219152,0,0,0,0,0,0,0,0,0,0,0,0,0,0,0,0,0,0,0,0,0,0,0,0,0,0,0.46,0.16,0,0.04,0.16,0,0.1968,-0.20624,0.00704,0.46,-0.14,-1.39E-17,0,0,0,0,0,0,0,0,0,0,0,0,0,0,0,0,0,0,0,0,0,0,0,0,0,0,0,0,0,0,0.432647602,-0.880755231,-1.494930972,0.539447587,-0.449038088,-1.23919895,0.754509542,-0.645013274,-1.576103407,0.024518287,-1.011225249,-1.454796626
1.75,0.327086626,-0.003093344,0.2,0,0,0,4.44E-14,1.39E-15,0,0,0,0,0,0,0,0,0,0,0.543002483,-0.888100953,-1.493315597,0.545751208,-0.445104866,-1.212123706,0.997477485,-0.710527312,-1.50535616,-0.166099313,-1.031102932,-1.446701421,1.02E-12,-4.44E-14,0,3.15E-12,-1.01E-11,2.91E-11,7.682464776,0.116867285,0.429123409,-2.13E-12,-1.55E-13,1.78E-13,0,0,0,0,0,0,0,0,0,0,0,0,0,0,0,0,0,0,0,0,0,0,0,0,0,0,0.46,0.16,6.94E-17,0.04,0.16,-1.42E-14,0.22,-0.2,6.94E-17,0.46,-0.14,0,0,0,0,0,0,0,0,0,0,0,0,0,0,0,0,0,0,0,0,0,0,0,0,0,0,0,0,0,0,0,0.543002483,-0.888100953,-1.493315597,0.545751208,-0.445104866,-1.212123706,0.997477485,-0.710527312,-1.50535616,-0.166099313,-1.031102932,-1.446701421
1.8,0.327699111,-0.003119682,0.2,0,0,0,0.021489453,-0.000924063,0,0,0,0,0,0,0,0,0,0,0.557593747,-0.888760747,-1.493166463,0.518095696,-0.40987257,-1.37935893,0.989614808,-0.71123926,-1.505442056,-0.195037907,-1.033380793,-1.445742463,0.512885078,-0.022589217,0.005113292,-1.007259845,0.822860478,-5.182339489,-0.276228417,-0.024739158,-0.002969648,-1.029786489,-0.078955021,0.033311617,0,0,0,0,0,0,0,0,0,0,0,0,0,0,0,0,0,0,0,0,0,0,0,0,0,0,0.46,0.16,-4.16E-17,0.0582,0.16,0.00704,0.22,-0.2,9.71E-17,0.46,-0.14,6.94E-17,0,0,0,0,0,0,0,0,0,0,0,0,0,0,0,0,0,0,0,0,0,0,0,0,0,0,0,0,0,0,0.557593747,-0.888760747,-1.493166463,0.518095696,-0.40987257,-1.37935893,0.989614808,-0.71123926,-1.505442056,-0.195037907,-1.033380793,-1.445742463
1.85,0.329361568,-0.003191169,0.2,0,0,0,0.040388972,-0.001736757,0,0,0,0,0,0,0,0,0,0,0.597585553,-0.890301265,-1.492815685,0.419070632,-0.439173345,-1.631898563,0.968117672,-0.713064411,-1.505656185,-0.28013549,-1.039103973,-1.443304942,0.976391898,-0.034030687,0.007779849,-2.819330763,-1.917793921,-4.168691687,-0.524302407,-0.042886177,-0.004953155,-2.157180536,-0.132422696,0.056756127,0,0,0,0,0,0,0,0,0,0,0,0,0,0,0,0,0,0,0,0,0,0,0,0,0,0,0.46,0.16,-4.16E-17,0.1016,0.16,0.01792,0.22,-0.2,5.55E-17,0.46,-0.14,2.78E-17,0,0,0,0,0,0,0,0,0,0,0,0,0,0,0,0,0,0,0,0,0,0,0,0,0,0,0,0,0,0,0.597585553,-0.890301265,-1.492815685,0.419070632,-0.439173345,-1.631898563,0.968117672,-0.713064411,-1.505656185,-0.28013549,-1.039103973,-1.443304942
1.9,0.331811506,-0.003296518,0.2,0,0,0,0.054038624,-0.002323703,0,0,0,0,0,0,0,0,0,0,0.657344831,-0.891890517,-1.492450039,0.156634446,-0.639998348,-1.691391051,0.936052088,-0.715461787,-1.505924267,-0.42345236,-1.046083674,-1.4402781,1.324882278,-0.027987357,0.006466895,-7.473045333,-4.975453664,0.9304272,-0.710991318,-0.049837209,-0.005450391,-3.342954281,-0.137199972,0.059966894,0,0,0,0,0,0,0,0,0,0,0,0,0,0,0,0,0,0,0,0,0,0,0,0,0,0,0.46,0.16,8.33E-17,0.1534,0.16,0.01792,0.22,-0.2,4.16E-17,0.46,-0.14,1.25E-16,0,0,0,0,0,0,0,0,0,0,0,0,0,0,0,0,0,0,0,0,0,0,0,0,0,0,0,0,0,0,0.657344831,-0.891890517,-1.492450039,0.156634446,-0.639998348,-1.691391051,0.936052088,-0.715461787,-1.505924267,-0.42345236,-1.046083674,-1.4402781
1.95,0.33478643,-0.003424442,0.2,0,0,0,0.062438411,-0.0026849,0,0,0,0,0,0,0,0,0,0,0.73069459,-0.892705464,-1.492261059,-0.43037898,-0.840710624,-1.569550577,0.896572351,-0.717890373,-1.506180728,-0.623765064,-1.051658235,-1.437818118,1.543177371,-0.006870963,0.001597191,-13.52900458,-2.768296117,2.714640802,-0.83306148,-0.046503558,-0.004793856,-4.405250255,-0.087294514,0.038770205,0,0,0,0,0,0,0,0,0,0,0,0,0,0,0,0,0,0,0,0,0,0,0,0,0,0,0.46,0.16,8.33E-17,0.1968,0.16,0.00704,0.22,-0.2,5.55E-17,0.46,-0.14,-4.16E-17,0,0,0,0,0,0,0,0,0,0,0,0,0,0,0,0,0,0,0,0,0,0,0,0,0,0,0,0,0,0,0.73069459,-0.892705464,-1.492261059,-0.43037898,-0.840710624,-1.569550577,0.896572351,-0.717890373,-1.506180728,-0.623765064,-1.051658235,-1.437818118
2,0.337367964,-0.00353545,0.2,0,0,0,4.44E-14,2.78E-15,0,0,0,0,0,0,0,0,0,0,0.794475509,-0.892410806,-1.492329504,-0.923455303,-0.89022079,-1.492834098,0.861911811,-0.71955655,-1.506347966,-0.812719747,-1.053432236,-1.437027396,5.17E-11,1.34E-11,-3.00E-11,-14.2634938,0.025846752,0.338851427,-5.33E-13,0,0,-3.38E-12,2.22E-14,0,0,0,0,0,0,0,0,0,0,0,0,0,0,0,0,0,0,0,0,0,0,0,0,0,0,0,0.46,0.16,2.84E-14,0.22,0.16,0,0.22,-0.2,1.25E-16,0.46,-0.14,4.16E-17,0,0,0,0,0,0,0,0,0,0,0,0,0,0,0,0,0,0,0,0,0,0,0,0,0,0,0,0,0,0,0.794475509,-0.892410806,-1.492329504,-0.923455303,-0.89022079,-1.492834098,0.861911811,-0.71955655,-1.506347966,-0.812719747,-1.053432236,-1.437027396
